takaya-hirano-hayashibeLabo/UR5e-IK-Control/main/collect_dataset/20241015/output/datasets.csv
time,joint0,joint1,joint2,joint3,joint4,joint5,target_x,target_y,target_z
0.01,-1.6022159265358982,-1.5393840734641018,1.6022159265358982,-1.5911620591451068,-1.5826710853503538,-0.030775415552897478,0.4979518857620273,0.0019206628343436192,0.3
0.02,-1.639915038378976,-1.5171294563834616,1.639915038378976,-1.6288611709881846,-1.580643108514766,-0.06844917148409731,0.49514729735969765,0.004418648274352808,0.3
0.03,-1.6776141502220538,-1.523473780385522,1.6776141502220538,-1.6665602828312625,-1.5785727029674297,-0.10614828332717481,0.49276649171610254,0.005804985556975792,0.3
0.04,-1.7153132620651317,-1.5297358704999742,1.7153132620651317,-1.7042593946743403,-1.5766305437734365,-0.14384739517025233,0.48963980923359135,0.007506930085093819,0.3
0.05,-1.7530123739082095,-1.536138530281137,1.7530123739082095,-1.7419585065174181,-1.5746934031321105,-0.18154650701332983,0.487405394436838,0.009217406625571772,0.3
0.060000000000000005,-1.7907114857512874,-1.5423409052146384,1.7907114857512874,-1.779657618360496,-1.5727717773420606,-0.21924561885640734,0.48524215876450383,0.011711655205787716,0.3
0.07,-1.8172078255005808,-1.548278052155052,1.8284105975943652,-1.8173567302035738,-1.5712293678510576,-0.24639914717565745,0.48247844974073045,0.012951258534976242,0.3
0.08,-1.8174519595709897,-1.55356339499621,1.866109709437443,-1.8550558420466516,-1.5711638877435765,-0.24664739121332577,0.48029654395227117,0.014046915496880027,0.3
0.09,-1.8182514669759233,-1.558625644382773,1.9038088212805209,-1.8927549538897295,-1.5710744287103036,-0.24744931842211898,0.4777875583596541,0.016126440278184634,0.3
0.09999999999999999,-1.8172403236092505,-1.563595879236646,1.9415079331235987,-1.9304540657328073,-1.5709808476249123,-0.246440217097414,0.4749198749979978,0.018932287401191843,0.3
0.10999999999999999,-1.8149329381777821,-1.5684643246188064,1.9792070449666765,-1.9681531775758851,-1.5708837256899284,-0.24413441289291676,0.4728905982982364,0.02056284957688698,0.3
0.11999999999999998,-1.8143592026683897,-1.568986266648951,2.0126141460800304,-2.005852289418963,-1.5707964367669727,-0.243562862398749,0.4699624555896776,0.022477774861458185,0.3
0.12999999999999998,-1.8117770169191323,-1.5636430602875575,2.0399525856802727,-2.043551401262041,-1.5707975847074747,-0.24098069729016647,0.4674103643107955,0.0238606982207722,0.3
0.13999999999999999,-1.8101685582858678,-1.5603574472498558,2.0604792421244613,-2.070918076050222,-1.5707963275929677,-0.23937223082223014,0.46631040299110493,0.02650414638733232,0.3
0.15,-1.8050077965079694,-1.5626934533042265,2.062842398559965,-2.0709452720506363,-1.570796326794896,-0.23421146971307397,0.4621979273175512,0.028366619114570037,0.3
0.16,-1.803073321630431,-1.5724937579875928,2.0726814835324663,-2.0709840523396528,-1.5707963267949612,-0.232276994835438,0.4599438245962141,0.03000354123998508,0.3
0.17,-1.8006369309867365,-1.5777830550264342,2.0779424046527994,-2.070955676421261,-1.570796326794897,-0.22984060419183927,0.45742570872953103,0.03239193281516671,0.3
0.18000000000000002,-1.7966397793730908,-1.5835957241086478,2.0836840271955475,-2.0708846298817964,-1.5707963267948966,-0.22584345257819424,0.4549497954307097,0.03394455904783475,0.3
0.19000000000000003,-1.7944404790642003,-1.5894466148543367,2.0894212567702697,-2.070770968710829,-1.5707963267948972,-0.2236441522693031,0.45262116808111785,0.03559802727570925,0.3
0.20000000000000004,-1.7919133217231038,-1.5949172348060507,2.094747360692835,-2.070626452681681,-1.570796326794897,-0.22111699492820672,0.45013381466673325,0.03813442345820405,0.3
0.21000000000000005,-1.7874385894764804,-1.6006009515944835,2.1002418013664603,-2.070437176566874,-1.5707963267948961,-0.2166422626815846,0.44803995871643004,0.039700608372134384,0.3
0.22000000000000006,-1.784923466769549,-1.6054971492309176,2.1049429893106604,-2.0702421668746394,-1.5707963267948968,-0.2141271399746521,0.44510872552520786,0.04151265575544297,0.3
0.23000000000000007,-1.7822310358872573,-1.6124396779361299,2.1115583265454605,-2.0699149754042345,-1.5707963267949066,-0.21143470909234596,0.44293923742248015,0.04337789910108916,0.3
0.24000000000000007,-1.779005093799677,-1.6174549396516749,2.116300271634775,-2.069641658777997,-1.5707963267948963,-0.20820876700478066,0.44041615089741887,0.045133503510822695,0.3
0.25000000000000006,-1.776169050621494,-1.6233866363399339,2.1218687278924064,-2.0692784183473703,-1.570796326794897,-0.20537272382659702,0.43746661143856724,0.04672972915395954,0.3
0.26000000000000006,-1.7738745177136375,-1.6304473536881208,2.128440634881861,-2.0687896079886494,-1.5707963267949099,-0.20307819091872087,0.435529218072225,0.048542625887457724,0.3
0.2700000000000001,-1.77055352075732,-1.6348773982122329,2.132532705586034,-2.0684516341686985,-1.5707963267948961,-0.19975719396242403,0.4333626450439204,0.05035941178668147,0.3
0.2800000000000001,-1.7672984979170971,-1.6398825572018139,2.137127021695383,-2.068040791288466,-1.5707963267948966,-0.19650217112220075,0.43156172091669937,0.05224762880708699,0.3
0.2900000000000001,-1.763668533895137,-1.6439208394406906,2.140811425323932,-2.067686912678139,-1.5707963267948961,-0.19287220710024097,0.429002718939049,0.05477458213221235,0.3
0.3000000000000001,-1.7588262234438092,-1.6496858460944848,2.1460366094693075,-2.0671470901697213,-1.5707963267948957,-0.1880298966489147,0.4255130250544717,0.05649314202704428,0.3
0.3100000000000001,-1.7562847605783767,-1.6581110766219003,2.153599766665109,-2.0662850168381444,-1.5707963267949485,-0.1854884337834037,0.4244340654445303,0.05746906740228328,0.3
0.3200000000000001,-1.7544154895518091,-1.6605655938509645,2.1557868190968814,-2.0660175520408135,-1.5707963267948966,-0.18361916275691303,0.4206153402190306,0.05993849375577963,0.3
0.3300000000000001,-1.750119892349823,-1.6695963441140724,2.1637702371845733,-2.064970219865457,-1.5707963267949703,-0.17932356555481843,0.4198532268818484,0.06223225870728475,0.3
0.34000000000000014,-1.7448486004134125,-1.6707134823196275,2.164750909638806,-2.0648337541140758,-1.5707963267948941,-0.17405227361851966,0.41745140934032965,0.06348146612296188,0.3
0.35000000000000014,-1.742814066076429,-1.6764948288886594,2.1698017664804836,-2.064103264386722,-1.5707963267948974,-0.17201773928153133,0.41454384972910185,0.06480792008726043,0.3
0.36000000000000015,-1.7407782155979716,-1.6835828518833644,2.1759387899435207,-2.063152264855083,-1.5707963267949179,-0.16998188880304402,0.4124634705956123,0.06693364488405296,0.3
0.37000000000000016,-1.7363706595199204,-1.6881671812271237,2.179875598571989,-2.0625047441397637,-1.5707963267948952,-0.1655743327250258,0.41036497586893333,0.06935301705206516,0.3
0.38000000000000017,-1.7311876428995119,-1.6926470089588213,2.1836980928349536,-2.0618474106710307,-1.5707963267948943,-0.1603913161046185,0.40826617497481366,0.07098165437904277,0.3
0.3900000000000002,-1.7279405982543912,-1.697461248188598,2.187778896717822,-2.061113975324123,-1.5707963267948963,-0.15714427145949528,0.40551976905442033,0.07268140585986037,0.3
0.4000000000000002,-1.7247328103601014,-1.703956924230939,2.1932406755465834,-2.060080078110551,-1.5707963267949014,-0.15393648356519776,0.4044197355327902,0.07445788868773798,0.3
0.4100000000000002,-1.720648326398846,-1.7060260495370907,2.1949697963796764,-2.0597400736374833,-1.5707963267948946,-0.14985199960395254,0.4023783081124896,0.07613852031559733,0.3
0.4200000000000002,-1.7171394235075763,-1.7106332535222217,2.1988014473551716,-2.058964520627849,-1.5707963267948957,-0.1463430967126809,0.3987745593616078,0.07741213555582716,0.3
0.4300000000000002,-1.7152234373229698,-1.719632973025979,2.2062127678401895,-2.0573761216092703,-1.5707963267950023,-0.14442711052792545,0.39686333524986206,0.08036526804791308,0.3
0.4400000000000002,-1.7082866851739131,-1.7231975748625077,2.2091214462120936,-2.05672019814448,-1.570796326794863,-0.13749035837906623,0.3954983778363348,0.08102009693248263,0.3
0.45000000000000023,-1.7070743938291895,-1.7265151952948954,2.211814963310508,-2.056096094810511,-1.5707963267948974,-0.13627806703429154,0.3928599705759826,0.08371246238605894,0.3
0.46000000000000024,-1.7009702112919651,-1.7321215130287946,2.2163368298866826,-2.0550116436527874,-1.5707963267948926,-0.13017388449707473,0.39129916747044763,0.08556504184177721,0.3
0.47000000000000025,-1.69663719341558,-1.735263665376929,2.218854839009898,-2.0543875004278664,-1.570796326794894,-0.12584086662068758,0.38878908285605746,0.0871057724567043,0.3
0.48000000000000026,-1.693401171759489,-1.741149773149561,2.2235402317794724,-2.053186785424812,-1.5707963267948966,-0.12260484496459266,0.3862227730051698,0.08904433638065501,0.3
0.49000000000000027,-1.689081214780007,-1.7469388899797917,2.2281084198952468,-2.0519658567103556,-1.570796326794895,-0.11828488798511276,0.3839297908453558,0.09054701477376936,0.3
0.5000000000000002,-1.6857866118552107,-1.7522469888890715,2.232262276020889,-2.0508116139267183,-1.5707963267948963,-0.11499028506031496,0.3834655533796246,0.09275531507805085,0.3
0.5100000000000002,-1.680012246484665,-1.7520740224425742,2.2321274441909873,-2.0508497485433077,-1.57079632679489,-0.10921591968977809,0.3804422832374099,0.09509921175397264,0.3
0.5200000000000002,-1.6745790023346212,-1.7587735729753482,2.237324215647162,-2.0493469694667437,-1.5707963267949132,-0.10378267553970306,0.3789318115404781,0.09651907329421698,0.3
0.5300000000000002,-1.6711585215519438,-1.7619366656045377,2.2397594877065297,-2.0486191488968903,-1.5707963267948946,-0.10036219475705024,0.3766811997929136,0.09808161425839666,0.3
0.5400000000000003,-1.6675189645090955,-1.767021927713463,2.2436500956954086,-2.047424494776846,-1.5707963267948954,-0.09672263771420099,0.3750249397423811,0.09982870322898461,0.3
0.5500000000000003,-1.66318022031528,-1.7703206151669977,2.246157689628224,-2.0466334012561234,-1.5707963267948926,-0.09238389352038893,0.37249827756613313,0.10282246150895737,0.3
0.5600000000000003,-1.655588071685928,-1.7750567985953047,2.249735870605421,-2.045475398804975,-1.5707963267947906,-0.08479174489117998,0.37042041582611207,0.10331753621136237,0.3
0.5700000000000003,-1.6547075980197432,-1.7804300998805953,2.2537638314172943,-2.0441300583316027,-1.570796326794901,-0.08391127122484109,0.36877512083754166,0.1059638316939201,0.3
0.5800000000000003,-1.6477476804445157,-1.7829161126192195,2.2556160843042954,-2.043496298479949,-1.570796326794837,-0.07695135364970156,0.3666925739481225,0.1065894295188421,0.3
0.5900000000000003,-1.6464507593898587,-1.7882017520354958,2.259530507864634,-2.0421250826240422,-1.5707963267949003,-0.0756544325949576,0.3656280875119332,0.10803331699272263,0.3
0.6000000000000003,-1.6426397122896021,-1.7899877413740357,2.2608458837065912,-2.041654469127451,-1.5707963267948917,-0.07184338549471217,0.36280508782920096,0.11060324528728109,0.3
0.6100000000000003,-1.6359783610060088,-1.7957088643068915,2.2650347585977344,-2.0401222210857295,-1.5707963267948626,-0.06518203421115903,0.3611173579309626,0.112048628260494,0.3
0.6200000000000003,-1.6322071822259112,-1.7991823326709013,2.267559616146277,-2.0391736102702738,-1.5707963267948928,-0.06141085543102003,0.35992679090991925,0.11422993560570828,0.3
0.6300000000000003,-1.6262404245821638,-1.8005966940711762,2.2685837525389085,-2.0387833852626245,-1.5707963267948857,-0.055444097787282105,0.3583277590612221,0.11575091920311993,0.3
0.6400000000000003,-1.6221736330210161,-1.8037052887509821,2.270826639441723,-2.0379176774856385,-1.5707963267948915,-0.05137730622612641,0.355686246676346,0.11695962251584273,0.3
0.6500000000000004,-1.6191072274873843,-1.810003729935446,2.2753372332648474,-2.0361298301243065,-1.5707963267948983,-0.04831090069248615,0.3537483488833368,0.1204353980014317,0.3
0.6600000000000004,-1.6094049759121918,-1.8121774778379476,2.2768834701815863,-2.035502319138328,-1.5707963267944998,-0.038608649117828193,0.3523469121165957,0.12077334263453153,0.3
0.6700000000000004,-1.6085888114992357,-1.8157869683672871,2.2794391361749207,-2.034448494602536,-1.5707963267949003,-0.03779248470433452,0.35109160340576706,0.1230679195121772,0.3
0.6800000000000004,-1.6021106952674082,-1.8170786365745308,2.2803501023810133,-2.034067792601367,-1.5707963267948726,-0.03131436847254362,0.3486032191958872,0.12353077359810415,0.3
0.6900000000000004,-1.6009944052891,-1.8236201093518962,2.2849346023660613,-2.032110819809096,-1.5707963267949208,-0.030198078494173317,0.3473823982074959,0.12533716150128577,0.3
0.7000000000000004,-1.595849645591966,-1.8252406891732054,2.286062903344894,-2.03161854096658,-1.5707963267948852,-0.0250533187970847,0.3458303915085309,0.12719550217552314,0.3
0.7100000000000004,-1.590545155366607,-1.82770649848766,2.2877740121665946,-2.030863840473827,-1.5707963267948855,-0.019748828571725364,0.3443095699830494,0.12895615398019453,0.3
0.7200000000000004,-1.5854864267283215,-1.830150576554833,2.289463300171086,-2.030109050411146,-1.570796326794886,-0.014690099933439189,0.3427859668839927,0.13142073243092384,0.3
0.7300000000000004,-1.5783317086705304,-1.8318109243807923,2.2906070705765234,-2.0295924729905597,-1.5707963267947758,-0.007535381875792866,0.3416743767861645,0.1311129010801725,0.3
0.7400000000000004,-1.5792600270282786,-1.8352761373238184,2.2929842220617056,-2.028504411532794,-1.5707963267949063,-0.008463700233369724,0.33965800705814775,0.13461873347816405,0.3
0.7500000000000004,-1.5689753462624572,-1.8371054741828006,2.2942337418830965,-2.027924594494848,-1.5707963267943104,0.0018209805316738484,0.3382704191143107,0.1351227305331745,0.3
0.7600000000000005,-1.567479485428802,-1.8404500961719792,2.296508618122918,-2.0268548487458404,-1.5707963267948988,0.003316841366096921,0.3368014616014254,0.13770240061533034,0.3
0.7700000000000005,-1.5598278723519519,-1.8416513817689253,2.297322642724866,-2.026467587750714,-1.5707963267946876,0.010968454442673258,0.3349101865470559,0.14028367468721475,0.3
0.7800000000000005,-1.5521061289877942,-1.8439658326957717,2.298886455360528,-2.025716949459522,-1.5707963267946736,0.018690197806813125,0.3342187341921979,0.1404060414393707,0.3
0.7900000000000005,-1.551704515411699,-1.8457656992557423,2.300098465486771,-2.0251290930259294,-1.5707963267948994,0.019091811383200864,0.33232161839576085,0.14227658285598563,0.3
0.8000000000000005,-1.546019853935557,-1.8488710812540272,2.3021811526334526,-2.024106398174317,-1.5707963267948817,0.02477647285932022,0.3312431185872515,0.14489068778892136,0.3
0.8100000000000005,-1.5381454337628802,-1.8487228268143148,2.302081965492697,-2.02415546547312,-1.5707963267946354,0.03265089303167923,0.32967385739097166,0.14661534369555357,0.3
0.8200000000000005,-1.5328413761576574,-1.8509888141131627,2.303595333116841,-2.023402845798568,-1.570796326794882,0.037954950637219896,0.328774171114308,0.14719177910440565,0.3
0.8300000000000005,-1.5310158921183525,-1.8527891931120906,2.3047936949543866,-2.022800828637193,-1.5707963267948946,0.03978043467654084,0.32709458122340546,0.14833094118276552,0.3
0.8400000000000005,-1.5273968693073978,-1.856059661758515,2.3069614298690384,-2.02169809490542,-1.5707963267948901,0.04339945748749039,0.3252252879182191,0.15084337562820707,0.3
0.8500000000000005,-1.519591981616369,-1.85806897400084,2.3082874059220257,-2.021014758715917,-1.5707963267946263,0.05120434517818242,0.324697296714965,0.15289669076684503,0.3
0.8600000000000005,-1.5133437978247306,-1.8568629896631466,2.307492090894106,-2.0214254280258386,-1.5707963267948717,0.05745252897013468,0.3221703003838319,0.1550662837544459,0.3
0.8700000000000006,-1.5063619115331865,-1.8610291310124134,2.31023278086094,-2.019999976643352,-1.5707963267947733,0.06443441526155279,0.3217675367414685,0.156410961816531,0.3
0.8800000000000006,-1.5022351240537133,-1.860339487775241,2.3097804156406867,-2.020237254660331,-1.5707963267948803,0.06856120274116245,0.32114015926001704,0.15797621635560594,0.3
0.8900000000000006,-1.4973953430587819,-1.8599560814446159,2.3095286981688576,-2.0203689435191254,-1.5707963267948781,0.07340098373609122,0.31961540051033394,0.1596759754237333,0.3
0.9000000000000006,-1.4919333857741786,-1.8618468165267157,2.3107684588172983,-2.01971796908547,-1.5707963267948784,0.07886294102069495,0.3191475286569442,0.16009362083481848,0.3
0.9100000000000006,-1.4905636011967434,-1.862563634231798,2.3112374543258523,-2.0194701468889495,-1.5707963267948934,0.08023272559814912,0.3174763374179243,0.16125807239721224,0.3
0.9200000000000006,-1.4866361965967736,-1.8655645408446964,2.3131947676357743,-2.018426553585973,-1.5707963267948875,0.08416013019811092,0.3169649355822862,0.16350793094548427,0.3
0.9300000000000006,-1.4797134959401406,-1.8637951269088284,2.312041875354561,-2.0190430752405484,-1.5707963267947718,0.09108283085459747,0.31563811736128417,0.1655589402049651,0.3
0.9400000000000006,-1.4731550458657043,-1.8645106609233164,2.312508506035665,-2.018794171907212,-1.5707963267948433,0.09764128092912469,0.31443193124534957,0.16741378241702584,0.3
0.9500000000000006,-1.4671985841827944,-1.8651309502649702,2.31291257066799,-2.018577947197902,-1.5707963267948735,0.10359774261207293,0.3136688955267281,0.16887678928092137,0.3
0.9600000000000006,-1.462546576001839,-1.8650754497006277,2.312876433997545,-2.0185973110918014,-1.5707963267948781,0.10824975079303409,0.3123302065962889,0.1704436698911951,0.3
0.9700000000000006,-1.457376470773921,-1.8664123940589596,2.3137459889661884,-2.0181299217021147,-1.5707963267948781,0.11341985602095173,0.3124980783925493,0.1728434458856959,0.3
0.9800000000000006,-1.4502203691069175,-1.8623693078838477,2.3111103671504605,-2.019537386061399,-1.5707963267947271,0.12057595768776416,0.31113200519117673,0.1729646386145287,0.3
0.9900000000000007,-1.4493571642701137,-1.8658940287675991,2.3134090733947996,-2.018311371422106,-1.5707963267949028,0.12143916252479,0.3103063954416661,0.17504207695755283,0.3
1.0000000000000007,-1.442798624439237,-1.8649785084876132,2.312813307058062,-2.0186311253653084,-1.5707963267948404,0.12799770235558863,0.3096483798600015,0.17650007934918452,0.3
1.0100000000000007,-1.4381614633734392,-1.8645227953448145,2.3125164145903194,-2.018789946040389,-1.5707963267948777,0.13263486342143374,0.3099450092609172,0.1775604153178397,0.3
1.0200000000000007,-1.4351038532611593,-1.862093059218929,2.3109296325659896,-2.019632900141944,-1.5707963267948806,0.13569247353371758,0.3083208661809451,0.17959263481563184,0.3
1.0300000000000007,-1.428341345279693,-1.8633010795670961,2.311719358939616,-2.0192146061673606,-1.5707963267948064,0.1424549815150894,0.30743482379542963,0.18078875164737285,0.3
1.0400000000000007,-1.4243753371097954,-1.8637989115099773,2.312044344930576,-2.019041760215487,-1.5707963267948823,0.1464209896850833,0.3068985070978475,0.18218366576190229,0.3
1.0500000000000007,-1.4199630279317466,-1.863030413982705,2.311542553955729,-2.019308466767908,-1.5707963267948784,0.15083329886312732,0.30592011574755157,0.1837415517557238,0.3
1.0600000000000007,-1.4148564684225218,-1.8631585685791474,2.3116262774777723,-2.0192640356935083,-1.570796326794877,0.15593985837235,0.30539262228145636,0.1853760679370354,0.3
1.0700000000000007,-1.4097280398092111,-1.8619399106670131,2.310829399728969,-2.019685815856837,-1.570796326794875,0.1610682869856583,0.3052195012966751,0.18735690503094488,0.3
1.0800000000000007,-1.4037502265448745,-1.859204874709888,2.3090350414387006,-2.0206264935236895,-1.5707963267948706,0.16704610024998942,0.3048345594328016,0.18689422499968536,0.3
1.0900000000000007,-1.4049331287876454,-1.8609672363377865,2.310192202909659,-2.0200212933667774,-1.5707963267949052,0.16586319800726207,0.30465492936498956,0.18987731285764828,0.3
1.1000000000000008,-1.3959935154976777,-1.8565955679586081,2.3073155167140076,-2.021516275549997,-1.5707963267944227,0.17480281129661357,0.30363268374016267,0.19182715431310646,0.3
1.1100000000000008,-1.3896895804853764,-1.8560702510471792,2.3069684295408175,-2.0216945052885187,-1.5707963267948726,0.18110674630949009,0.3030526399365091,0.19363307932630672,0.3
1.1200000000000008,-1.3840473444121213,-1.854596180069136,2.305992860213392,-2.022193006939137,-1.5707963267948748,0.18674898238274742,0.30316639438120596,0.19440805228946123,0.3
1.1300000000000008,-1.3818315658105933,-1.853017393712053,2.3049453336175927,-2.0227242667004286,-1.5707963267948866,0.188964760984291,0.30236753985315445,0.19570419592981492,0.3
1.1400000000000008,-1.3775711334203102,-1.8529239736199756,2.3048832631699234,-2.022755616344835,-1.5707963267948821,0.1932251933745676,0.3018965452975944,0.19707540316207103,0.3
1.1500000000000008,-1.3732766279420614,-1.8518421159658411,2.304163750849773,-2.023117961678817,-1.5707963267948806,0.19751969885281465,0.3011074671331767,0.19924177000051577,0.3
1.1600000000000008,-1.3664695664092759,-1.8502157179664307,2.3030796491704972,-2.023660257998906,-1.570796326794806,0.20432676038550415,0.3015738074068132,0.20067803941290022,0.3
1.1700000000000008,-1.3625687772152595,-1.8465979397558834,2.300657672210199,-2.0248560592491986,-1.5707963267948795,0.2082275495796153,0.3010925977849023,0.20163058809882106,0.3
1.1800000000000008,-1.3595033376107815,-1.846205172562668,2.300393856118729,-2.0249850103509512,-1.5707963267948868,0.2112929891841021,0.30124092404289987,0.2030685381327546,0.3
1.1900000000000008,-1.3554285192506619,-1.8433847416110543,2.298494387225506,-2.025905972409337,-1.5707963267948808,0.21536780754421422,0.30018927056562383,0.20459965686655243,0.3
1.2000000000000008,-1.3503280937030895,-1.8434195595383658,2.2985178898016727,-2.0258946570581937,-1.5707963267948808,0.2204682330917865,0.29988222269601256,0.20525920111825763,0.3
1.2100000000000009,-1.348223186529477,-1.8430589471688428,2.298274406274555,-2.0260117859006046,-1.5707963267948897,0.22257314026541117,0.30095022240367764,0.2072988515106222,0.3
1.2200000000000009,-1.343060028987921,-1.8368814094752903,2.2940808963460486,-2.027995813665639,-1.570796326794876,0.2277362978069489,0.3000662544095682,0.20755019236336011,0.3
1.2300000000000009,-1.3417500610063728,-1.838652908616894,2.2952877938929572,-2.027431212070961,-1.5707963267948963,0.22904626578852308,0.2997350716254837,0.20951269577842033,0.3
1.2400000000000009,-1.3359053792734765,-1.8360832740078523,2.2935359935918016,-2.028249046378832,-1.5707963267948772,0.2348909475213948,0.30053012983934935,0.2108344886190171,0.3
1.2500000000000009,-1.3326835577892018,-1.8318277009295476,2.2906186117403218,-2.0295872376056603,-1.5707963267948828,0.2381127690056773,0.2992794542711067,0.21267337230619407,0.3
1.260000000000001,-1.3265853528699822,-1.8317102666973886,2.2905378180867517,-2.029623878184249,-1.5707963267948797,0.24421097392489124,0.3006314387122935,0.21422286049466224,0.3
1.270000000000001,-1.3231623634790455,-1.8257001881550954,2.2863822836852954,-2.031478422325086,-1.570796326794882,0.2476339633158318,0.3005836562421436,0.21516854678613598,0.3
1.280000000000001,-1.32046572368914,-1.8241704848846692,2.2853181235584272,-2.031943965468649,-1.5707963267948881,0.25033060310574573,0.29978694946914625,0.2163182727320626,0.3
1.290000000000001,-1.3166571172932597,-1.824098541589528,2.2852680103037875,-2.0319657955091506,-1.5707963267948872,0.2541392095016245,0.30056236674736103,0.21785855950549257,0.3
1.300000000000001,-1.3129111248296588,-1.81952601746652,2.282070973471713,-2.0333412828000803,-1.5707963267948835,0.2578852019652208,0.29990333844762407,0.21796505451315434,0.3
1.310000000000001,-1.3121269007163205,-1.8209301737543866,2.2830552472754273,-2.032921400315939,-1.570796326794897,0.25866942607857685,0.30085852118464484,0.21937343097149656,0.3
1.320000000000001,-1.3089090051716656,-1.816161939018559,2.2797037838284493,-2.0343381716047784,-1.570796326794885,0.2618873216232153,0.3005162557119961,0.22136608626297619,0.3
1.330000000000001,-1.303123148596302,-1.8134850277313248,2.2778109756416858,-2.0351222747052473,-1.5707963267948817,0.26767317819857456,0.3010001199973739,0.22310153800511923,0.3
1.340000000000001,-1.298701725039609,-1.8092814826794454,2.2748222933049154,-2.036337137420358,-1.570796326794884,0.2720946017552708,0.3013438607183441,0.2230379605445556,0.3
1.350000000000001,-1.2991404230162156,-1.8085775798258303,2.274319861290017,-2.0365386082590824,-1.5707963267948963,0.2716559037786805,0.3007059461521799,0.2243914846635913,0.3
1.360000000000001,-1.294928056093436,-1.8077060461393988,2.2736969962362976,-2.0367872768917903,-1.5707963267948872,0.275868270701448,0.3017933443133637,0.225813091382679,0.3
1.370000000000001,-1.291884369483018,-1.8026380448320898,2.2700578556202626,-2.038216137583062,-1.5707963267948863,0.27891195731186513,0.3032786543305297,0.22764672464923522,0.3
1.380000000000001,-1.288065207842139,-1.7959383707389107,2.265202013302499,-2.0400599693584454,-1.5707963267948606,0.28273111895271064,0.3030977079520709,0.2281741492998636,0.3
1.390000000000001,-1.286495520336175,-1.7954355417608063,2.264835493668496,-2.040196278702585,-1.5707963267948934,0.2843008064587174,0.3037427402066604,0.2301267768895802,0.3
1.400000000000001,-1.2817445792969495,-1.7905102084523241,2.2612299843631365,-2.0415161027057023,-1.5707963267948857,0.28905174749793194,0.30279716269382206,0.23111574291889483,0.3
1.410000000000001,-1.2783280221296858,-1.7909578665456642,2.261558837871591,-2.0413972981208213,-1.5707963267948915,0.2924683046652034,0.3038506898483407,0.23119103561670737,0.3
1.420000000000001,-1.2789758954523616,-1.7883924335098318,2.2596711195182615,-2.0420750128033243,-1.570796326794895,0.2918204313425324,0.3046217097126886,0.2324554341864525,0.3
1.430000000000001,-1.2762191819475062,-1.7843982082133416,2.2567169465405774,-2.043115065122128,-1.5707963267948892,0.29457714484738096,0.30522816314886475,0.23456406220206896,0.3
1.440000000000001,-1.2711107751336435,-1.7793124591543785,2.2529287787097036,-2.044412646350216,-1.5707963267948861,0.29968555166123934,0.30609794878135366,0.23526071665535347,0.3
1.450000000000001,-1.2699813723757223,-1.7761108232638187,2.2505286360266443,-2.0452141395577192,-1.5707963267948923,0.30081495441916856,0.30716321324442886,0.2368422025462582,0.3
1.460000000000001,-1.2666967656641843,-1.770931664501998,2.2466208039261057,-2.0464854662190013,-1.5707963267948892,0.304099561130702,0.3065142553657471,0.23935114304178806,0.3
1.470000000000001,-1.2595982247621307,-1.7680058471616849,2.244399379389301,-2.0471898590224873,-1.5707963267948313,0.3111981020326738,0.3084937175108294,0.23830569695496417,0.3
1.480000000000001,-1.2639692389894264,-1.765381090696835,2.2423980354036477,-2.0478132715017088,-1.570796326794898,0.3068270878054723,0.30754432707231094,0.24008448665268248,0.3
1.490000000000001,-1.258553580118492,-1.7644114274192773,2.2416566433839695,-2.0480415427595853,-1.5707963267948888,0.3122427466763939,0.3083969424500121,0.24135411228685494,0.3
1.500000000000001,-1.2559806720703741,-1.7602887255582902,2.238492197990298,-2.048999799226902,-1.570796326794891,0.31481565472451495,0.30995724978398476,0.24281799464580658,0.3
1.5100000000000011,-1.2535249520396037,-1.7542707694185098,2.2338372501191963,-2.050362807495581,-1.5707963267948906,0.3172713747552845,0.3109990586386221,0.2438150743183388,0.3
1.5200000000000011,-1.2518505530708015,-1.7502353287940162,2.2306919573729562,-2.051252955373835,-1.5707963267948926,0.3189457737240893,0.31189495202071943,0.24510344141572496,0.3
1.5300000000000011,-1.2493251203236269,-1.7460311328613798,2.2273947270025665,-2.0521599209360817,-1.570796326794892,0.3214712064712633,0.310911751842518,0.24590555053650584,0.3
1.5400000000000011,-1.2464510378890403,-1.7468021129623652,2.2280009458934003,-2.0519951597259314,-1.5707963267948943,0.3243452889058522,0.313422542841249,0.24672160326421316,0.3
1.5500000000000012,-1.2465219882525471,-1.7398893751017657,2.222540398320387,-2.053447350013483,-1.5707963267948672,0.32427433854230936,0.3143303161837712,0.24741671882230426,0.3
1.5600000000000012,-1.245541078641161,-1.73671162718871,2.2200112385552555,-2.0540959381614408,-1.570796326794894,0.32525524815373175,0.3153255557286792,0.249260080370713,0.3
1.5700000000000012,-1.241768465590978,-1.7313850999307576,2.215744997612992,-2.05515622447713,-1.5707963267948912,0.3290278612039107,0.31676245495252664,0.2502553162377021,0.3
1.5800000000000012,-1.2405141171374738,-1.7265733171641025,2.2118620344457693,-2.0560850440765632,-1.5707963267948934,0.33028220965741784,0.31632750692871187,0.2508630398907711,0.3
1.5900000000000012,-1.2386336123629644,-1.7264738292857866,2.2117814597845715,-2.056103957293682,-1.570796326794895,0.3321627144319299,0.31810854044395515,0.2528723861827287,0.3
1.6000000000000012,-1.2351941199605625,-1.7192163245009482,2.2058717958697773,-2.057451798163683,-1.5707963267948588,0.3356022068342806,0.3191636532390164,0.2526811214511805,0.3
1.6100000000000012,-1.2365676055347796,-1.7172811226004014,2.2042853662905784,-2.057800570485074,-1.5707963267948966,0.3342287212601169,0.31954883015430974,0.25450998801867825,0.3
1.6200000000000012,-1.2324152205223327,-1.7133557542763254,2.201053679787456,-2.0584942523060263,-1.5707963267948923,0.3383811062725575,0.32174198902725165,0.25584854783703387,0.3
1.6300000000000012,-1.2310392011872784,-1.7064308578244833,2.1953074832771864,-2.059672952247576,-1.5707963267948744,0.33975712560758625,0.32236871105106546,0.2565446919222404,0.3
1.6400000000000012,-1.2298903595995305,-1.7039310228289828,2.1932189976971737,-2.060084301663087,-1.5707963267948948,0.34090596719536337,0.3234781047340022,0.2573443223697027,0.3
1.6500000000000012,-1.2289115161082023,-1.700243835946918,2.1901248126130572,-2.060677303461036,-1.5707963267948946,0.3418848106866913,0.3247043877194952,0.2588568320844585,0.3
1.6600000000000013,-1.2263309115188037,-1.6951289638050542,2.1858054234690476,-2.061472786458891,-1.5707963267948934,0.3444654152760882,0.3248154041920521,0.2586165555217942,0.3
1.6700000000000013,-1.227001741226696,-1.6952978104832401,2.185948514309735,-2.0614470306213915,-1.5707963267948972,0.34379458556820114,0.32750655219106845,0.2601924770682957,0.3
1.6800000000000013,-1.2255461500025946,-1.6870358861279826,2.178906460556153,-2.0626669012230106,-1.5707963267948406,0.34525017679222125,0.3281535224553755,0.2609961312825296,0.3
1.6900000000000013,-1.2241935254093692,-1.6843536202914386,2.176602470473836,-2.063045176977294,-1.570796326794895,0.3466028013855251,0.329481270262042,0.2623193688248475,0.3
1.7000000000000013,-1.2222054504340951,-1.6794039340770146,2.172327934744494,-2.063720327462378,-1.570796326794894,0.3485908763607977,0.3311824964116714,0.26275891673348384,0.3
1.7100000000000013,-1.2226243740989278,-1.675153655854645,2.168633674890446,-2.0642763458306987,-1.570796326794895,0.34817195269596685,0.3323418309271526,0.2629758076818146,0.3
1.7200000000000013,-1.223101044299729,-1.6723985614397288,2.1662272717725854,-2.0646250371277537,-1.5707963267948957,0.34769528249516624,0.333776076640623,0.26420411460179954,0.3
1.7300000000000013,-1.2214519929682275,-1.6674305939385223,2.1618647187425633,-2.065230451598939,-1.5707963267948943,0.34934433382666574,0.3349512441552903,0.26577500973650653,0.3
1.7400000000000013,-1.2188063745528817,-1.6624555287112703,2.15746579926877,-2.065806597352399,-1.5707963267948941,0.3519899522420112,0.3372266274932817,0.2664000889849668,0.3
1.7500000000000013,-1.219290552929857,-1.656781102234473,2.152411643781666,-2.0664268683420923,-1.570796326794895,0.35150577386503723,0.3379504684412954,0.26679524109210234,0.3
1.7600000000000013,-1.2189929641466926,-1.6546633050304334,2.1505152639652145,-2.0666482857296784,-1.570796326794896,0.3518033626482031,0.33994594387361177,0.26756939867411994,0.3
1.7700000000000014,-1.2188978608690237,-1.6493470061086375,2.145730623489902,-2.067179944176163,-1.5707963267948948,0.3518984659258702,0.34041053858752557,0.2688456834406535,0.3
1.7800000000000014,-1.216380951017651,-1.646355460575316,2.1430230397148,-2.0674639059343813,-1.5707963267948948,0.35441537577724275,0.34289477143503744,0.2705929160014067,0.3
1.7900000000000014,-1.2145126234511652,-1.6385320994962498,2.1358904432837256,-2.0681546705823624,-1.5707963267948657,0.35628370334368553,0.3443925165478951,0.27045231178575985,0.3
1.8000000000000014,-1.2160814272333493,-1.6357311463391682,2.1333185499502942,-2.0683837304060235,-1.5707963267948961,0.3547148995615464,0.3458005422613601,0.27190580860714225,0.3
1.8100000000000014,-1.213994844322349,-1.6305924800529799,2.128575071370853,-2.0687789181127725,-1.5707963267948948,0.35680148247254473,0.34750732562207476,0.2718905313652079,0.3
1.8200000000000014,-1.2154466248836486,-1.6271853694947236,2.1254120950702764,-2.0690230523704507,-1.570796326794896,0.35534970191124704,0.34909007013676985,0.2725483221768709,0.3
1.8300000000000014,-1.2152901995891445,-1.622975606430959,2.1214842647410874,-2.069304985105027,-1.5707963267948952,0.35550612720575037,0.3510360602805253,0.2737713021044209,0.3
1.8400000000000014,-1.2141848248366385,-1.6171695959856718,2.1160313095816643,-2.069658040390893,-1.5707963267948948,0.3566115019582557,0.35319144645692946,0.2749484088384792,0.3
1.8500000000000014,-1.2133637629380467,-1.611040681326779,2.110230042787077,-2.0699856882551986,-1.5707963267948948,0.3574325638568473,0.35408118642286196,0.27444769879740016,0.3
1.8600000000000014,-1.2151887262768246,-1.610043005971561,2.1092813218120994,-2.0700346426354357,-1.5707963267948968,0.35560760051807205,0.35609664936615476,0.2758540239725484,0.3
1.8700000000000014,-1.2137545420781497,-1.6038662970425797,2.103380376582098,-2.070310406334419,-1.570796326794895,0.3570417847167444,0.3578155395118489,0.27662007483577916,0.3
1.8800000000000014,-1.2134837210477338,-1.5992823516340202,2.0989706644698534,-2.070484639630733,-1.5707963267948957,0.35731260574716134,0.3595539291497147,0.277660177613647,0.3
1.8900000000000015,-1.212639523052056,-1.594254883502232,2.094104472572151,-2.070645915864819,-1.5707963267948952,0.35815680374283865,0.3610992722488644,0.27787817928889613,0.3
1.9000000000000015,-1.213414530728693,-1.5908727391432531,2.0908132684046636,-2.070736856056309,-1.5707963267948957,0.3573817960662025,0.3634051891753089,0.2794511665057119,0.3
1.9100000000000015,-1.211892899898815,-1.5839503670638961,2.0840329845129726,-2.0708789442439874,-1.570796326794886,0.358903426896066,0.36467617427739085,0.27877427116412845,0.3
1.9200000000000015,-1.214352391148445,-1.5824719899412882,2.0825772826748743,-2.0709016195284833,-1.5707963267948968,0.35644393564645166,0.3664530794956283,0.28057692572907383,0.3
1.9300000000000015,-1.211930340755784,-1.5762777949692768,2.0764487386782915,-2.0709672705039166,-1.5707963267948948,0.35886598603911013,0.3695873622893955,0.28072533106207365,0.3
1.9400000000000015,-1.2140942633742422,-1.5699219719564157,2.0701110051907587,-2.0709853600292445,-1.570796326794895,0.3567020634206522,0.37069695012355497,0.28176275843023624,0.3
1.9500000000000015,-1.2127828634369606,-1.5662142866460507,2.0663908220064746,-2.0709728621553234,-1.5707963267948954,0.35801346335793477,0.3718916403002828,0.28198133104317336,0.3
1.9600000000000015,-1.2132613411135869,-1.5635605346753882,2.063717696005587,-2.070953488125097,-1.5707963267948961,0.35753498568130926,0.3746794575159691,0.28324962711310897,0.3
1.9700000000000015,-1.212789381479393,-1.556265410291046,2.056324481230648,-2.070855397734553,-1.5707963267948788,0.3580069453154774,0.3760039524282126,0.28305791595175417,0.3
1.9800000000000015,-1.2142157820351605,-1.5539726192416243,2.0539872841639486,-2.070810991717222,-1.570796326794896,0.3565805447597358,0.37809268536590884,0.2845968957966844,0.3
1.9900000000000015,-1.2126443468705532,-1.547673736616772,2.047532991029778,-2.070655581207913,-1.5707963267948941,0.3581519799243397,0.3801460321185524,0.28419084979374687,0.3
2.0000000000000013,-1.2150595083401616,-1.5442870184328399,2.044042464003004,-2.070551772365063,-1.5707963267948961,0.3557368184547345,0.3828683167063387,0.28521461167288203,0.3
2.010000000000001,-1.2150343162122377,-1.537542740893839,2.0370493013195317,-2.0703028872206315,-1.5707963267948866,0.3557620105826447,0.38442702469928103,0.285821942777925,0.3
2.020000000000001,-1.2149769238142338,-1.533661126735288,2.032999003195875,-2.070134203255487,-1.570796326794896,0.35581940298066167,0.38648296026949247,0.28576848798359383,0.3
2.0300000000000007,-1.216636631660788,-1.5297721456620916,2.028922388004266,-2.0699465691370746,-1.570796326794896,0.35415969513410767,0.38873981473806096,0.2868452780277803,0.3
2.0400000000000005,-1.2161469360658277,-1.5238933870582503,2.0227246125213836,-2.0696275522580354,-1.5707963267948954,0.35464939072906704,0.3908938813914983,0.2875556777097468,0.3
2.0500000000000003,-1.2163223906322427,-1.518747543453366,2.0172645928639303,-2.069313376205466,-1.5707963267948957,0.3544739361626529,0.3925362895264556,0.2875343964702366,0.3
2.06,-1.21758354929129,-1.515624055269482,2.013934509132257,-2.0691067806576746,-1.570796326794896,0.35321277750360597,0.3945271775268282,0.2891566917621184,0.3
2.07,-1.2158113958189245,-1.5095303922050727,2.007403262451787,-2.0686691970416273,-1.5707963267948932,0.3549849309759675,0.3969039522671856,0.28874572667415616,0.3
2.0799999999999996,-1.2183761414593293,-1.505556291597891,2.003119202408257,-2.0683592376052666,-1.570796326794896,0.35242018533556624,0.3993122727948451,0.28922672355623524,0.3
2.0899999999999994,-1.219176575876876,-1.5002813584126509,1.9974029070942605,-2.0679178754765117,-1.5707963267948954,0.351619750918019,0.401051282090639,0.28973691437214805,0.3
2.099999999999999,-1.2194284665303459,-1.4962535534458614,1.9930151124019362,-2.067557885750975,-1.5707963267948957,0.35136786026454947,0.4037688881647652,0.29044111179008886,0.3
2.109999999999999,-1.2200008346389732,-1.490099813086763,1.986272997045104,-2.0669695107532693,-1.570796326794891,0.3507954921559159,0.40485241498675417,0.29094732074153534,0.3
2.1199999999999988,-1.2197862710020118,-1.4873416990832795,1.9832361319441811,-2.0666907596558013,-1.5707963267948961,0.35101005579288413,0.40776386862976377,0.2907198827993797,0.3
2.1299999999999986,-1.2223026840133084,-1.4821066594739805,1.9774464332056134,-2.0661361005265357,-1.5707963267948957,0.34849364278158684,0.41021107218068836,0.29245025755859394,0.3
2.1399999999999983,-1.2206741873221518,-1.4751074089415976,1.9696533334233077,-2.065342251276716,-1.570796326794878,0.3501221394727206,0.4128327703640398,0.29249262698778533,0.3
2.149999999999998,-1.2224354178823578,-1.470073960538799,1.9640120840423299,-2.0647344502984337,-1.5707963267948954,0.3483609089125376,0.41517971687647576,0.29243703297512075,0.3
2.159999999999998,-1.2241772313468644,-1.4656944440529365,1.9590786466526893,-2.0641805293946542,-1.570796326794896,0.34661909544803093,0.41725849952495075,0.29298228363381695,0.3
2.1699999999999977,-1.2245703236550443,-1.4610242622346357,1.9537921012647743,-2.0635641658250408,-1.5707963267948957,0.3462260031398511,0.4201395433284872,0.2932809189807049,0.3
2.1799999999999975,-1.2259789627463846,-1.4551682452688912,1.9471258223240564,-2.0627539038500897,-1.5707963267948921,0.344817364048506,0.4220590191462874,0.2934586510616326,0.3
2.1899999999999973,-1.2269491715917218,-1.4512980629914431,1.9426973478118992,-2.062195611615357,-1.570796326794896,0.34384715520317416,0.42375973765119435,0.29487446529365313,0.3
2.199999999999997,-1.2254252722374797,-1.446218592233525,1.9368576534865234,-2.0614353880479026,-1.5707963267948954,0.3453710545574155,0.4269081540760441,0.2942179934231362,0.3
2.209999999999997,-1.2287851806917276,-1.4411270543233763,1.9309728280947476,-2.060642100566275,-1.5707963267948957,0.34201114610316774,0.428166486728541,0.29447449653394775,0.3
2.2199999999999966,-1.229144419314106,-1.4384141595529358,1.9278244913335676,-2.0602066585755314,-1.5707963267948961,0.34165190748079016,0.4311809532904276,0.29466303386796394,0.3
2.2299999999999964,-1.230793022999356,-1.4324729542174057,1.9208987438492704,-2.059222116426811,-1.5707963267948888,0.3400033037955311,0.43333673495280617,0.2950717381451488,0.3
2.239999999999996,-1.2314512035607148,-1.4278742343738053,1.9155088445206465,-2.058430936941744,-1.5707963267948954,0.3393451232341804,0.4358841774196902,0.29602168510751004,0.3
2.249999999999996,-1.231357383329646,-1.4218485207796314,1.9084080903860852,-2.0573558964014156,-1.5707963267948866,0.3394389434652384,0.43750022352130646,0.29557370395521837,0.3
2.259999999999996,-1.2332376649607157,-1.4193726772115933,1.9054779471077847,-2.056901596691091,-1.5707963267948963,0.33755866183418004,0.440598541652312,0.296338736781562,0.3
2.2699999999999956,-1.2338297905300568,-1.4125572077967168,1.8973741033055092,-2.055613222303839,-1.5707963267948746,0.33696653626481265,0.4424716080229177,0.29623678449862856,0.3
2.2799999999999954,-1.2352179335957763,-1.4091553912288803,1.893308519185722,-2.054949454751743,-1.5707963267948957,0.3355783931991194,0.44503010307484603,0.29773506926387205,0.3
2.289999999999995,-1.2341140816376068,-1.4024487190849846,1.8852529633797646,-2.0536005710898264,-1.5707963267948748,0.3366822451572637,0.44819575517642396,0.29741984121637666,0.3
2.299999999999995,-1.2366918720492288,-1.396886591257477,1.878531717926574,-2.05244145346403,-1.5707963267948912,0.3341044547456614,0.45047997577861393,0.2981430099393411,0.3
2.3099999999999947,-1.2368177361473462,-1.3916866588380192,1.872215086530608,-2.051324754487494,-1.5707963267948952,0.3339785906475488,0.4529900828816883,0.2987047883400838,0.3
2.3199999999999945,-1.237373202457971,-1.3862690989710658,1.8656002030317538,-2.050127430855613,-1.5707963267948926,0.333423124336921,0.4557893127496674,0.2981015941300552,0.3
2.3299999999999943,-1.2401874589571122,-1.381749387229018,1.8600552080094777,-2.049102147575364,-1.5707963267948954,0.33060886783778326,0.45732960888751967,0.29832835129364965,0.3
2.339999999999994,-1.2407268404140146,-1.378572384360024,1.8561431767279333,-2.0483671191628106,-1.570796326794896,0.33006948638088124,0.460668051277168,0.2987503131662788,0.3
2.349999999999994,-1.2420090543010898,-1.37177544005795,1.8477340611627722,-2.0467549478999123,-1.5707963267948701,0.32878727249377665,0.4625158933378355,0.2978572956051859,0.3
2.3599999999999937,-1.2447104588214382,-1.369383375698484,1.8447617996019707,-2.046174750698387,-1.5707963267948961,0.32608586797345807,0.4648872145108933,0.29881462381477,0.3
2.3699999999999934,-1.2444357919825535,-1.3637588776571599,1.8377468469081373,-2.0447842960459415,-1.5707963267948875,0.326360534812333,0.46729495062886617,0.2986940300928861,0.3
2.3799999999999932,-1.2460820419580065,-1.3593720720137938,1.8322500763705432,-2.0436743311516543,-1.5707963267948954,0.3247142848368887,0.47034045800833113,0.2991411873992377,0.3
2.389999999999993,-1.2470944451840813,-1.3531014080329535,1.824354131132186,-2.042049049894283,-1.5707963267948761,0.3237018816107927,0.4726363835879326,0.2993243731533921,0.3
2.399999999999993,-1.2481190801432513,-1.3485598336878282,1.8186071186247441,-2.040843611731822,-1.5707963267948957,0.32267724665164405,0.47545834670362946,0.2995408400004115,0.3
2.4099999999999926,-1.2493824383762981,-1.3429883056390266,1.8115243969418444,-2.0393324180977923,-1.5707963267948861,0.32141388841858687,0.4765256884434463,0.29933878681576137,0.3
2.4199999999999924,-1.2503499964141465,-1.3412171604647833,1.809265399737187,-2.0388445660673034,-1.5707963267948961,0.32044633038074954,0.4796706325252109,0.300136763355314,0.3
2.429999999999992,-1.250774307190603,-1.3343502762630317,1.8004731692483134,-2.0369192197804336,-1.5707963267948637,0.32002201960425813,0.48271098777262506,0.2996767752314102,0.3
2.439999999999992,-1.2532966082356858,-1.3291607794336717,1.7937929825643895,-2.0354285299256545,-1.5707963267948915,0.31749971855920506,0.48528612966534856,0.29896593192525167,0.3
2.4499999999999917,-1.2559658341753885,-1.3251311048771943,1.7885846847737599,-2.0342499066914708,-1.5707963267948954,0.3148304926195067,0.48704081638575536,0.30063522707565143,0.3
2.4599999999999915,-1.2540894036045913,-1.3198779763399007,1.7817674919175193,-2.032685842372571,-1.5707963267948895,0.31670692319029753,0.4896601235163423,0.300008870671992,0.3
2.4699999999999913,-1.2566154072746922,-1.3156628690450638,1.776274862938966,-2.0314083206888087,-1.5707963267948952,0.31418091952020294,0.49213619725564794,0.29962593028036505,0.3
2.479999999999991,-1.2586303585441343,-1.3114275294927245,1.7707357404104822,-2.0301045377126647,-1.5707963267948954,0.31216596825076093,0.49519815734229294,0.30048730481455976,0.3
2.489999999999991,-1.2588444462318886,-1.3046516806638515,1.7618322407087628,-2.027976886840102,-1.57079632679486,0.31195188056297046,0.498185679397778,0.30001372064515747,0.3
2.4999999999999907,-1.2612605301645023,-1.2995437935681147,1.7550865651542629,-2.0263390983810963,-1.5707963267948903,0.30953579663038766,0.49915817004472024,0.3013556139032535,0.3
2.5099999999999905,-1.2595298825505385,-1.2961744835001645,1.750621036602896,-2.0252428798976374,-1.5707963267948954,0.31126644424435673,0.5026298647060814,0.29954381760880344,0.3
2.5199999999999902,-1.2644220100026993,-1.2916601619800474,1.7446182317065675,-2.02375439652143,-1.570796326794895,0.30637431679219573,0.5055742836769667,0.29933683828849633,0.3
2.52999999999999,-1.26631892584432,-1.2863088432740146,1.7374732781384963,-2.02196076165948,-1.5707963267948841,0.30447740095056464,0.507067466687689,0.29993917463000286,0.3
2.53999999999999,-1.2660975776909262,-1.2827989579703434,1.7327698345037594,-2.020767203328322,-1.5707963267948954,0.3046987491039692,0.5105446236804316,0.29973591674596345,0.3
2.5499999999999896,-1.2682422499139017,-1.276423990333098,1.7241924509267499,-2.018564787388833,-1.5707963267948624,0.30255407688096164,0.5121002309141588,0.30005349607119036,0.3
2.5599999999999894,-1.2685195694869673,-1.273113858404073,1.7197212120846668,-2.0174036804755,-1.5707963267948952,0.3022767573079281,0.5146659050200558,0.2996332016411987,0.3
2.569999999999989,-1.2705268607797329,-1.2687012597155363,1.7137422288490407,-2.0158372959284145,-1.5707963267948952,0.3002694660151623,0.5184535296863878,0.3008082646641827,0.3
2.579999999999989,-1.2705231082546593,-1.2601919086005793,1.7021525931520227,-2.0127570113470625,-1.5707963267948115,0.30027321854015676,0.519735175880252,0.2993610304714656,0.3
2.5899999999999888,-1.2735352309035857,-1.2593439364017656,1.7009933775470616,-2.012445767940195,-1.5707963267948966,0.2972610958913109,0.5225277141617876,0.2991544934493493,0.3
2.5999999999999885,-1.2752647284567509,-1.2542408777107263,1.69400092489774,-2.0105563739820043,-1.5707963267948855,0.2955315983381358,0.5260732196676998,0.29973664798778216,0.3
2.6099999999999883,-1.276070313171931,-1.2468314870196782,1.6837985108344409,-2.0077633506102153,-1.5707963267948324,0.2947260136229057,0.5278685878903018,0.2989624155516544,0.3
2.619999999999988,-1.27820337644308,-1.2442383646527178,1.6802140410786528,-2.0067720032208407,-1.570796326794896,0.29259295035181554,0.5293889922129897,0.29877110168203064,0.3
2.629999999999988,-1.279251819105651,-1.2415337681428846,1.676467856437727,-2.005730415089748,-1.5707963267948954,0.29154450768924506,0.5321514376631353,0.2992694932492077,0.3
2.6399999999999877,-1.2797834054515764,-1.2357007783440823,1.6683620624790558,-2.003457610930135,-1.5707963267948664,0.2910129213432926,0.5349030021912127,0.29932124449432607,0.3
2.6499999999999875,-1.281020276747606,-1.2303655084337812,1.6609164406346615,-2.001347258995949,-1.5707963267948772,0.28977605004727325,0.5372612752296896,0.29903787496395684,0.3
2.6599999999999873,-1.2825954146569156,-1.226138434209601,1.6549960960325787,-1.9996539886178912,-1.5707963267948948,0.2882009121379793,0.5398015042124763,0.29828480247741546,0.3
2.669999999999987,-1.2849934780274523,-1.222053784515561,1.6492574397916062,-1.9979999820709586,-1.5707963267948946,0.28580284876744233,0.5426940201854896,0.29851320947695914,0.3
2.679999999999987,-1.2859795317130271,-1.2162359906794462,1.6410537732866,-1.9956141094023554,-1.5707963267948624,0.2848167950818396,0.5456013370745196,0.29763880304282836,0.3
2.6899999999999866,-1.2887075210925523,-1.2115473634851497,1.6344167509217442,-1.9936657142315475,-1.5707963267948901,0.2820888057023389,0.5472856110746063,0.2980736772301695,0.3
2.6999999999999864,-1.2887915675058148,-1.2078324943912948,1.629141988980462,-1.9921058213840799,-1.5707963267948948,0.28200475928908014,0.5493741924079322,0.2967380916581224,0.3
2.709999999999986,-1.2918471378532377,-1.2051912803193237,1.6253830590745115,-1.9909881055500964,-1.5707963267948954,0.27894918894165804,0.551726041752834,0.2965634611440099,0.3
2.719999999999986,-1.2931796453032678,-1.2008122836001174,1.619135147145323,-1.9891191903401226,-1.5707963267948946,0.27761668149162705,0.5542415858528629,0.2964564280502462,0.3
2.7299999999999858,-1.2944697438875103,-1.1960374769278266,1.6123001134563604,-1.9870589633235252,-1.5707963267948863,0.2763265829073773,0.5572849191169408,0.2967486929708832,0.3
2.7399999999999856,-1.2953596556557179,-1.1898131240879077,1.6033551885481976,-1.9843383912556691,-1.5707963267948442,0.2754366711391353,0.5592201793502326,0.29676871228595886,0.3
2.7499999999999853,-1.2961790873461847,-1.1860219152692997,1.59788763211847,-1.9826620436440867,-1.5707963267948946,0.27461723944870997,0.5615764972099673,0.2955338539355691,0.3
2.759999999999985,-1.2991244975872447,-1.1826968030278906,1.593080308006224,-1.9811798317732474,-1.5707963267948946,0.2716718292076503,0.5643256766755487,0.29550585341505825,0.3
2.769999999999985,-1.300352246354872,-1.1773492516441655,1.58532567260933,-1.9787727477603414,-1.5707963267948664,0.2704440804400001,0.5656590287741022,0.29567481883484564,0.3
2.7799999999999847,-1.3006621371646057,-1.1745652671074447,1.5812771842335944,-1.9775082439210614,-1.570796326794895,0.2701341896302894,0.5682101846726639,0.29568322046952,0.3
2.7899999999999845,-1.3017359956670544,-1.169554882782529,1.5739715457981296,-1.975212989810699,-1.570796326794875,0.2690603311278248,0.5713768950237854,0.2944894243253011,0.3
2.7999999999999843,-1.3049044848042073,-1.1645468754089006,1.566644416289816,-1.9728938676760237,-1.5707963267948741,0.26589184199067156,0.5730100807085929,0.2943198540804884,0.3
2.809999999999984,-1.305845156118811,-1.1615026758518636,1.5621783578928503,-1.9714720088359012,-1.5707963267948946,0.2649511706760842,0.5756116816468926,0.29443480399138544,0.3
2.819999999999984,-1.306746755564242,-1.1562556037978824,1.5544590696849172,-1.9689997926822371,-1.5707963267948644,0.2640495712306296,0.5782293846959695,0.29409868637289144,0.3
2.8299999999999836,-1.3083340330897986,-1.151421514942187,1.5473234108192608,-1.9666982226721552,-1.5707963267948772,0.2624622937050832,0.5797974425271569,0.2938647152018364,0.3
2.8399999999999834,-1.3093288211637368,-1.1485526659987708,1.5430778588775185,-1.9653215196736629,-1.5707963267948948,0.26146750563115817,0.582127818070731,0.29334013695753075,0.3
2.849999999999983,-1.3110671481236198,-1.1444575225596958,1.5370036437379742,-1.963342447973204,-1.5707963267948937,0.2597291786712744,0.5845495091429932,0.29238869996362177,0.3
2.859999999999983,-1.313476154746325,-1.1405942538597227,1.531258435556731,-1.9614605084919332,-1.5707963267948937,0.25732017204856966,0.5863171314733892,0.2931743330997051,0.3
2.869999999999983,-1.3129931468569018,-1.1362933565843716,1.5248454354841365,-1.9593484056946942,-1.5707963267948934,0.2578031799379923,0.5893148143985442,0.2924206341498661,0.3
2.8799999999999826,-1.3153107168230922,-1.131063122511489,1.5170227182448368,-1.956755922528622,-1.570796326794858,0.2554856099717758,0.5923542888465972,0.29037822526133567,0.3
2.8899999999999824,-1.319557252116855,-1.12699717894512,1.5109232844469989,-1.954722432296812,-1.5707963267948928,0.2512390746780388,0.5950839327772502,0.29111939051097185,0.3
2.899999999999982,-1.3194966842212357,-1.120792481165927,1.5015850644774957,-1.9515889101072739,-1.5707963267948137,0.25129964257360116,0.5963334555382874,0.29076198547603904,0.3
2.909999999999982,-1.3205075363766752,-1.1186321580799141,1.4983251462441738,-1.9504893149591738,-1.570796326794895,0.2502887904182204,0.5989105059625991,0.2892847891575182,0.3
2.9199999999999817,-1.3236830693925856,-1.1148861213023908,1.492661930831226,-1.9485721363237667,-1.570796326794893,0.24711325740230852,0.6008191547078214,0.28982652402644116,0.3
2.9299999999999815,-1.3235936822530119,-1.110506168609644,1.4860235973814302,-1.9463137555667795,-1.5707963267948868,0.2472026445418775,0.602756555060454,0.2888771584879073,0.3
2.9399999999999813,-1.3257228741368807,-1.107511700937642,1.4814747628864111,-1.944759388743694,-1.570796326794894,0.2450734526580142,0.605261784596802,0.2874931304471193,0.3
2.949999999999981,-1.3286928946581187,-1.103771987613273,1.4757820629447211,-1.942806402126383,-1.5707963267948928,0.2421034321367753,0.6070141272014508,0.2882174528977594,0.3
2.959999999999981,-1.3282629648884459,-1.0995134248921137,1.4692836850731772,-1.9405665869760227,-1.5707963267948903,0.2425333619064463,0.6092129386684092,0.2867483401261325,0.3
2.9699999999999807,-1.3312236195073297,-1.0964512720447035,1.4646005699449784,-1.9389456246952042,-1.5707963267948932,0.2395727072875645,0.6104536479103483,0.2870648655699714,0.3
2.9799999999999804,-1.3312038347472894,-1.0936172091846759,1.460258555357922,-1.9374376729681722,-1.570796326794894,0.23959249204760535,0.6131927402568672,0.286377948560872,0.3
2.9899999999999802,-1.3331892036315216,-1.0886773179626432,1.4526725423616578,-1.9347915511943237,-1.5707963267948557,0.23760712316334728,0.6147575332247648,0.28659647016372636,0.3
2.99999999999998,-1.3334237181699342,-1.0852632620620386,1.447416605910162,-1.9329496706430584,-1.5707963267948928,0.2373726086249596,0.6181881731535883,0.28450039600495974,0.3
3.00999999999998,-1.337684587201446,-1.0802104194035813,1.4396182079320077,-1.9302041153238316,-1.5707963267948464,0.23311173959341733,0.6196226882242692,0.28473854907480267,0.3
3.0199999999999796,-1.3378336537481048,-1.0770296304695668,1.4346971584983383,-1.928463854823706,-1.570796326794893,0.23296267304678936,0.621178448988865,0.28390241632546126,0.3
3.0299999999999794,-1.3395844288127905,-1.0746099723001215,1.4309475215065441,-1.9271338760013492,-1.5707963267948937,0.2312118979821042,0.6236748717621312,0.28341760427271534,0.3
3.039999999999979,-1.3411381571439305,-1.0699031916111164,1.4236384755481972,-1.9245316107323442,-1.5707963267948606,0.22965816965094274,0.624857124097258,0.2838101292851168,0.3
3.049999999999979,-1.340970142679136,-1.0670830188901703,1.419249538727125,-1.9229628466318884,-1.570796326794893,0.22982618411575825,0.6269494696509939,0.2817041992763022,0.3
3.0599999999999787,-1.3447175384599335,-1.0647132121366814,1.4155559714056904,-1.921639086063941,-1.5707963267948932,0.22607878833496095,0.6283913633998526,0.28135820988728993,0.3
3.0699999999999785,-1.3456953188266763,-1.0620346209492342,1.4113750826082119,-1.9201367884539111,-1.570796326794893,0.22510100796821844,0.6313343059317119,0.28029424187103513,0.3
3.0799999999999783,-1.3481945744256125,-1.056881833670629,1.4033143403589703,-1.9172288334839394,-1.5707963267948284,0.2226017523692412,0.6338628072174931,0.2798323718158889,0.3
3.089999999999978,-1.3496781495557721,-1.0520142924281155,1.3956781669186156,-1.9144602012859468,-1.5707963267948428,0.2211181772390912,0.6352923965861469,0.2798244400897516,0.3
3.099999999999978,-1.3501498082225774,-1.0490201202853084,1.3909705216801844,-1.9127467281898192,-1.570796326794892,0.22064651857231643,0.6376014181882936,0.2793722728110104,0.3
3.1099999999999777,-1.3515352971476642,-1.0445788282381647,1.3839730817751876,-1.910190580332223,-1.570796326794867,0.2192610296472144,0.6380427359316853,0.27780690761540666,0.3
3.1199999999999775,-1.353912744593312,-1.045089922371124,1.3847792136080492,-1.9104856180318146,-1.5707963267948974,0.21688358220158535,0.6406546311260091,0.2771568869254347,0.3
3.1299999999999772,-1.3556595209949478,-1.0401675534867214,1.3770058214219552,-1.9076345947307913,-1.5707963267948328,0.21513680579991037,0.6425726887577677,0.2768181132662491,0.3
3.139999999999977,-1.3567376387431147,-1.036412969736089,1.371062375588531,-1.9054457326474057,-1.5707963267948903,0.21405868805177788,0.6438686323681766,0.2749706888600151,0.3
3.149999999999977,-1.3597644098423831,-1.0353435857166011,1.3693673143297682,-1.9048200554080845,-1.5707963267948946,0.21103191695251206,0.6457831365228175,0.2751485166042294,0.3
3.1599999999999766,-1.3600940523571607,-1.031107244686331,1.3626426226306516,-1.9023317047394244,-1.5707963267948768,0.21070227443772388,0.6473637115754386,0.27517771083199943,0.3
3.1699999999999764,-1.3605314062117693,-1.0277087743331486,1.357236737689475,-1.9003242901512882,-1.5707963267948903,0.21026492058312363,0.649134666424949,0.2731702064677315,0.3
3.179999999999976,-1.3639044831017468,-1.0257374101445806,1.3540963647594397,-1.8991552814097972,-1.5707963267948926,0.2068918436931472,0.6510097860623641,0.27259984764438255,0.3
3.189999999999976,-1.365265718242157,-1.0222305716870634,1.348501739992488,-1.897067495100393,-1.57079632679489,0.20553060855273542,0.653079870993233,0.272103278723649,0.3
3.1999999999999758,-1.366573462361203,-1.0182260128285199,1.342100205075172,-1.8946705190416353,-1.5707963267948886,0.20422286443368892,0.6546947289089214,0.27159057686244675,0.3
3.2099999999999755,-1.3677651909793358,-1.0152045607101665,1.3372611753372223,-1.8928529414220185,-1.5707963267948906,0.20303113581555704,0.6553221679556495,0.26993281606731495,0.3
3.2199999999999753,-1.3702794369322506,-1.015329425034847,1.3374613065935486,-1.892928208353597,-1.5707963267948966,0.20051688986264635,0.6574539603025008,0.2700893275834619,0.3
3.229999999999975,-1.370667984881042,-1.0105781029906586,1.3298366114691784,-1.89005483527416,-1.570796326794826,0.2001283419138153,0.659229164746174,0.2697914278992859,0.3
3.239999999999975,-1.3715896772275522,-1.006991577986371,1.3240684780418628,-1.8878732268504745,-1.5707963267948883,0.19920664956733974,0.6599734579570806,0.2675365403364939,0.3
3.2499999999999747,-1.3749593784118128,-1.0073701332490514,1.3246778128220011,-1.8881040063678416,-1.5707963267948972,0.19583694838308396,0.6623230697936687,0.2669339860872221,0.3
3.2599999999999745,-1.3764536532690403,-1.0027815126434385,1.3172836945227133,-1.8852985086748242,-1.570796326794835,0.1943426735258224,0.6625644083505936,0.26585263819424304,0.3
3.2699999999999743,-1.378032941043812,-1.0032039516041473,1.3179651533925203,-1.8855575285832593,-1.5707963267948977,0.19276338575108506,0.6642959954601936,0.26540233715706957,0.3
3.279999999999974,-1.379133859502835,-0.9998123933565981,1.3124898303725905,-1.883473763810976,-1.5707963267948881,0.19166246729205694,0.6651757631675637,0.2651209558032264,0.3
3.289999999999974,-1.3797647681976106,-0.9981311200201344,1.3097720194185218,-1.8824372261933262,-1.5707963267948926,0.19103155859728405,0.667509862185421,0.26430732013814534,0.3
3.2999999999999736,-1.3815254057683406,-0.9937151110652105,1.3026222299683803,-1.8797034456986133,-1.5707963267948453,0.18927092102652848,0.6691851774415094,0.2627842751499194,0.3
3.3099999999999734,-1.3840887895619929,-0.9913475549873151,1.2987823356617882,-1.8782311074694382,-1.5707963267948901,0.1867075372329002,0.6701674120732982,0.2619429010578491,0.3
3.319999999999973,-1.3855159602079576,-0.9899069576277745,1.2964435843674846,-1.8773329535346466,-1.570796326794893,0.18528036658693697,0.6706290233240004,0.2610613181771075,0.3
3.329999999999973,-1.3868615406473772,-0.9896467776411696,1.2960210095860178,-1.8771705587397518,-1.5707963267948961,0.18393478614751937,0.6725954667308832,0.26032120143281284,0.3
3.3399999999999728,-1.3883956186364754,-0.985928842055994,1.289976365419414,-1.8748438501584297,-1.5707963267948861,0.18240070815841558,0.6742928817271533,0.25919447693810044,0.3
3.3499999999999726,-1.390389913221867,-0.9831245681304731,1.2854096209792953,-1.8730813796438062,-1.5707963267948883,0.18040641357302573,0.675893738988678,0.25822875077220353,0.3
3.3599999999999723,-1.392129781189205,-0.980384224925034,1.28094074608697,-1.8713528479569195,-1.5707963267948886,0.178666545605687,0.6762293595368786,0.2569408952678838,0.3
3.369999999999972,-1.3939961580350608,-0.9807300045131514,1.2815049732401935,-1.8715712955219286,-1.5707963267948974,0.17680016875983606,0.6776562662512109,0.2569742274115998,0.3
3.379999999999972,-1.3943024364098238,-0.9775153001200809,1.2762555930737154,-1.8695366197486356,-1.5707963267948868,0.17649389038506821,0.6790426811473232,0.25546941385325417,0.3
3.3899999999999717,-1.396720958851206,-0.9756843309283111,1.2732619782742103,-1.868373974140858,-1.5707963267948908,0.17407536794368747,0.680612334693099,0.25411950714616865,0.3
3.3999999999999715,-1.3989631710215564,-0.9732977385413601,1.269355824026993,-1.8668544122806126,-1.5707963267948888,0.17183315577333613,0.6810647111207458,0.2537124008425913,0.3
3.4099999999999713,-1.3996329372355387,-0.9726223060663262,1.2682494971552416,-1.8664235178838335,-1.5707963267948948,0.17116338955935687,0.6822841862744513,0.25262224721219984,0.3
3.419999999999971,-1.4014252930205955,-0.9707891100908408,1.265244940180306,-1.8652521568844256,-1.5707963267948908,0.1693710337742979,0.6837979477401099,0.25144888067041765,0.3
3.429999999999971,-1.403396261620219,-0.968351358372448,1.2612453125415417,-1.863690280964079,-1.5707963267948883,0.1674000651746736,0.684368515529326,0.2497016371434601,0.3
3.4399999999999706,-1.405934364306403,-0.9685082334210254,1.2615028428179371,-1.8637909361918052,-1.570796326794897,0.1648619624884941,0.6852249605210141,0.24868916402325433,0.3
3.4499999999999704,-1.407524142006869,-0.9674044720291647,1.2596904560096698,-1.8630823107754406,-1.5707963267948932,0.1632721847880261,0.6876580612262949,0.24775517511703804,0.3
3.45999999999997,-1.4093567993009135,-0.9626519741967932,1.2518755780874486,-1.8600199306868206,-1.570796326794779,0.16143952749392493,0.6873622046415544,0.2470996813810987,0.3
3.46999999999997,-1.4101915371098186,-0.9638602460218892,1.2538641525933119,-1.8608002333662756,-1.5707963267949006,0.1606047896850799,0.6882197351740582,0.24505674562718807,0.3
3.47999999999997,-1.413189754661652,-0.9635724688043683,1.2533906352490471,-1.8606144932395903,-1.5707963267948952,0.15760657213324397,0.6897308873232243,0.24545251550835573,0.3
3.4899999999999696,-1.4129762249945355,-0.9598098128719617,1.2471933216428177,-1.8581798355659043,-1.5707963267948826,0.15782010180035422,0.689447278034069,0.24346704215360043,0.3
3.4999999999999694,-1.4156414727748345,-0.962061107302362,1.250902701507593,-1.8596379210000502,-1.5707963267949039,0.15515485402006537,0.6902230752705725,0.24261812216079534,0.3
3.509999999999969,-1.4169741037408825,-0.9609739851225078,1.2491119958509291,-1.8589343375233587,-1.5707963267948928,0.1538222230540123,0.6915753855248911,0.2408391960649956,0.3
3.519999999999969,-1.4197029443461375,-0.959306510965229,1.2463634924568296,-1.8578533082865674,-1.5707963267948901,0.15109338244875595,0.6911635808300312,0.24049025889037037,0.3
3.5299999999999687,-1.420096262620767,-0.960525637122454,1.2483732015012683,-1.8586438911736665,-1.5707963267949008,0.1507000641741318,0.692834851679185,0.2393789861467,0.3
3.5399999999999685,-1.4219686183243803,-0.9575826583720395,1.2435197181819728,-1.8567333866049516,-1.5707963267948852,0.14882770847051102,0.6932526674186688,0.23718218088600604,0.3
3.5499999999999683,-1.4250696736112716,-0.9583563091862458,1.2447962748427506,-1.8572362924513768,-1.570796326794899,0.14572665318362615,0.6933033551434535,0.2379253769548396,0.3
3.559999999999968,-1.424059423377883,-0.9576561001236165,1.243640920758399,-1.8567811474297093,-1.570796326794894,0.14673690341701237,0.6938884247172986,0.23589140631212654,0.3
3.569999999999968,-1.426969889914494,-0.9579077037967754,1.2440561152568823,-1.8569447382549982,-1.570796326794897,0.143826436880403,0.6954721808149278,0.23509348853852938,0.3
3.5799999999999677,-1.4283782422970601,-0.954889241116728,1.2390717334581094,-1.854978819136406,-1.5707963267948846,0.1424180844978307,0.6942794464402979,0.23425910149739743,0.3
3.5899999999999674,-1.4292896944193665,-0.9582791962178028,1.2446690566643597,-1.8571861872413313,-1.5707963267949079,0.1415066323755357,0.6965602592482094,0.23234696400458826,0.3
3.5999999999999672,-1.4323564493429686,-0.9545073046584842,1.2384405240966958,-1.8547295462332796,-1.5707963267948806,0.13843987745192027,0.6958376801055173,0.23112107279615257,0.3
3.609999999999967,-1.4339022079637715,-0.9571119238130678,1.2427427519066319,-1.856427154888364,-1.5707963267949057,0.13689411883112942,0.6975901366050082,0.22999794327986228,0.3
3.619999999999967,-1.4357736257029183,-0.9539284907204183,1.2374837224358903,-1.8543515585105068,-1.570796326794884,0.1350227010919724,0.697554765555206,0.22907508039244417,0.3
3.6299999999999666,-1.4370336734891658,-0.9547112848528478,1.2387776475446761,-1.8548626894866937,-1.5707963267948994,0.1337626533057323,0.6971269606716725,0.227028960585634,0.3
3.6399999999999664,-1.4397670989650913,-0.9572423968856597,1.2429581206963236,-1.856512050605469,-1.5707963267949052,0.13102922782980908,0.6975827424038432,0.22690112839817458,0.3
3.649999999999966,-1.4400253883110918,-0.9562868339687978,1.241380480706054,-1.8558899735321903,-1.5707963267948932,0.13077093848380306,0.6978161572612521,0.22449822070157402,0.3
3.659999999999966,-1.4433723048782403,-0.957542285160584,1.2434530875232706,-1.8567071291575417,-1.5707963267949003,0.12742402191665858,0.6987855367692647,0.2241493648454573,0.3
3.6699999999999657,-1.4440225831620452,-0.9555615905170234,1.2401826126338111,-1.8554173489117654,-1.5707963267948892,0.12677374363284796,0.6987119184506135,0.22287852337463832,0.3
3.6799999999999655,-1.4457577319504178,-0.956671660101257,1.242015918668556,-1.856140585362153,-1.5707963267949006,0.1250385948444808,0.6999501522428583,0.22151456363375532,0.3
3.6899999999999653,-1.4478460873353307,-0.9548091258574387,1.2389393401810094,-1.8549265411185465,-1.5707963267948895,0.12295023945956228,0.6996968559594424,0.2191716030361137,0.3
3.699999999999965,-1.4510277012082484,-0.9571038939887924,1.2427294968226905,-1.8564219296287137,-1.5707963267949043,0.11976862558665191,0.6999208923142931,0.21811407630840665,0.3
3.709999999999965,-1.4525213437749518,-0.9573501461283789,1.2431359695409447,-1.8565821502074527,-1.5707963267948977,0.11827498301994546,0.6996355748084624,0.21656559303729211,0.3
3.7199999999999647,-1.4546097555145854,-0.9591236947961357,1.24606202034612,-1.8577346523448164,-1.5707963267949028,0.11618657128031425,0.6995814608240778,0.21622258353587423,0.3
3.7299999999999645,-1.4550742977932971,-0.9594943562307682,1.2466732298785086,-1.8579752004426227,-1.5707963267948981,0.11572202900160017,0.7000727509291258,0.21560543192931142,0.3
3.7399999999999642,-1.4560042183706992,-0.9587979940575052,1.2455248587970025,-1.85752319153442,-1.5707963267948943,0.11479210842419628,0.7002945252305702,0.21395955295715588,0.3
3.749999999999964,-1.458310271327462,-0.9594535383244185,1.246605927775558,-1.8579487162460129,-1.5707963267948988,0.11248605546743567,0.698930942636083,0.21177879327601962,0.3
3.759999999999964,-1.4611147798353108,-0.9641416887719378,1.2543271825196727,-1.8609818205414916,-1.5707963267950025,0.10968154695963847,0.700133945930069,0.21073876314378442,0.3
3.7699999999999636,-1.4627359859004987,-0.9620865291764805,1.2509445650131892,-1.8596543626316837,-1.570796326794889,0.1080603408943944,0.6998430065009644,0.21008235606431874,0.3
3.7799999999999634,-1.4636007333630026,-0.9632161704302638,1.2528042787723777,-1.8603844351369692,-1.5707963267949003,0.10719559343189604,0.6997039432444888,0.20833432536344068,0.3
3.789999999999963,-1.46600122855598,-0.96474626390217,1.2553216144997552,-1.8613716773924305,-1.5707963267949014,0.10479509823891911,0.6990015377562525,0.20654124416920944,0.3
3.799999999999963,-1.468387132517949,-0.9675978828553417,1.2600081096154023,-1.8632065535548652,-1.5707963267949052,0.10240919427695179,0.6994945512850671,0.20567564656000864,0.3
3.8099999999999627,-1.4696587565035557,-0.967048472728642,1.259105691715576,-1.8628535457818494,-1.5707963267948946,0.10113757029134016,0.6984878166348938,0.20436966879758162,0.3
3.8199999999999625,-1.4713327708903798,-0.9702567318120255,1.2643718761810865,-1.8649114711638564,-1.5707963267949059,0.09946355590452166,0.6989711319711404,0.20262372440121393,0.3
3.8299999999999623,-1.4738280607487024,-0.9703148024474746,1.2644671192197472,-1.8649486435671692,-1.5707963267948966,0.09696826604619439,0.6991704053545962,0.20090918317748435,0.3
3.839999999999962,-1.4762411416151775,-0.9709970379280516,1.2655858652171847,-1.865385154084009,-1.5707963267948988,0.09455518517971997,0.6991740202723562,0.1999741720771882,0.3
3.849999999999962,-1.4775437687952702,-0.9716074377184386,1.2665864933485957,-1.8657753824250334,-1.5707963267948983,0.09325255799962744,0.6975972932866119,0.19756377301051298,0.3
3.8599999999999617,-1.4807048970890744,-0.9768229860619326,1.2751239886945391,-1.869097329425917,-1.5707963267950447,0.09009142970589816,0.6982630476054943,0.1972905222381086,0.3
3.8699999999999615,-1.4811704935892227,-0.9754677740586855,1.2729077293209339,-1.8682362820571883,-1.5707963267948926,0.08962583320567198,0.6978392076975932,0.1951725392099063,0.3
3.8799999999999613,-1.4840786834258692,-0.9778153491295349,1.2767459089943018,-1.8697268866595964,-1.570796326794903,0.0867176433690308,0.6968224288437399,0.1937750053918314,0.3
3.889999999999961,-1.4859133792017651,-0.9810508006225525,1.282028345894506,-1.8717738720667596,-1.5707963267949052,0.084882947593136,0.6970891436608452,0.19310297658378137,0.3
3.899999999999961,-1.4868871243479793,-0.9808664518257135,1.281727594702399,-1.8716574696715866,-1.5707963267948963,0.08390920244691712,0.6965418117823302,0.191417314607733,0.3
3.9099999999999606,-1.4891883955674383,-0.9831931339626481,1.2855213571797977,-1.8731245500119829,-1.5707963267949023,0.08160793122746164,0.6964765978692026,0.18913788727214165,0.3
3.9199999999999604,-1.492383542001772,-0.9847731487013359,1.2880951090613582,-1.8741182871548785,-1.5707963267949006,0.0784127847931267,0.6954001455701228,0.1882258338893828,0.3
3.92999999999996,-1.4935488125283984,-0.987810517035096,1.2930370312596564,-1.8760228410193776,-1.570796326794904,0.07724751426650225,0.6953906080023032,0.18674528637916346,0.3
3.93999999999996,-1.4956339146995141,-0.9887474816889944,1.294559974963515,-1.8766088200693927,-1.570796326794899,0.07516241209538374,0.6944215381261212,0.1852888061990084,0.3
3.9499999999999598,-1.4975873440726972,-0.9918603775179237,1.2996144672857954,-1.8785504165626912,-1.5707963267949039,0.07320898272220319,0.6935739396760612,0.18283028266060392,0.3
3.9599999999999596,-1.5009779838936292,-0.9952906043568411,1.305174913031351,-1.8806806354693273,-1.570796326794904,0.06981834290127151,0.6925552574101056,0.18190341582886238,0.3
3.9699999999999593,-1.5021913055321152,-0.9981744231119115,1.309842049322432,-1.8824639530053497,-1.5707963267949028,0.06860502126278505,0.6923798210899802,0.1808806236400625,0.3
3.979999999999959,-1.503625559951316,-0.9991861776782811,1.3114778165574343,-1.8830879656740256,-1.570796326794899,0.06717076684358207,0.6914962116530656,0.17922038287285275,0.3
3.989999999999959,-1.5059013576311033,-1.002186108910767,1.316322962800936,-1.8849331806849992,-1.570796326794903,0.06489496916379678,0.6911970093831192,0.17831345644081553,0.3
3.9999999999999587,-1.5071643173159999,-1.0034020476809653,1.3182846611969796,-1.8856789403108827,-1.5707963267948992,0.06363200947889842,0.691049511523893,0.17485219245251032,0.3
4.009999999999959,-1.5120824421575831,-1.005752136198872,1.3220725880344606,-1.8871167786304426,-1.5707963267949006,0.058713884637315916,0.6897660413717286,0.17494333316487976,0.3
4.019999999999959,-1.511844485913809,-1.0086198112090539,1.3266884771499243,-1.8888649927357086,-1.570796326794902,0.0589518408810909,0.6883769448412691,0.17376349370086455,0.3
4.0299999999999585,-1.513416155632163,-1.012452416991998,1.332846706551512,-1.8911906163543346,-1.570796326794904,0.05738017116273778,0.6875734290756481,0.17164998445260424,0.3
4.039999999999958,-1.5163812218165518,-1.0154776460820711,1.3376988565643475,-1.8930175372771152,-1.570796326794902,0.05441510497834815,0.6868300010880705,0.17095497382206676,0.3
4.049999999999958,-1.5173215132131554,-1.0175542396485937,1.341024993531913,-1.8942670806781752,-1.5707963267949006,0.053474813581743386,0.6858931874301256,0.16747004491807543,0.3
4.059999999999958,-1.522266987420364,-1.0216184503355166,1.347524113599262,-1.8967019900585322,-1.5707963267949072,0.04852933937453894,0.6854191375476452,0.1673231639441249,0.3
4.069999999999958,-1.5224455765534117,-1.0227713580557376,1.3493651695527178,-1.897390138291855,-1.5707963267948988,0.04835075024148617,0.6839570198666857,0.16571453054035365,0.3
4.079999999999957,-1.5246685053696643,-1.026956687939006,1.3560390623779222,-1.8998787012336245,-1.5707963267949145,0.04612782142524266,0.6833496493058117,0.16402491559701965,0.3
4.089999999999957,-1.5270739365746817,-1.0292456062040998,1.3596825820600982,-1.901233302650856,-1.5707963267949003,0.043722390220217025,0.6821117438676695,0.16233113381723502,0.3
4.099999999999957,-1.5294534591119957,-1.032946762715986,1.3655645495949174,-1.9034141136737683,-1.5707963267949023,0.04134286768290435,0.6804311127738011,0.16113607453827575,0.3
4.109999999999957,-1.531091826002925,-1.0373649696240748,1.3725705372993462,-1.9060018944698482,-1.5707963267949274,0.03970450079199015,0.6797770298310776,0.15834142077582214,0.3
4.119999999999957,-1.5351289638800643,-1.0403087474946213,1.3772290896281756,-1.9077166689284093,-1.5707963267949006,0.035667362914835,0.6795133907231757,0.1569554821069331,0.3
4.129999999999956,-1.5371385569644849,-1.0416225988109329,1.3793058308891528,-1.9084795588730958,-1.5707963267948988,0.03365776983041285,0.6785624789296449,0.15595093458076445,0.3
4.139999999999956,-1.5385609695871512,-1.0442758891400135,1.3834951578967511,-1.9100155955515952,-1.5707963267949003,0.03223535720774779,0.6757536236217041,0.15341324912661064,0.3
4.149999999999956,-1.5421572140871243,-1.0518647572222377,1.39544324494658,-1.914374814517103,-1.5707963267951046,0.028639112707901444,0.6751763326060783,0.1526601370785015,0.3
4.159999999999956,-1.5432412452242679,-1.0535368619579155,1.398069020543715,-1.9153284853806725,-1.5707963267948988,0.027555081570630264,0.6747469207228286,0.15060514603821099,0.3
4.1699999999999555,-1.5462516489805418,-1.0555281724392318,1.4011928306686252,-1.9164609850242644,-1.570796326794899,0.024544677814356444,0.6727586942593837,0.15007037098288886,0.3
4.179999999999955,-1.5469701123023045,-1.060232492391907,1.4085586185422594,-1.919122452944844,-1.570796326794936,0.023826214492617133,0.6709284848307668,0.14848638507114034,0.3
4.189999999999955,-1.5492544608116092,-1.0650941746422216,1.4161500768425346,-1.9218522289947373,-1.5707963267949427,0.02154186598331686,0.6695687920046949,0.145641160371826,0.3
4.199999999999955,-1.5534421532977298,-1.0695082442437647,1.4230242632349865,-1.9243123457859084,-1.5707963267949174,0.017354173497180048,0.6678150319234589,0.14441925982982265,0.3
4.209999999999955,-1.555219916428464,-1.0739938831651379,1.429991949176268,-1.9267943928057922,-1.5707963267949199,0.01557641036644775,0.6681848954844781,0.1431436413896431,0.3
4.2199999999999545,-1.557131603776967,-1.0737822468071898,1.429663615796628,-1.9266776957843375,-1.5707963267948963,0.013664723017929647,0.6660353212419557,0.14200902025216408,0.3
4.229999999999954,-1.558786496383603,-1.0790908679408784,1.4378871800462474,-1.929592638899633,-1.5707963267949592,0.012009830411335102,0.6645364388927502,0.14012469265047214,0.3
4.239999999999954,-1.5615886463543853,-1.0832976825537677,1.4443857604432861,-1.9318844046843449,-1.5707963267949037,0.009207680440515778,0.6636653615207614,0.13788026883940205,0.3
4.249999999999954,-1.5649531152803697,-1.0862665678630208,1.4489623020423748,-1.9334920609742219,-1.5707963267948994,0.005843211514528825,0.6618880596597835,0.1371610208202413,0.3
4.259999999999954,-1.5660229060763773,-1.090528169540639,1.4555174580147754,-1.9357856152689492,-1.5707963267949048,0.004773420718525061,0.6607319694520147,0.1340613877287017,0.3
4.269999999999953,-1.5707034190001152,-1.0944876250157158,1.4615928924076451,-1.9379015941867919,-1.5707963267949,9.290779478389812e-05,0.658514500195481,0.1332328361004912,0.3
4.279999999999953,-1.5719614560455122,-1.0997530863477294,1.4696498454180793,-1.9406930858647398,-1.5707963267949474,-0.0011651292505803577,0.6570925638058933,0.13111360768470307,0.3
4.289999999999953,-1.5751909400366553,-1.1038268446161197,1.4758656621858535,-1.9428351443645966,-1.5707963267948999,-0.004394613241756148,0.6560504929695737,0.12951433210172225,0.3
4.299999999999953,-1.577638383133026,-1.1068221147620632,1.4804260372918843,-1.9444002493246921,-1.5707963267948992,-0.006842056338127482,0.6545110192978583,0.1274816023404405,0.3
4.3099999999999525,-1.58076535733805,-1.1110892365484706,1.4869083459590946,-1.9466154362054657,-1.570796326794902,-0.00996903054314957,0.6528350686578681,0.12621881375981672,0.3
4.319999999999952,-1.5827294445635243,-1.11531492716478,1.4933108659800878,-1.948792265610172,-1.5707963267949,-0.011933117768625602,0.6505624087385157,0.12441666416848844,0.3
4.329999999999952,-1.5855485193279943,-1.1210699764846626,1.502003483168263,-1.9517298334778963,-1.570796326794958,-0.014752192533053135,0.6487614080843759,0.12171528041985241,0.3
4.339999999999952,-1.5897668735981236,-1.1261466186410416,1.5096453382578885,-1.95429504641141,-1.5707963267949308,-0.01897054680320179,0.6478835831913654,0.12032994847465542,0.3
4.349999999999952,-1.591938960723271,-1.1286398994135358,1.5133894774196424,-1.9555459048009851,-1.5707963267948983,-0.021142633928373008,0.6460972187989359,0.11859307957467466,0.3
4.3599999999999515,-1.594697160434839,-1.1332601721550908,1.520311985237064,-1.9578481398767176,-1.5707963267949123,-0.023900833639930834,0.6436178231035115,0.11712965587603202,0.3
4.369999999999951,-1.5970739207990103,-1.139277472599826,1.5292969005572512,-1.9608157547517173,-1.5707963267949594,-0.02627759400406624,0.6417012049676953,0.11588160207794286,0.3
4.379999999999951,-1.599107419360695,-1.1439670009801217,1.536274973139497,-1.9631042989541172,-1.5707963267949128,-0.028311092565786136,0.6401553529285144,0.11420508267592752,0.3
4.389999999999951,-1.6018091364207427,-1.1480058882338542,1.542267782474268,-1.9650582210352858,-1.570796326794899,-0.03101280962584434,0.6375769323072459,0.11273523518850381,0.3
4.399999999999951,-1.6042539948410302,-1.154211147966251,1.5514440174886484,-1.9680291963166996,-1.5707963267949594,-0.03345766804608493,0.637061447813062,0.1104277556319885,0.3
4.40999999999995,-1.607925850366355,-1.1562197397825895,1.554406214737564,-1.9689828017498596,-1.570796326794898,-0.037129523571457275,0.6346425361740435,0.10861462258716072,0.3
4.41999999999995,-1.610944513192072,-1.1621844188104418,1.5631793194761643,-1.9717912274601266,-1.570796326794949,-0.04014818639713391,0.6333084139725181,0.10663070409799584,0.3
4.42999999999995,-1.614184776290684,-1.1658318634140172,1.5685268332252749,-1.9734912966061353,-1.5707963267948988,-0.043388449495785894,0.631282182973008,0.10497646741350584,0.3
4.43999999999995,-1.6169654571370193,-1.170857528885767,1.575873340643514,-1.9758121385524392,-1.5707963267949185,-0.0461691303421052,0.629684166229195,0.10302295267383059,0.3
4.4499999999999496,-1.6202107230066805,-1.175046450723861,1.5819774789625822,-1.977727355033598,-1.5707963267948986,-0.049414396211782015,0.627173474696047,0.10035247900834268,0.3
4.459999999999949,-1.6247043380279182,-1.1814642678911533,1.5912955232143549,-1.9806275821175567,-1.570796326794955,-0.053908011232973514,0.6261838855665682,0.09930249971883177,0.3
4.469999999999949,-1.6264819529617307,-1.1839866489101816,1.5949464435128151,-1.9817561213975181,-1.5707963267948981,-0.05568562616683315,0.6242245374601377,0.09812550807305485,0.3
4.479999999999949,-1.6285611296046731,-1.1886629173241867,1.601697936068764,-1.983831345539391,-1.5707963267949057,-0.057764802809768846,0.6222477932282509,0.09631585421707155,0.3
4.489999999999949,-1.6316820694308054,-1.1935860875322308,1.608781962151962,-1.9859922014144897,-1.5707963267949117,-0.06088574263589582,0.6200993980820378,0.09488725219163328,0.3
4.4999999999999485,-1.6342214834540045,-1.1987462365429644,1.6161805053840874,-1.9882305956358333,-1.5707963267949174,-0.06342515665909033,0.6171994570983088,0.0926369046386427,0.3
4.509999999999948,-1.6382056362632909,-1.2058065491421641,1.6262593405777324,-1.991249118229868,-1.5707963267949625,-0.06740930946833695,0.6154534145024773,0.09098907937623653,0.3
4.519999999999948,-1.641104425051479,-1.2101446769075888,1.6324267437811864,-1.9930783936684775,-1.5707963267948986,-0.07030809825658091,0.6144919666719805,0.08916100997966438,0.3
4.529999999999948,-1.6442224541094113,-1.2128226000181508,1.636224177118283,-1.9941979038950186,-1.570796326794898,-0.07342612731451371,0.6122759199104383,0.0878797510161372,0.3
4.539999999999948,-1.6466071013666572,-1.2180536909174227,1.6436206957991115,-1.9963633316764153,-1.5707963267949159,-0.07581077457174369,0.6094596696152275,0.08587611504072609,0.3
4.549999999999947,-1.650286504549374,-1.2248105870411319,1.6531324755255794,-1.999118215278876,-1.5707963267949498,-0.07949017775443011,0.6073770925894869,0.08355971637074201,0.3
4.559999999999947,-1.6544205828603882,-1.2300519580972185,1.6604779335441238,-2.001222302241647,-1.570796326794914,-0.08362425606547562,0.6052248102251799,0.0821847474765595,0.3
4.569999999999947,-1.6570208332833085,-1.2351531359443797,1.6675991843489884,-2.0032423751993855,-1.5707963267949103,-0.0862245064883994,0.6026528070713332,0.07986808406643317,0.3
4.579999999999947,-1.6612846946689102,-1.2414388783877799,1.676336281812149,-2.0056937302189315,-1.5707963267949352,-0.09048836787397792,0.6000268473490142,0.07802656252900589,0.3
4.589999999999947,-1.6647936267816161,-1.247694283438481,1.6849895638246657,-2.008091607180767,-1.570796326794933,-0.09399729998668517,0.5984442912207969,0.07708465530497174,0.3
4.599999999999946,-1.6666396572546671,-1.2514134611001306,1.6901146252377062,-2.009497490932461,-1.570796326794898,-0.09584333045976903,0.5966741119366404,0.07514755615845614,0.3
4.609999999999946,-1.6702160994986825,-1.2558160752230398,1.696162322506925,-2.0111425740787694,-1.5707963267948983,-0.0994197727037845,0.5943808347599919,0.0737474477556477,0.3
4.619999999999946,-1.6729917483609078,-1.26120657528293,1.7035386683420681,-2.0131284198538952,-1.5707963267949132,-0.1021954215659954,0.5928610745076391,0.07071615538136536,0.3
4.629999999999946,-1.6784375562473501,-1.2653336878520292,1.7091650070618272,-2.014627646004684,-1.5707963267948981,-0.10764122945245236,0.5897461830050043,0.06929817673924439,0.3
4.6399999999999455,-1.681451989263205,-1.2725126815846861,1.7189078762502832,-2.0171915214600817,-1.570796326794946,-0.11065566246826027,0.588398313249796,0.06767628862418365,0.3
4.649999999999945,-1.6845030064812643,-1.2758747515145907,1.7234513811396979,-2.018372956419995,-1.570796326794898,-0.11370667968636645,0.5842054809745458,0.06581294766151967,0.3
4.659999999999945,-1.6885663006467218,-1.2855218239472948,1.7364198062862444,-2.0216943091311275,-1.570796326795228,-0.11776997385149447,0.5822829775383617,0.06361583127038914,0.3
4.669999999999945,-1.6927868204750722,-1.29027097969411,1.7427664654739818,-2.023291812574757,-1.5707963267948981,-0.12199049368017403,0.5807485400070185,0.06073823982935089,0.3
4.679999999999945,-1.698137604726773,-1.2943131885010333,1.748148760773823,-2.0246318990676775,-1.5707963267948981,-0.12734127793187514,0.5775054511837324,0.06026740502524802,0.3
4.689999999999944,-1.6996929579238422,-1.301544410553947,1.757732120246891,-2.026984036487486,-1.5707963267949407,-0.12889663112890035,0.5758561360575588,0.05834835705918757,0.3
4.699999999999944,-1.7034476507762206,-1.3056042267849977,1.763086992240087,-2.028279092249977,-1.570796326794898,-0.13265132398132276,0.5736333719040247,0.05563985284314013,0.3
4.709999999999944,-1.7087583687068642,-1.311087141809241,1.7702896955314256,-2.029998880516983,-1.5707963267949092,-0.1379620419119544,0.5714351222443452,0.05374875789225857,0.3
4.719999999999944,-1.7126545247236709,-1.3163288170691452,1.7771439784205014,-2.031611488146192,-1.5707963267949043,-0.14185819792876617,0.5677658331123407,0.052532365146511516,0.3
4.729999999999944,-1.715762134027101,-1.324675112538713,1.7879941621993263,-2.0341153764550604,-1.5707963267949547,-0.1449658072321422,0.5669277917714481,0.050491204487827235,0.3
4.739999999999943,-1.7196303909254507,-1.3269357397351378,1.7909194261418566,-2.0347800132016105,-1.5707963267948972,-0.1488340641305531,0.5643758353639845,0.04888241690412932,0.3
4.749999999999943,-1.7232069221268376,-1.3328914558988467,1.7985983963153591,-2.036503267211271,-1.5707963267949148,-0.15241059533192114,0.5625299640129052,0.04721980159477877,0.3
4.759999999999943,-1.7267132263938065,-1.3372923590199743,1.804246748619553,-2.0377507163944673,-1.570796326794898,-0.15591689959890878,0.5591425389463786,0.04503375692781229,0.3
4.769999999999943,-1.73164046329441,-1.345202939183314,1.8143439821836083,-2.039937369794835,-1.570796326794944,-0.1608441364994609,0.5579871067208174,0.04363084105502076,0.3
4.7799999999999425,-1.7345283154915792,-1.348016134662268,1.8179175187385492,-2.0406977108711724,-1.5707963267948972,-0.1637319886966817,0.5548661923198155,0.041539070471514984,0.3
4.789999999999942,-1.739289050366976,-1.3553126841084675,1.8271437269801314,-2.0426273696662918,-1.5707963267949332,-0.1684927235720385,0.5520021161087423,0.03983687833314692,0.3
4.799999999999942,-1.7433066026625388,-1.3619732954744208,1.8355121618545882,-2.044335193174876,-1.5707963267949225,-0.1725102758676125,0.5492792926321232,0.03677941150304141,0.3
4.809999999999942,-1.7498177857062136,-1.368527366861958,1.8436965463039783,-2.045965506236747,-1.57079632679492,-0.1790214589112899,0.5473388965209318,0.03612175341915615,0.3
4.819999999999942,-1.7516835794256946,-1.3729648141114206,1.8492094367026723,-2.0470409493861412,-1.5707963267948977,-0.18088725263079689,0.5451344261933163,0.033725625405458905,0.3
4.8299999999999415,-1.7568807672740363,-1.3782458155920798,1.85574038355551,-2.0482908947583045,-1.5707963267948999,-0.18608444047913547,0.5429943522306313,0.033058968434426586,0.3
4.839999999999941,-1.7588738385198999,-1.3831391384946718,1.8617627723549173,-2.0494199606551353,-1.570796326794898,-0.18807751172500176,0.5398353894969427,0.029715434399877425,0.3
4.849999999999941,-1.766265403581628,-1.3906772719985077,1.8709852358627745,-2.0511042906589085,-1.5707963267949352,-0.19546907678668432,0.5373328412749914,0.027406419222419785,0.3
4.859999999999941,-1.771541496930774,-1.396593265306617,1.878176248895188,-2.052379310383391,-1.5707963267949077,-0.20074517013586363,0.5360058826052582,0.02600559669878151,0.3
4.869999999999941,-1.7746910507982636,-1.3997461538019156,1.8819917697227555,-2.053041942715732,-1.5707963267948974,-0.20389472400336553,0.5324031934646152,0.023814487417224466,0.3
4.87999999999994,-1.7802611718867047,-1.4081272019589584,1.8920770001964384,-2.054746125032083,-1.570796326794942,-0.2094648450917528,0.5297674371369007,0.02253870057187923,0.3
4.88999999999994,-1.7837602552348963,-1.4142319324488655,1.8993705436158843,-2.055934937961834,-1.5707963267949092,-0.2129639284399847,0.5269236120711728,0.021398743650979827,0.3
4.89999999999994,-1.7871217229822796,-1.4208054877195426,1.9071745609675028,-2.057165400042737,-1.5707963267949152,-0.2163253961873604,0.5252070855250306,0.019297618635331016,0.3
4.90999999999994,-1.7918819012951792,-1.424901609729544,1.9120113090962252,-2.0579060261615725,-1.5707963267948977,-0.22108557450028088,0.5230713646409479,0.01631003465572958,0.3
4.9199999999999395,-1.7985638134346205,-1.4300087190658832,1.9180137081961697,-2.058801315925164,-1.5707963267949008,-0.22776748663971783,0.5199415081567067,0.015621540956704238,0.3
4.929999999999939,-1.8013033415086406,-1.437219930248728,1.9264357697459458,-2.0600121662919526,-1.5707963267949225,-0.23050701471371154,0.5183599595369657,0.01287159947640667,0.3
4.939999999999939,-1.8073645652620067,-1.441020914517877,1.9308498186000358,-2.0606252308770507,-1.5707963267948977,-0.23656823846710873,0.5146652248162629,0.0113068653403493,0.3
4.949999999999939,-1.8121640374046037,-1.4496030868488223,1.9407521577294493,-2.0619453976752777,-1.5707963267949407,-0.2413677106096494,0.5129013651248232,0.009287409139067627,0.3
4.959999999999939,-1.8169724268641272,-1.4537646203351027,1.9455218129313705,-2.062553519391159,-1.5707963267948974,-0.246176100069229,0.5097261098496638,0.00741519290427453,0.3
4.9699999999999385,-1.822233608145424,-1.4611777981161616,1.953966321533719,-2.0635848502123,-1.5707963267949234,-0.2514372813504926,0.5077123718530709,0.005787708210017031,0.3
4.979999999999938,-1.8264728062269486,-1.4658961971618212,1.9593064298689673,-2.064206559502037,-1.570796326794898,-0.25567647943205,0.5048721727855343,0.003981168218971821,0.3
4.989999999999938,-1.8315354384992424,-1.4725399121480331,1.9667796602767786,-2.0650360749235572,-1.5707963267949119,-0.2607391117043256,0.5030105804237379,0.0016842391496582538,0.3
4.999999999999938,-1.8370984295713897,-1.476909298942466,1.9716653034469878,-2.0655523312994135,-1.570796326794898,-0.2663021027764911,0.5004740201374221,0.00034285209026680417,0.3
5.009999999999938,-1.8411642344499968,-1.4828428628880117,1.978262661403071,-2.0662161253099343,-1.5707963267949008,-0.27036790765509433,0.4969686973911948,-0.0019443925458524232,0.3
5.019999999999937,-1.8477203182360808,-1.4910534637910957,1.9873208641543256,-2.067063727157957,-1.5707963267949332,-0.2769239914411337,0.49400650414454644,-0.0038115473478533978,0.3
5.029999999999937,-1.8531963979521646,-1.4979998506527312,1.994919928785577,-2.0677164049276526,-1.5707963267949139,-0.28240007115724425,0.4920674382246864,-0.005243860601337795,0.3
5.039999999999937,-1.8572403948975444,-1.5025459382936541,1.9998611502240402,-2.0681115387252778,-1.570796326794898,-0.28644406810264583,0.48961455678727195,-0.007766477385863745,0.3
5.049999999999937,-1.8638435320643785,-1.5082720037764648,2.006048824775211,-2.0685731477936304,-1.5707963267949012,-0.2930472052694751,0.48789744275420355,-0.009089753642098984,0.3
5.0599999999999365,-1.867598558592996,-1.5122919529819803,2.010368785379864,-2.0688731591927763,-1.570796326794898,-0.29680223179809756,0.4852102127829459,-0.010735631992788161,0.3
5.069999999999936,-1.872653895321543,-1.5186053186592512,2.0171132217834016,-2.0693042299190156,-1.5707963267949032,-0.3018575685266367,0.4829217944763504,-0.012274816974807654,0.3
5.079999999999936,-1.8772830730432222,-1.523979310808136,2.022815505567586,-2.069632521554342,-1.5707963267948981,-0.3064867462483229,0.48089807346934094,-0.014893672768085764,0.3
5.089999999999936,-1.884001206303572,-1.5286451465629498,2.0277375300715446,-2.0698887103034767,-1.570796326794903,-0.31320487950866566,0.4776948650845276,-0.016501035454517338,0.3
5.099999999999936,-1.8894808004806887,-1.5362089830224508,2.0356596775564966,-2.0702470213288553,-1.5707963267949214,-0.3186844736857559,0.47533717913645046,-0.018287059848386814,0.3
5.1099999999999355,-1.8948111550391835,-1.5417327136205146,2.0414005002070934,-2.0704641133814707,-1.5707963267948986,-0.3240148282442838,0.47346987284596376,-0.022040260624956343,0.3
5.119999999999935,-1.9039322832402727,-1.5458581598323362,2.0456635242086367,-2.0706016911711234,-1.570796326794937,-0.333135956445312,0.4697171472992528,-0.02272983456456465,0.3
5.129999999999935,-1.908097758470977,-1.5548774923417186,2.0549104581102653,-2.07082929256332,-1.5707963267949465,-0.33730143167600674,0.46794909997321676,-0.024437242272745897,0.3
5.139999999999935,-1.9129855893522842,-1.558971496021521,2.0590746232899964,-2.070899454063369,-1.5707963267948981,-0.3421892625573849,0.46486450892619224,-0.026446595485145538,0.3
5.149999999999935,-1.9195451632227438,-1.5662354637229468,2.066412118695255,-2.070972981767158,-1.5707963267949159,-0.34874883642781823,0.4623171738905155,-0.027718628870957916,0.3
5.159999999999934,-1.9242018564533527,-1.572297455512825,2.07248556894916,-2.070984440231228,-1.570796326794899,-0.3534055296584524,0.4592509551504032,-0.029866596176307703,0.3
5.169999999999934,-1.9311819087085924,-1.5795128130210614,2.0796553827190825,-2.07093889649288,-1.5707963267949197,-0.36038558191366016,0.45660436423362216,-0.031366118666750056,0.3
5.179999999999934,-1.936516570291514,-1.585804414258004,2.08585477853047,-2.0708466910673593,-1.5707963267948994,-0.365720243496613,0.45530663533950194,-0.033632895581772265,0.3
5.189999999999934,-1.942424927103161,-1.5886191034767922,2.0886123878528844,-2.0707896111709867,-1.5707963267948983,-0.3716286003082616,0.45299187882608355,-0.03570976925747979,0.3
5.199999999999934,-1.9488114231716753,-1.5939731035611995,2.0938308085176502,-2.0706540317513435,-1.5707963267948994,-0.3780150963767743,0.4490856313330657,-0.03781680259045724,0.3
5.209999999999933,-1.9567033513723222,-1.6032874657570118,2.102824976410403,-2.0703338374482176,-1.5707963267949732,-0.38590702457730913,0.447935040898209,-0.039927006979823806,0.3
5.219999999999933,-1.9622615454792225,-1.6057095044514909,2.105146217611223,-2.0702330399546267,-1.5707963267948986,-0.39146521868432294,0.4446540638618459,-0.04227245597706497,0.3
5.229999999999933,-1.9702777535132956,-1.6134034293645496,2.112471961688077,-2.0698648591183955,-1.5707963267949483,-0.3994814267183187,0.4430655534092659,-0.04242232875796776,0.3
5.239999999999933,-1.9720582019453445,-1.6173697244228724,2.116219959123221,-2.0696465614952437,-1.5707963267948986,-0.40126187515044515,0.44112732625291196,-0.04502702608352738,0.3
5.2499999999999325,-1.9795132174640793,-1.6216147004410177,2.1202098366918487,-2.069391463045705,-1.5707963267949248,-0.40871689066913836,0.438362631731414,-0.046970343380300233,0.3
5.259999999999932,-1.9863675144672102,-1.6281050226318126,2.1262672571721777,-2.068958561335252,-1.5707963267949117,-0.4155711876722899,0.43573275210351736,-0.04921251604632027,0.3
5.269999999999932,-1.9938146007594457,-1.6341669500457168,2.1318780813926925,-2.0685074581418537,-1.5707963267949276,-0.4230182739645009,0.4336356342691379,-0.05105090826319672,0.3
5.279999999999932,-1.9999142400786754,-1.6389777784987112,2.1362987871258197,-2.0681173354220035,-1.5707963267949,-0.4291179132837733,0.4307347029561422,-0.053650487623976485,0.3
5.289999999999932,-2.0085513145248988,-1.6456001672826133,2.1423377069263294,-2.0675338664385805,-1.5707963267949627,-0.43775498772989907,0.4286765731127538,-0.05401530520643963,0.3
5.299999999999931,-2.01147831778116,-1.6507731963680279,2.1470175809673115,-2.0670407113941796,-1.5707963267948999,-0.4406819909862589,0.4256526612933883,-0.056432230585608534,0.3
5.309999999999931,-2.0199872647870483,-1.6577707891221205,2.153295979027845,-2.0663215167005964,-1.5707963267949654,-0.44919093799204535,0.42434584806155423,-0.057382875911447064,0.3
5.319999999999931,-2.023486118177961,-1.6608243898298656,2.156016985838092,-2.0659889228031227,-1.5707963267948992,-0.45268979138306015,0.42165570836288535,-0.05971885906686243,0.3
5.329999999999931,-2.03158284919657,-1.6669690196795144,2.161457867603393,-2.065285174718759,-1.570796326794957,-0.46078652240158097,0.42027815858909706,-0.06156520196935736,0.3
5.339999999999931,-2.037200201049107,-1.6698624424197566,2.1640039676843963,-2.064937852059536,-1.5707963267949003,-0.4664038742542051,0.41717399634938235,-0.06331017048757727,0.3
5.34999999999993,-2.044575321411005,-1.677288868267969,2.170492303215607,-2.0639997617425583,-1.570796326794952,-0.4737789946160251,0.4153656888705597,-0.06518148672501135,0.3
5.35999999999993,-2.0508174607843705,-1.681270954599425,2.1739437792574816,-2.0634691514529533,-1.5707963267949014,-0.4800211339894662,0.4122827795143362,-0.06797080119105019,0.3
5.36999999999993,-2.0606495797596054,-1.6881962779958206,2.179900504246178,-2.0625005530452425,-1.5707963267950336,-0.4898532529645005,0.41074024546884286,-0.0699359370025335,0.3
5.37999999999993,-2.066878009906854,-1.6913951157908638,2.1826323355439614,-2.0620335465479944,-1.5707963267949014,-0.4960816831119501,0.4080191191096687,-0.07075660784728352,0.3
5.3899999999999295,-2.0720210413026856,-1.6982196642507277,2.188419219944795,-2.0609958824889847,-1.5707963267949172,-0.5012247145077597,0.4068359772367568,-0.0733578186394589,0.3
5.399999999999929,-2.0792989616288775,-1.7001372419591219,2.190035118356529,-2.0606942031923023,-1.5707963267949394,-0.5085026348339173,0.40355115969256977,-0.07420613497907565,0.3
5.409999999999929,-2.08532712661927,-1.7084648093371253,2.197001203929643,-2.0593327213875203,-1.5707963267949736,-0.5145307998242642,0.40050960979642136,-0.07613109566934874,0.3
5.419999999999929,-2.0935551949495492,-1.7156366587362257,2.2029337542971272,-2.058093422355819,-1.5707963267949983,-0.5227588681545029,0.40021240809233044,-0.07874044426671518,0.3
5.429999999999929,-2.099802232989603,-1.7150809354950713,2.2024762641938174,-2.0581916554936424,-1.5707963267948992,-0.5290059061947022,0.39708379539333455,-0.08016582391816697,0.3
5.4399999999999284,-2.1071419191827623,-1.7227129431076904,2.20872688304363,-2.056810266730906,-1.570796326794982,-0.5363455923877428,0.39547844478720234,-0.0820790818732041,0.3
5.449999999999928,-2.113603745817845,-1.7259803289766145,2.2113816023178003,-2.0561976001360858,-1.570796326794907,-0.5428074190229336,0.3927989140232349,-0.08412499956376214,0.3
5.459999999999928,-2.12187257189097,-1.7320482996024573,2.2162780193999607,-2.0550260465924244,-1.570796326795009,-0.5510762450959086,0.3907035631077569,-0.08583603900892912,0.3
5.469999999999928,-2.1286429509542986,-1.736716764515973,2.220015336999793,-2.0540948992787254,-1.5707963267949268,-0.5578466241593583,0.3890894373481112,-0.08678274012203091,0.3
5.479999999999928,-2.1330544993523084,-1.7405296002693151,2.2230485035124,-2.053315230037985,-1.5707963267949037,-0.5622581725574015,0.3865467881079469,-0.08949956100163023,0.3
5.489999999999927,-2.1428218650546254,-1.7457687323884992,2.227188242387931,-2.052215836794389,-1.570796326795115,-0.5720255382594126,0.384377215278371,-0.09133322486667027,0.3
5.499999999999927,-2.150120672613335,-1.750514594336398,2.230910239266798,-2.0511919717253186,-1.5707963267949652,-0.5793243458183401,0.38259630064197514,-0.09246457266860421,0.3
5.509999999999927,-2.155308282037131,-1.754644506530775,2.23412757803638,-2.050279398300507,-1.5707963267949059,-0.5845119552422214,0.38028088896948975,-0.09403880615281635,0.3
5.519999999999927,-2.1623367764448727,-1.7599404746457652,2.238223980767662,-2.0490798329168154,-1.5707963267949523,-0.5915404496498968,0.3784403879090109,-0.09619212368673283,0.3
5.5299999999999265,-2.169998059318981,-1.7635165335360576,2.240971443607497,-2.0482512368663732,-1.5707963267949987,-0.5992017325239392,0.37575285226494487,-0.09843198613181975,0.3
5.539999999999926,-2.1792132498494343,-1.7693296985889415,2.245405748919017,-2.0468723771250605,-1.5707963267951248,-0.6084169230542154,0.37436859925071597,-0.10056149828324218,0.3
5.549999999999926,-2.186183407779556,-1.771591295498845,2.2471202500482983,-2.0463252813443713,-1.5707963267949514,-0.6153870809845822,0.3722615461945585,-0.10107819143566112,0.3
5.559999999999926,-2.1907087298931085,-1.777033647141567,2.25122166170325,-2.0449843413565896,-1.5707963267949097,-0.6199124030981942,0.37118670696984907,-0.10313168704331187,0.3
5.569999999999926,-2.1970575897410365,-1.778449042191234,2.25228267954993,-2.044629964153596,-1.5707963267949057,-0.6262612629461272,0.36790492700813093,-0.10421282436782944,0.3
5.5799999999999255,-2.2048631696261647,-1.7867244739794081,2.2584397177182174,-2.0425115705339234,-1.5707963267951195,-0.6340668428309684,0.3663949044198381,-0.10719764881175435,0.3
