takaya-hirano-hayashibeLabo/UR5e-IK-Control/main/collect_dataset/20241016/output/datasets.csv
time,joint0,joint1,joint2,joint3,joint4,joint5,target_x,target_y,target_z
0.01,-1.6022159265358982,-1.5393840734641018,1.6022159265358982,-1.5912373727310951,-1.5826134684260582,-0.030779699982675813,0.4974867850995635,0.001884933958126603,0.3
0.02,-1.639915038378976,-1.5171665200437563,1.639915038378976,-1.628936484574173,-1.5806484089916397,-0.0684485179805328,0.49497396706407387,0.0037697935033813835,0.3
0.03,-1.6776141502220538,-1.523435238582123,1.6776141502220538,-1.6666355964172508,-1.578637784385097,-0.1061476298236103,0.49246194269580845,0.00565450422583004,0.3
0.04,-1.7153132620651317,-1.5297297783943782,1.7153132620651317,-1.7043347082603286,-1.5766488549104716,-0.14384674166668782,0.48995110867171543,0.007538991721413192,0.3
0.05,-1.7530123739082095,-1.536021068226038,1.7530123739082095,-1.7420338201034065,-1.57468529951622,-0.18154585350976532,0.4874418614807739,0.00942318159488356,0.3
0.060000000000000005,-1.7907114857512874,-1.5422806953871697,1.7907114857512874,-1.7797329319464843,-1.5727510305782328,-0.21924496535284282,0.48493459736138367,0.011306999462742785,0.3
0.07,-1.8180108286247691,-1.548267864113547,1.8284105975943652,-1.8174320437895621,-1.5712396732299099,-0.24720086879624378,0.48242971223879494,0.013190370956177786,0.3
0.08,-1.8169433354446491,-1.5535076440957272,1.866109709437443,-1.85513115563264,-1.5711655007731105,-0.246138751202689,0.47992760166258663,0.015073221723996543,0.3
0.09,-1.8160850120071648,-1.558613015169121,1.9038088212805209,-1.8928302674757178,-1.5710838881585625,-0.2452827711999836,0.47742866074420515,0.016955477435563197,0.3
0.09999999999999999,-1.815472644832868,-1.5635790529757132,1.9415079331235987,-1.9305293793187956,-1.570990238196483,-0.24467246475289736,0.47493328409457125,0.018837063783732306,0.3
0.10999999999999999,-1.8151234339901825,-1.5683998759483528,1.9792070449666765,-1.9682284911618735,-1.5708839445769796,-0.2443249089915989,0.4724418657617666,0.020717906487782177,0.3
0.11999999999999998,-1.814278133794149,-1.5700976187189497,2.0137862838061142,-2.005927603004951,-1.570796013171559,-0.24348174975022865,0.46995479916880933,0.02259793129634724,0.3
0.12999999999999998,-1.8115223102157607,-1.5636222151130081,2.0399971687719436,-2.043626714848029,-1.5707975863234622,-0.2407259905657427,0.4674724770515275,0.02447706399034909,0.3
0.13999999999999999,-1.8088004186529227,-1.560128265515834,2.0602470862991167,-2.0709151035631357,-1.5707963275755896,-0.23800409121005414,0.4649952913965419,0.026355230385926465,0.3
0.15,-1.8060166287190396,-1.5659281814308423,2.06610304650437,-2.0709711918684235,-1.570796326794897,-0.23522030192414242,0.46252363337936686,0.028232356337363627,0.3
0.16,-1.8031988449889347,-1.5717142613758284,2.0719032463573397,-2.070985311776407,-1.5707963267948968,-0.23240251819403782,0.46005789330263913,0.030108367740017426,0.3
0.17,-1.800346630557787,-1.5774852149709202,2.07764708082316,-2.0709581926471357,-1.5707963267948968,-0.22955030376289004,0.45759846053448433,0.03198319053324259,0.3
0.18000000000000002,-1.7974595383385206,-1.583239844690758,2.083333697066625,-2.070890179170763,-1.5707963267948968,-0.22666321154362384,0.4551457234470317,0.03385675070331536,0.3
0.19000000000000003,-1.7945371286248701,-1.5889769302666727,2.08896225717269,-2.070781653700913,-1.570796326794897,-0.22374080182997327,0.4527000693550853,0.035728974286355325,0.3
0.20000000000000004,-1.7915789698162794,-1.5946952286518021,2.0945319385274734,-2.070633036670568,-1.570796326794897,-0.2207826430213825,0.4502618844549626,0.03759978737124508,0.3
0.21000000000000005,-1.7885846391696298,-1.6003934740339074,2.100041934202484,-2.0704447869634732,-1.5707963267948968,-0.2177883123747327,0.44783155376350997,0.03946911610254807,0.3
0.22000000000000006,-1.785553723577768,-1.6060703778984278,2.105491453341157,-2.0702174022376263,-1.5707963267948968,-0.21475739678287137,0.44540946105730356,0.04133688668342405,0.3
0.23000000000000007,-1.782485820374723,-1.611724629144265,2.110879721546776,-2.069951419197408,-1.570796326794897,-0.2116894935798261,0.4429959888120469,0.04320302537854231,0.3
0.24000000000000007,-1.7793805381673888,-1.6173548942547824,2.1162059812707494,-2.069647413810864,-1.570796326794897,-0.208584211372492,0.44059151814217357,0.045067458516992426,0.3
0.25000000000000006,-1.7762374976933792,-1.6229598175264526,2.121469492200236,-2.0693060014686804,-1.5707963267948966,-0.20544117089848213,0.43819642874066483,0.046930112495192515,0.3
0.26000000000000006,-1.7730563327046154,-1.6285380213575116,2.1266695316440205,-2.068927837081406,-1.5707963267948968,-0.20226000590971888,0.4358110988190915,0.04879091377979483,0.3
0.2700000000000001,-1.7698366908761227,-1.6340881065989192,2.131805394915517,-2.0685136151114953,-1.5707963267948968,-0.19904036408122605,0.4334359050478905,0.05064978891058859,0.3
0.2800000000000001,-1.7665782347393637,-1.6396086529698168,2.136876395711749,-2.06806406953683,-1.5707963267948966,-0.1957819079444671,0.43107122249688357,0.052506664503399754,0.3
0.2900000000000001,-1.7632806426393317,-1.6450982195395818,2.14188186648711,-2.0675799737424265,-1.5707963267948968,-0.19248431584443515,0.42871742457605,0.05436146725298811,0.3
0.3000000000000001,-1.7599436097144636,-1.6505553452784363,2.1468211588206896,-2.067062140337151,-1.5707963267948963,-0.18914728291956717,0.4263748829765608,0.056214123935941045,0.3
0.3100000000000001,-1.7565668488983106,-1.6559785496784174,2.151693643775896,-2.0665114208923767,-1.5707963267948963,-0.18577052210341402,0.424043967612084,0.05806456141356401,0.3
0.3200000000000001,-1.7531500919417415,-1.661366333446379,2.1564987122511385,-2.065928705599658,-1.5707963267948966,-0.18235376514684523,0.4217250465603717,0.05991270663476786,0.3
0.3300000000000001,-1.7496930904543013,-1.6667171792704758,2.1612357753202476,-2.06531492284467,-1.5707963267948966,-0.17889676365940496,0.41941848600513554,0.06175848663895261,0.3
0.34000000000000014,-1.746195616963189,-1.672029552661423,2.165904264561365,-2.06467103869484,-1.5707963267948963,-0.175399290168293,0.4171246501782228,0.06360182855888757,0.3
0.35000000000000014,-1.742657465988143,-1.6773019028695495,2.1705036323729687,-2.063998056298318,-1.5707963267948961,-0.1718611391932469,0.41484390130209964,0.06544265962358796,0.3
0.36000000000000015,-1.7390784551303593,-1.6825326638784823,2.17503335227576,-2.0632970151921763,-1.5707963267948961,-0.16828212833546338,0.4125765995326521,0.06728090716118751,0.3
0.37000000000000016,-1.7354584261733863,-1.687720255476001,2.179492919199072,-2.0625689905179696,-1.5707963267948961,-0.16466209937849033,0.4103231029023131,0.06911649860180741,0.3
0.38000000000000017,-1.7317972461937599,-1.6928630844023451,2.1838818497505526,-2.061815092143106,-1.570796326794896,-0.1610009193988643,0.40808376726352563,0.0709493614804209,0.3
0.3900000000000002,-1.7280948086789696,-1.6979595455759597,2.1881996824678174,-2.0610364636867566,-1.570796326794896,-0.15729848188407414,0.40585894623254876,0.0727794234397141,0.3
0.4000000000000002,-1.7243510346501447,-1.7030080233963556,2.1924459780508494,-2.0602342814493926,-1.5707963267948957,-0.15355470785524944,0.4036489911336181,0.0746066122329423,0.3
0.4100000000000002,-1.7205658737866911,-1.7080068931234447,2.1966203195739165,-2.0594097532453706,-1.5707963267948957,-0.14976954699179623,0.40145425094346754,0.07643085572678195,0.3
0.4200000000000002,-1.7167393055499016,-1.7129545223323566,2.2007223126758455,-2.058564117138388,-1.5707963267948957,-0.14594297875500664,0.39927507223622166,0.07825208190417832,0.3
0.4300000000000002,-1.712871340302394,-1.7178492724424144,2.2047515857275175,-2.057698640080002,-1.5707963267948954,-0.1420750135074995,0.397111799128668,0.08007021886718835,0.3
0.4400000000000002,-1.7089620204200604,-1.7226895003185598,2.2087077899755103,-2.0568146164518493,-1.5707963267948954,-0.1381656936251658,0.39496477322591667,0.08188519483981899,0.3
0.45000000000000023,-1.7050114213930136,-1.7274735599431763,2.2125905996608837,-2.055913366512606,-1.570796326794895,-0.13421509459811923,0.39283433356745723,0.0836969381708606,0.3
0.46000000000000024,-1.7010196529118793,-1.7321998041558502,2.2163997121121466,-2.054996234751195,-1.570796326794895,-0.13022332611698517,0.39072081657362057,0.08550537733671545,0.3
0.47000000000000025,-1.6969868599355986,-1.7368665864582484,2.2201348478115537,-2.0540645881482043,-1.5707963267948948,-0.126190533140705,0.3886245559924537,0.08731044094422127,0.3
0.48000000000000026,-1.6929132237367726,-1.7414722628809,2.2237957504339287,-2.053119814347928,-1.5707963267948948,-0.12211689694187859,0.386545882847018,0.08911205773346957,0.3
0.49000000000000027,-1.6887989629204248,-1.746015193908266,2.227382186857316,-2.052163319743949,-1.5707963267948946,-0.11800263612553147,0.3844851253831161,0.09091015658061857,0.3
0.5000000000000002,-1.6846443344119595,-1.7504937464581258,2.230893947144857,-2.0511965274816295,-1.5707963267948943,-0.11384800761706625,0.3824426090174582,0.09270466650070115,0.3
0.5100000000000002,-1.6804496344099404,-1.7549062959109059,2.234330844497376,-2.0502208753813687,-1.5707963267948941,-0.10965330761504757,0.38041865628627547,0.09449551665042696,0.3
0.5200000000000002,-1.6762151992992653,-1.7592512281842054,2.237692715176278,-2.049237813786972,-1.570796326794894,-0.10541887250437283,0.3784135867943875,0.09628263633097896,0.3
0.5300000000000002,-1.6719414065201994,-1.7635269418474326,2.240979418396456,-2.048248803343922,-1.570796326794894,-0.10114507972530719,0.3764277171647331,0.09806595499080441,0.3
0.5400000000000003,-1.6676286753886937,-1.7677318502710915,2.2441908361890275,-2.0472553127128346,-1.5707963267948934,-0.0968323485938019,0.3744613609883719,0.09984540222840012,0.3
0.5500000000000003,-1.6632774678633722,-1.771864383804949,2.247326873233834,-2.046258816223783,-1.570796326794893,-0.09248114106848042,0.37251482877496483,0.10162090779509146,0.3
0.5600000000000003,-1.6588882892545584,-1.7759229919789845,2.250387456661753,-2.0452607914776673,-1.5707963267948932,-0.08809196245966733,0.37058842790374086,0.10339240159780562,0.3
0.5700000000000003,-1.6544616888707364,-1.7799061457207468,2.253372535826994,-2.0442627169011454,-1.5707963267948928,-0.08366536207584543,0.3686824625749584,0.10515981370183855,0.3
0.5800000000000003,-1.6499982605978574,-1.7838123395824839,2.256282082049669,-2.043266069262083,-1.5707963267948923,-0.07920193380296688,0.3667972337618687,0.10692307433361585,0.3
0.5900000000000003,-1.645498643407,-1.7876400939711525,2.2591160883290504,-2.042272321152796,-1.5707963267948921,-0.07470231661210969,0.36493303916318853,0.10868211388344709,0.3
0.6000000000000003,-1.6409635217859626,-1.791387957374243,2.2618745690280515,-2.041282938448706,-1.5707963267948917,-0.07016719499107324,0.36309017315609016,0.1104368629082738,0.3
0.6100000000000003,-1.6363936260905096,-1.7950545085741614,2.2645575595295844,-2.0402993777503204,-1.5707963267948912,-0.06559729929562069,0.361268926749716,0.11218725213441075,0.3
0.6200000000000003,-1.6317897328111317,-1.798638358843775,2.2671651158655477,-2.0393230838166696,-1.570796326794891,-0.060993406016242604,0.35946958753922464,0.11393321246028076,0.3
0.6300000000000003,-1.6271526647513876,-1.802138154115663,2.2696973143193415,-2.038355486998576,-1.5707963267948908,-0.05635633795649942,0.35769243966037645,0.11567467495914248,0.3
0.6400000000000003,-1.6224832911140996,-1.8055525771175,2.272154251002896,-2.037398000680292,-1.5707963267948901,-0.05168696431921212,0.35593776374466535,0.11741157088181145,0.3
0.6500000000000004,-1.6177825274919182,-1.8088803494660421,2.2745360414092843,-2.0364520187381387,-1.57079632679489,-0.04698620069703108,0.3542058368750036,0.11914383165937399,0.3
0.6600000000000004,-1.6130513357590748,-1.8121202337121725,2.276842819942146,-2.0355189130248696,-1.5707963267948895,-0.042255008964188365,0.35249693254196746,0.12087138890589413,0.3
0.6700000000000004,-1.6082907238614268,-1.8152710353295516,2.2790747394231605,-2.034600030888505,-1.570796326794889,-0.037494397066540494,0.35081132060060993,0.12259417442111327,0.3
0.6800000000000004,-1.6035017455022489,-1.8183316046395175,2.2812319705789625,-2.03369669273434,-1.5707963267948886,-0.03270541870736328,0.3491492672278472,0.12431212019314247,0.3
0.6900000000000004,-1.598685499721602,-1.821300838665053,2.2833147015089237,-2.032810189638765,-1.5707963267948881,-0.02788917292671695,0.3475110348804267,0.12602515840114725,0.3
0.7000000000000004,-1.593843130367481,-1.8241776829068237,2.285323137135308,-2.0319417810233786,-1.5707963267948875,-0.023046803572596683,0.3458968822534817,0.127733221418025,0.3
0.7100000000000004,-1.5889758254573891,-1.8269611330345457,2.2872574986373646,-2.0310926923977126,-1.5707963267948872,-0.018179498662504904,0.34430706423968094,0.12943624181307475,0.3
0.7200000000000004,-1.5840848164294044,-1.829650236487213,2.2891180228709658,-2.0302641131786467,-1.570796326794887,-0.013288489634520846,0.3427418318889776,0.13113415235465894,0.3
0.7300000000000004,-1.579171377282279,-1.832244093976063,2.290904961775441,-2.0294571945942717,-1.5707963267948863,-0.00837505048739625,0.341201432368966,0.13282688601285755,0.3
0.7400000000000004,-1.5742368236045867,-1.8347418608844945,2.292618581769284,-2.0286730476796824,-1.570796326794886,-0.0034404968097041812,0.3396861089258508,0.13451437596211438,0.3
0.7500000000000004,-1.5692825114934172,-1.8371427485595906,2.2942591631364286,-2.0279127413717304,-1.5707963267948855,0.0015138153014647136,0.33819610084603585,0.1361965555838748,0.3
0.7600000000000005,-1.5643098363636323,-1.839446025490293,2.295826999404793,-2.0271773007093925,-1.5707963267948848,0.006486490431248755,0.3367316434183377,0.13787335846921592,0.3
0.7700000000000005,-1.5593202316491983,-1.8416510183677794,2.2973223967188003,-2.0264677051459126,-1.5707963267948846,0.011476095145682326,0.3352929678968315,0.1395447184214681,0.3
0.7800000000000005,-1.554315167398627,-1.8437571130240757,2.298745673207557,-2.0257848869783723,-1.570796326794884,0.016481159396252807,0.33388030146433234,0.14121056945882804,0.3
0.7900000000000005,-1.5492961487670671,-1.8457637552454482,2.300097158350367,-2.0251297298998097,-1.5707963267948835,0.02150017802781209,0.3324938671965216,0.1428708458169638,0.3
0.8000000000000005,-1.5442647144081,-1.84767045145768,2.3013771923412074,-2.0245030676784177,-1.570796326794883,0.026531612386778706,0.33113388402671984,0.14452548195161066,0.3
0.8100000000000005,-1.539222434768794,-1.8494767692808889,2.3025861254537747,-2.0239056829677757,-1.5707963267948826,0.031573892026084384,0.32980056671131525,0.14617441254115895,0.3
0.8200000000000005,-1.5341709102920495,-1.851182337952105,2.30372431740864,-2.0233383062514245,-1.5707963267948821,0.036625416502827975,0.3284941257958508,0.14781757248923236,0.3
0.8300000000000005,-1.529111769530763,-1.8527868486144414,2.3047921367440143,-2.022801614924462,-1.5707963267948817,0.041684557264113964,0.32721476758177714,0.14945489692725805,0.3
0.8400000000000005,-1.5240466671787525,-1.8542900544722354,2.3057899601915506,-2.0222962325142038,-1.5707963267948812,0.04674965961612444,0.32596269409387457,0.15108632121702734,0.3
0.8500000000000005,-1.5189772820238605,-1.8556917708121834,2.3067181720585506,-2.0218227280412555,-1.5707963267948803,0.051819044771015774,0.3247381030483517,0.1527117809532474,0.3
0.8600000000000005,-1.5139053148290058,-1.8569918748910132,2.3075771636178537,-2.0213816155217286,-1.5707963267948801,0.0568910119658697,0.32354118782162344,0.15433121196608374,0.3
0.8700000000000006,-1.5088324861473623,-1.8581903056908782,2.308367332506623,-2.020973353610632,-1.5707963267948797,0.06196384064751276,0.3223721374197746,0.15594455032369364,0.3
0.8800000000000006,-1.503760534078154,-1.8592870635441896,2.3090890821351535,-2.0205983453858507,-1.5707963267948792,0.06703579271672086,0.3212311364487139,0.15755173233474973,0.3
0.8900000000000006,-1.498691211969867,-1.8602822096301639,2.309742821106731,-2.0202569382714537,-1.5707963267948792,0.07210511482500728,0.32011836508502234,0.15915269455095463,0.3
0.9000000000000006,-1.4936262860779443,-1.861175865345905,2.3103289626495074,-2.0199494240984883,-1.570796326794879,0.07717004071692973,0.3190339990475015,0.16074737376954526,0.3
0.9100000000000006,-1.4885675331842274,-1.8619682115553369,2.3108479240612283,-2.0196760393007773,-1.5707963267948786,0.08222879361064628,0.3179782095694253,0.16233570703578845,0.3
0.9200000000000006,-1.483516738185614,-1.8626594877198173,2.311300126167607,-2.0194369652426754,-1.5707963267948781,0.08727958860925925,0.3169511633715004,0.16391763164546574,0.3
0.9300000000000006,-1.478475691659512,-1.8632499909146685,2.3116859927949984,-2.019232328675215,-1.570796326794878,0.09232063513536089,0.3159530226355393,0.16549308514734906,0.3
0.9400000000000006,-1.4734461874137679,-1.8637400747363617,2.3120059502579817,-2.019062202316505,-1.5707963267948777,0.09735013938110483,0.3149839449788496,0.167062005345666,0.3
0.9500000000000006,-1.4684300200287859,-1.8641301481054033,2.3122604268623386,-2.01892660555182,-1.5707963267948777,0.10236630676608667,0.31404408342934453,0.16862433030255508,0.3
0.9600000000000006,-1.4634289823995574,-1.8644206739703924,2.3124498524238426,-2.0188255052483344,-1.5707963267948775,0.10736734439531524,0.3131335864013785,0.17017999834051104,0.3
0.9700000000000006,-1.4584448632852667,-1.864612167919002,2.312574657803199,-2.0187588166790817,-1.5707963267948772,0.11235146350960563,0.3122525976723102,0.1717289480448195,0.3
0.9800000000000006,-1.4534794448740456,-1.8647051967019292,2.3126352744573877,-2.018726404550342,-1.5707963267948772,0.11731688192082666,0.3114012563597989,0.17327111826598168,0.3
0.9900000000000007,-1.4485345003703287,-1.864700376676102,2.312632134007572,-2.0187280841263537,-1.5707963267948772,0.12226182642454334,0.3105796968998359,0.17480644812212812,0.3
1.0000000000000007,-1.4436117916120657,-1.8645983721736215,2.3125656678237063,-2.0187636224449683,-1.5707963267948772,0.12718453518280617,0.30978804902551593,0.17633487700142259,0.3
1.0100000000000007,-1.4387130667248524,-1.8643998938030932,2.3124363066258606,-2.018832739617651,-1.570796326794877,0.1320832600700196,0.3090264377465505,0.17785634456445423,0.3
1.0200000000000007,-1.433840057819775,-1.8641056966901017,2.3122444801022564,-2.0189351102070385,-1.570796326794877,0.1369562689750971,0.30829498332952754,0.17937079074662024,0.3
1.0300000000000007,-1.4289944787414848,-1.863716578663686,2.3119906165439343,-2.019070364675132,-1.5707963267948772,0.1418018480533875,0.30759380127891994,0.1808781557604967,0.3
1.0400000000000007,-1.424178022872705,-1.8632333783956867,2.311675142495925,-2.0192380908951217,-1.5707963267948772,0.1466183039221672,0.3069230023188461,0.18237838009819884,0.3
1.0500000000000007,-1.4193923610010217,-1.862656973499872,2.311298482424762,-2.0194378357197738,-1.5707963267948772,0.15140396579385074,0.30628269237558536,0.1838714045337305,0.3
1.0600000000000007,-1.4146391392534368,-1.8619882785976658,2.3108610584021174,-2.019669106599335,-1.5707963267948777,0.15615718754143565,0.30567297256085096,0.18535717012532194,0.3
1.0700000000000007,-1.4099199771037836,-1.8612282433573037,2.3103632898043216,-2.019931373241901,-1.570796326794878,0.16087634969108883,0.30509393915582333,0.18683561821775693,0.3
1.0800000000000007,-1.405236465457679,-1.8603778505130546,2.3098055930274954,-2.0202240693093243,-1.5707963267948777,0.1655598613371938,0.30454568359594636,0.18830669044468812,0.3
1.0900000000000007,-1.4005901648192702,-1.8594381138710927,2.3091883812179956,-2.0205465941417864,-1.5707963267948781,0.17020616197560295,0.30402829245648855,0.18977032873094138,0.3
1.1000000000000008,-1.395982603543595,-1.8584100763083726,2.308512064017857,-2.020898314504368,-1.5707963267948784,0.17481372325127842,0.3035418474388719,0.19122647529480843,0.3
1.1100000000000008,-1.3914152761779335,-1.8572948077707268,2.307777047324916,-2.0212785663490735,-1.5707963267948786,0.17938105061694007,0.3030864253577703,0.19267507265032796,0.3
1.1200000000000008,-1.386889641895074,-1.8560934032761434,2.3069837330672502,-2.0216866565859912,-1.5707963267948788,0.18390668489979958,0.3026620981289796,0.19411606360955466,0.3
1.1300000000000008,-1.3824071230209762,-1.8548069809289773,2.3061325189916193,-2.0221218648575263,-1.570796326794879,0.1883892037738979,0.3022689327580612,0.19554939128481766,0.3
1.1400000000000008,-1.377969103658853,-1.85343667995058,2.3052237984655375,-2.0225834453098415,-1.5707963267948795,0.19282722313602185,0.3019069913297614,0.1969749990909655,0.3
1.1500000000000008,-1.3735769284112702,-1.8519836587315486,2.3042579602926487,-2.023070628355985,-1.57079632679488,0.1972193983836052,0.30157633099820746,0.19839283074760045,0.3
1.1600000000000008,-1.3692319012014067,-1.850449092910526,2.303235388541049,-2.0235826224254083,-1.5707963267948801,0.20156442559346877,0.3012770039778818,0.19980283028130036,0.3
1.1700000000000008,-1.364935284194213,-1.848834173484182,2.3021564623842363,-2.0241186156949396,-1.5707963267948803,0.20586104260066293,0.30100905753537766,0.2012049420278281,0.3
1.1800000000000008,-1.360688296817777,-1.8471401049526663,2.301021555954351,-2.0246777777965694,-1.5707963267948808,0.2101080299770995,0.3007725339819344,0.2025991106343293,0.3
1.1900000000000008,-1.356492114884832,-1.845368103504564,2.299831038207401,-2.0252592614977227,-1.5707963267948812,0.214304211910045,0.3005674706667564,0.20398528106151745,0.3
1.2000000000000008,-1.3523478698139395,-1.8435193952449926,2.2985852728001688,-2.025862204350062,-1.5707963267948815,0.2184484569809379,0.3003938999711153,0.20536339858584685,0.3
1.2100000000000009,-1.3482566479495361,-1.841595214470232,2.297284617978512,-2.0264857303031665,-1.570796326794882,0.2225396788453414,0.3002518493032367,0.20673340880167276,0.3
1.2200000000000009,-1.3442194899796924,-1.839596801991885,2.295929426476785,-2.0271289512797863,-1.5707963267948823,0.22657683681518567,0.30014134109397156,0.2080952576233996,0.3
1.2300000000000009,-1.3402373904501004,-1.837525403513297,2.294520045428131,-2.0277909687097204,-1.5707963267948828,0.23055893634477825,0.3000623927932548,0.20944889128761573,0.3
1.2400000000000009,-1.336311297372526,-1.8353822680606098,2.2930568162853935,-2.02847087501967,-1.570796326794883,0.23448502942235327,0.30001501686734944,0.21079425635521631,0.3
1.2500000000000009,-1.3324421119256817,-1.8331686464705312,2.291540074752426,-2.0291677550767813,-1.5707963267948837,0.23835421486919783,0.2999992207968781,0.2121312997135126,0.3
1.260000000000001,-1.3286306882462244,-1.8308857899365798,2.2899701507255967,-2.0298806875839044,-1.5707963267948841,0.24216563854865603,0.30001500707564166,0.21345996857832916,0.3
1.270000000000001,-1.3248778333073588,-1.8285349486152926,2.2883473682452813,-2.0306087464248765,-1.5707963267948846,0.24591849348752176,0.3000623732102259,0.2147802104960873,0.3
1.280000000000001,-1.3211843068823261,-1.8261173702935452,2.2866720454571676,-2.0313510019585106,-1.5707963267948848,0.24961201991255494,0.3001413117203946,0.21609197334587626,0.3
1.290000000000001,-1.3175508215898757,-1.823634299117909,2.284944494583209,-2.032106522260188,-1.5707963267948852,0.2532455052050058,0.30025181014027125,0.2173952053415103,0.3
1.300000000000001,-1.3139780430186656,-1.821086974386672,2.2831650219020667,-2.0328743743102837,-1.570796326794886,0.25681828377621657,0.3003938510203075,0.2186898550335738,0.3
1.310000000000001,-1.3104665899273975,-1.818476629404887,2.2813339277388955,-2.0336536251288977,-1.570796326794886,0.26032973686748534,0.30056741193003866,0.21997587131145185,0.3
1.320000000000001,-1.3070170345173968,-1.8158044904026065,2.2794515064643495,-2.034443342856632,-1.5707963267948863,0.26377929227748653,0.3007724654616256,0.2212532034053483,0.3
1.330000000000001,-1.3036299027742386,-1.8130717755161803,2.277518046502669,-2.035242597781379,-1.5707963267948868,0.2671664240206447,0.3010089792341829,0.22252180088829004,0.3
1.340000000000001,-1.300305674874969,-1.8102796938323331,2.275533830348746,-2.036050463311303,-1.5707963267948872,0.2704906519199149,0.3012769158988923,0.22378161367811775,0.3
1.350000000000001,-1.2970447856574145,-1.8074294444944898,2.2734991345940494,-2.0368660168944497,-1.5707963267948875,0.2737515411374698,0.30157623314490034,0.225032592039463,0.3
1.360000000000001,-1.2938476251480424,-1.8045222158706655,2.2714142299613043,-2.037688340885529,-1.5707963267948877,0.2769487016468422,0.3019068837059999,0.226274686585712,0.3
1.370000000000001,-1.2907145391448225,-1.8015591847820391,2.2692793813478334,-2.038516523360685,-1.5707963267948881,0.28008178765006314,0.3022688153680939,0.227507848280955,0.3
1.380000000000001,-1.2876458298515474,-1.7985415157911913,2.267094847877449,-2.039349658881149,-1.5707963267948886,0.2831504969433382,0.30266197097744096,0.22873202844192222,0.3
1.390000000000001,-1.2846417565600847,-1.795470360548819,2.264860882960802,-2.0401868492068744,-1.570796326794889,0.2861545702348011,0.3030862884496801,0.22994717873990614,0.3
1.400000000000001,-1.281702536377059,-1.7923468571976398,2.2625777343640925,-2.041027203961344,-1.570796326794889,0.2890937904178274,0.30354170077963505,0.231153251202669,0.3
1.410000000000001,-1.2788283449915292,-1.7891721298320615,2.260245644286045,-2.041869841248875,-1.5707963267948895,0.2919679818033576,0.30402813605189477,0.23235019821633696,0.3
1.420000000000001,-1.276019317480257,-1.7859472880120761,2.2578648494430267,-2.042713888225843,-1.5707963267948897,0.29477700931463036,0.3045455174521703,0.23353797252727984,0.3
1.430000000000001,-1.273275549147252,-1.782673426329796,2.255435581162234,-2.0435584816273304,-1.5707963267948901,0.29752077764763585,0.30509376327942406,0.23471652724397657,0.3
1.440000000000001,-1.270597096394342,-1.779351624026914,2.25295806548281,-2.0444027682507886,-1.5707963267948903,0.3001992304005459,0.30567278695877176,0.23588581583886645,0.3
1.450000000000001,-1.267983977619611,-1.7759829446613389,2.2504325232647875,-2.0452459053983416,-1.5707963267948906,0.30281234917527783,0.30628249705515354,0.23704579215018595,0.3
1.460000000000001,-1.265436174140631,-1.7725684358212006,2.247859170305746,-2.046087061279439,-1.5707963267948908,0.3053601526542579,0.3069227972877725,0.23819641038379127,0.3
1.470000000000001,-1.2629536311395249,-1.7691091288843594,2.2452382174650336,-2.0469254153755676,-1.570796326794891,0.3078426956553642,0.3075935865452989,0.23933762511496617,0.3
1.480000000000001,-1.260536258626986,-1.765606038821529,2.242569870795437,-2.047760158768802,-1.5707963267948912,0.3102600681679034,0.30829475890183633,0.24046939129021536,0.3
1.490000000000001,-1.2581839324225006,-1.7620601640411182,2.239854331682149,-2.048590494435925,-1.5707963267948915,0.31261239437238886,0.3090262036336492,0.2415916642290431,0.3
1.500000000000001,-1.2558964951481233,-1.7584724862738335,2.2370917969888753,-2.049415637509936,-1.570796326794892,0.3148998316467661,0.30978780523664684,0.24270439962571713,0.3
1.5100000000000011,-1.2536737572332717,-1.7548439704951402,2.2342824592109376,-2.050234815510692,-1.5707963267948921,0.31712256956161844,0.3105794434446234,0.24380755355101805,0.3
1.5200000000000011,-1.251515497928116,-1.7511755648836258,2.231426506635184,-2.051047268546453,-1.5707963267948923,0.31928082886677445,0.311400993248249,0.24490108245397332,0.3
1.5300000000000011,-1.2494214663232723,-1.7474682008133628,2.2285241235065523,-2.051852249488084,-1.5707963267948926,0.32137486047161823,0.31225232491481014,0.24598494316357702,0.3
1.5400000000000011,-1.2473913823735963,-1.7437227928783448,2.2255754902010754,-2.0526490241176254,-1.5707963267948926,0.3234049444212948,0.3131333040086962,0.2470590928904937,0.3
1.5500000000000012,-1.2454249379240199,-1.7399402389471308,2.222580783405153,-2.0534368712529174,-1.5707963267948928,0.3253713888708716,0.3140437914126284,0.24812348922874813,0.3
1.5600000000000012,-1.2435217977354667,-1.7361214202458222,2.2195401763008813,-2.054215082849955,-1.570796326794893,0.32727452905942506,0.3149836433496279,0.24917809015739945,0.3
1.5700000000000012,-1.24168160050901,-1.7322672014675682,2.216453838757224,-2.0549829640845516,-1.5707963267948932,0.3291147262858815,0.31595271140572,0.2502228540421998,0.3
1.5800000000000012,-1.239903959906541,-1.7283784309067955,2.21332193752681,-2.0557398334149104,-1.5707963267948937,0.3308923668883508,0.31695084255337025,0.25125773963723835,0.3
1.5900000000000012,-1.2381884655663242,-1.724455940616427,2.2101446364481308,-2.0564850226265996,-1.5707963267948934,0.3326078612285677,0.31797787917564957,0.25228270608656966,0.3
1.6000000000000012,-1.23653468411194,-1.7205005465863923,2.206922096652898,-2.0572178768614022,-1.5707963267948937,0.3342616426829525,0.3190336590911236,0.2532977129258264,0.3
1.6100000000000012,-1.2349421601531878,-1.7165130489417528,2.203654476778322,-2.0579377546314657,-1.570796326794894,0.33585416664170487,0.3201180155794632,0.2543027200838175,0.3
1.6200000000000012,-1.233410417277667,-1.7124942321588854,2.2003419331840655,-2.0586440278200766,-1.570796326794894,0.3373859095172256,0.3212307774077714,0.2552976878841092,0.3
1.6300000000000012,-1.2319389590318104,-1.708444865298134,2.1969846201736183,-2.0593360816703807,-1.570796326794894,0.33885736776308195,0.322371768857623,0.25628257704659246,0.3
1.6400000000000012,-1.2305272698902694,-1.7043657022514491,2.193582690219823,-2.060013314763271,-1.5707963267948941,0.3402690569046236,0.32354080975281296,0.25725734868903316,0.3
1.6500000000000012,-1.2291748162126244,-1.7002574820035872,2.190136294194309,-2.0606751389856193,-1.5707963267948941,0.3416215105822687,0.3247377154878079,0.2582219643286073,0.3
1.6600000000000013,-1.2278810471864985,-1.6961209289054748,2.1866455816005397,-2.061320979489962,-1.5707963267948946,0.3429152796083949,0.3259622970568976,0.2591763858834205,0.3
1.6700000000000013,-1.2266453957562153,-1.6919567529584283,2.1831107008102246,-2.061950274646694,-1.5707963267948946,0.34415093103867794,0.3272143610840414,0.2601205756740113,0.3
1.6800000000000013,-1.22546727953625,-1.6877656501079497,2.179531799302811,-2.0625624759897585,-1.5707963267948946,0.3453290472586434,0.32849370985340415,0.2610544964248387,0.3
1.6900000000000013,-1.2243461017087642,-1.683548302545913,2.1759090239077743,-2.063157048156759,-1.5707963267948948,0.3464502250861294,0.32980014134057833,0.2619781112657541,0.3
1.7000000000000013,-1.2232812519046345,-1.6793053790199786,2.172242521049441,-2.0637334688243603,-1.5707963267948946,0.3475150748902592,0.3311334492444856,0.2628913837334567,0.3
1.7100000000000013,-1.2222721070674072,-1.6750375351491573,2.1685324369940577,-2.064291228639798,-1.5707963267948948,0.3485242197274866,0.33249342301995444,0.2637942777729332,0.3
1.7200000000000013,-1.2213180322997146,-1.6707454137444981,2.1647789180988215,-2.064829831149222,-1.570796326794895,0.34947829449517953,0.33387984791096764,0.2646867577388813,0.3
1.7300000000000013,-1.2204183816917273,-1.6664296451339087,2.1609821110626073,-2.0653487927235967,-1.570796326794895,0.35037794510316655,0.33529250498457475,0.26556878839711695,0.3
1.7400000000000013,-1.2195724991312924,-1.6620908474902336,2.157142163178108,-2.065847642482772,-1.5707963267948948,0.3512238276636018,0.33673117116546397,0.26644033492596564,0.3
1.7500000000000013,-1.218779719095448,-1.657729627161679,2.1532592225851013,-2.0663259222183203,-1.570796326794895,0.35201660769944615,0.33819561927118874,0.2673013629176367,0.3
1.7600000000000013,-1.218039367423075,-1.6533465790038282,2.149333438524599,-2.0667831863156687,-1.5707963267948948,0.35275695937181945,0.3396856180480422,0.2681518383795823,0.3
1.7700000000000014,-1.2173507620684758,-1.6489422867124635,2.14536496159357,-2.067219001676005,-1.570796326794895,0.3534455647264183,0.34120093220757475,0.2689917277358393,0.3
1.7800000000000014,-1.2167132138357344,-1.6445173231565136,2.1413539440000116,-2.067632947638397,-1.5707963267948952,0.3540831129591597,0.34274132246374933,0.26982099782835484,0.3
1.7900000000000014,-1.2161260270937437,-1.6400722507104735,2.137300539818077,-2.068024615902502,-1.5707963267948952,0.3546702997011506,0.3443065455707268,0.2706396159182954,0.3
1.8000000000000014,-1.2155885004718272,-1.6356076215856936,2.1332049052430158,-2.068393610452221,-1.5707963267948952,0.355207826323067,0.34589635436127797,0.27144754968733964,0.3
1.8100000000000014,-1.2150999275359333,-1.6311239781599913,2.1290671988456804,-2.068739547480588,-1.5707963267948954,0.35569639925896135,0.34751049778581355,0.272244767238954,0.3
1.8200000000000014,-1.2146595974453884,-1.6266218533050816,2.1248875818263446,-2.0690620553161625,-1.5707963267948954,0.3561367293495061,0.3491487209520283,0.27303123709965266,0.3
1.8300000000000014,-1.214266795590258,-1.6221017707113543,2.120666218267601,-2.0693607743511455,-1.5707963267948952,0.3565295312046369,0.3508107651651513,0.2738069282202393,0.3
1.8400000000000014,-1.213920804209374,-1.6175642452095964,2.1164032753861006,-2.0696353569714034,-1.570796326794895,0.35687552258552063,0.35249636796879674,0.27457180997703373,0.3
1.8500000000000014,-1.2136209029891203,-1.6130097830892591,2.1120989237829275,-2.0698854674885676,-1.5707963267948954,0.35717542380577455,0.3542052631864091,0.27532585217308053,0.3
1.8600000000000014,-1.2133663696430976,-1.608438882412954,2.107753337692365,-2.0701107820743108,-1.5707963267948954,0.35742995715179693,0.3559371809632953,0.27606902503934144,0.3
1.8700000000000014,-1.2131564804728083,-1.6038520333268573,2.1033666952288725,-2.0703109886969147,-1.5707963267948957,0.3576398463220863,0.35769184780923813,0.276801299235871,0.3
1.8800000000000014,-1.212990510909522,-1.5992497183667644,2.0989391786320577,-2.0704857870601927,-1.5707963267948954,0.35780581588537286,0.3594689866416833,0.2775226458529743,0.3
1.8900000000000015,-1.2128677360375117,-1.5946324127595628,2.094470974509459,-2.070634888544796,-1.5707963267948954,0.3579285907573831,0.3612683168294941,0.27823303641234887,0.3
1.9000000000000015,-1.2127874310988551,-1.590000584719917,2.0899622740769583,-2.0707580161519408,-1.5707963267948957,0.3580088956960402,0.3630895542372662,0.2789324428682091,0.3
1.9100000000000015,-1.2127488719800186,-1.585354695741999,2.0854132733966475,-2.0708549044495483,-1.5707963267948954,0.35804745481487615,0.36493241127019643,0.27962083760839357,0.3
1.9200000000000015,-1.2127513356804678,-1.5806952008861235,2.080824173611996,-2.0709252995207725,-1.5707963267948957,0.3580449911144273,0.3667965969194966,0.28029819345545465,0.3
1.9300000000000015,-1.2127941007635328,-1.5760225490601636,2.0761951811801547,-2.070968958914891,-1.5707963267948954,0.3580022260313621,0.3686818168083478,0.2809644836677325,0.3
1.9400000000000015,-1.212876447789804,-1.5713371832956726,2.071526508101264,-2.070985651600492,-1.5707963267948954,0.35791987900509137,0.3705877732383855,0.28161968194041037,0.3
1.9500000000000015,-1.2129976597333139,-1.5666395410186298,2.06681837214463,-2.0709751579209,-1.5707963267948954,0.35779866706158103,0.37251416523670966,0.28226376240655304,0.3
1.9600000000000015,-1.2131570223807973,-1.5619300543147734,2.062070997071646,-2.0709372695517727,-1.5707963267948957,0.3576393044140981,0.3744606886034125,0.28289669963812863,0.3
1.9700000000000015,-1.213353824714301,-1.5572091501894993,2.0572846128553466,-2.070871789460748,-1.5707963267948957,0.35744250208059397,0.37642703595961385,0.283518468647012,0.3
1.9800000000000015,-1.213587359277461,-1.552477250822318,2.0524594558964986,-2.070778531869081,-1.5707963267948957,0.35720896751743403,0.3784128967960013,0.2841290448859722,0.3
1.9900000000000015,-1.2138569225257207,-1.5477347738158709,2.0475957692361244,-2.0706573222151543,-1.5707963267948954,0.35693940426917425,0.3804179575218622,0.2847284042496406,0.3
2.0000000000000013,-1.2141618151608278,-1.542982132439568,2.0426938027644,-2.0705079971197327,-1.5707963267948957,0.3566345116340671,0.38244190151460394,0.2853165230754636,0.3
2.010000000000001,-1.2145013424498987,-1.5382197358678484,2.0377538134258244,-2.0703304043528763,-1.5707963267948957,0.3562949843449964,0.3844844091697518,0.28589337814463656,0.3
2.020000000000001,-1.2148748145293824,-1.5334479894131527,2.0327760654206273,-2.0701244028023758,-1.5707963267948957,0.35592151226551266,0.38654515795141864,0.28645894668302063,0.3
2.0300000000000007,-1.2152815466942344,-1.528667294753667,2.0277608304023507,-2.069889862443585,-1.5707963267948954,0.355514780100661,0.3886238224432368,0.2870132063620416,0.3
2.0400000000000005,-1.2157208596726345,-1.5238780501559168,2.022708387671563,-2.0696266643105474,-1.5707963267948957,0.3550754671222608,0.3907200743997453,0.28755613529957225,0.3
2.0500000000000003,-1.2161920798865617,-1.5190806506923018,2.0176190243656786,-2.0693347004682785,-1.5707963267948954,0.35460424690833353,0.3928335827982236,0.2880877120607959,0.3
2.06,-1.2166945396985633,-1.5142754884536822,2.012493035644855,-2.069013873986074,-1.5707963267948954,0.3541017870963319,0.39496401389096353,0.28860791565905247,0.3
2.07,-1.2172275776450399,-1.5094629527571068,2.00733072487396,-2.0686640989117544,-1.570796326794896,0.35356874914985553,0.39711103125797276,0.28911672555666834,0.3
2.0799999999999996,-1.2177905386563788,-1.5046434303488125,2.0021324038005948,-2.0682853002466834,-1.5707963267948954,0.35300578813851674,0.3992742958600985,0.2896141216657654,0.3
2.0899999999999994,-1.2183827742642614,-1.4998173056026125,1.9968983927291972,-2.067877413921486,-1.5707963267948957,0.3524135525306338,0.4014534660925664,0.2901000843490562,0.3
2.099999999999999,-1.2190036427964763,-1.4949849607137915,1.9916290206912073,-2.0674403867723172,-1.5707963267948957,0.3517926839984191,0.4036481978389236,0.2905745944206181,0.3
2.109999999999999,-1.2196525095595607,-1.4901467758886484,1.9863246256113483,-2.0669741765176015,-1.5707963267948957,0.35114381723533467,0.40585814452537883,0.2910376331466511,0.3
2.1199999999999988,-1.2203287470096038,-1.485303129529809,1.9809855544700254,-2.0664787517351186,-1.5707963267948957,0.3504675797852914,0.4080829571755303,0.2914891822462178,0.3
2.1299999999999986,-1.2210317349115274,-1.480454398417459,1.9756121634619,-2.065954091839343,-1.5707963267948957,0.349764591883368,0.41032228446547325,0.2919292238919649,0.3
2.1399999999999983,-1.2217608604871764,-1.4756009578866178,1.9702048181506617,-2.065400187058946,-1.5707963267948954,0.34903546630771903,0.41257577277927804,0.2923577407108278,0.3
2.149999999999998,-1.222515518552536,-1.4707431820006067,1.9647638936200642,-2.0648170384143603,-1.5707963267948957,0.34828080824235924,0.41484306626483036,0.29277471578471564,0.3
2.159999999999998,-1.2232951116443929,-1.4658814437208458,1.9592897746212798,-2.064204657695336,-1.5707963267948957,0.3475012151505025,0.4171238068900241,0.2931801326511803,0.3
2.1699999999999977,-1.2240990501367575,-1.4610161150731216,1.9537828557166204,-2.0635630674384013,-1.5707963267948957,0.3466972766581381,0.419417634499299,0.2935739753040658,0.3
2.1799999999999975,-1.224926752347363,-1.4561475673104496,1.948243541419708,-2.062892300904161,-1.5707963267948954,0.34586957444753247,0.42172418687051333,0.29395622819414075,0.3
2.1899999999999973,-1.2257776446345494,-1.4512761710727127,1.9426722463321693,-2.062192402054359,-1.5707963267948954,0.3450186821603461,0.42404309977214294,0.29432687622971215,0.3
2.199999999999997,-1.2266511614848374,-1.446402296543152,1.9370693952769154,-2.061463425528666,-1.5707963267948957,0.34414516531005795,0.4263740070207977,0.29468590477722134,0.3
2.209999999999997,-1.2275467455914988,-1.4415263136019,1.9314354234281075,-2.0607054366211104,-1.5707963267948957,0.3432495812033966,0.42871654053904623,0.29503329966182207,0.3
2.2199999999999966,-1.2284638479244208,-1.4366485919766552,1.9257707764378773,-2.0599185112561256,-1.5707963267948954,0.34233247887047485,0.4310703304135394,0.29536904716794,0.3
2.2299999999999964,-1.2294019277915609,-1.431769501390646,1.920075910559913,-2.0591027359641703,-1.5707963267948954,0.34139439900333424,0.43343500495342374,0.29569313403981456,0.3
2.239999999999996,-1.230360452892286,-1.4268894117080062,1.9143512927699802,-2.0582582078568774,-1.5707963267948954,0.34043587390260904,0.4358101907490365,0.2960055474820223,0.3
2.249999999999996,-1.231338899362879,-1.4220086930766778,1.9085974008834867,-2.057385034601712,-1.5707963267948957,0.3394574274320162,0.43819551273087054,0.2963062751599821,0.3
2.259999999999996,-1.2323367518145005,-1.4171277160689817,1.9028147236701882,-2.05648333439611,-1.5707963267948957,0.3384595749803948,0.44059059422880253,0.2965953052004425,0.3
2.2699999999999956,-1.233353503363882,-1.4122468518199531,1.8970037609661294,-2.05555323594108,-1.5707963267948954,0.33744282343101334,0.44299505703157355,0.29687262619195054,0.3
2.2799999999999954,-1.2343886556570296,-1.4073664721635701,1.8911650237829185,-2.0545948784142523,-1.5707963267948952,0.3364076711378655,0.445408521446513,0.2971382271853022,0.3
2.289999999999995,-1.2354417188862004,-1.4024869497669676,1.88529903441444,-2.053608411442376,-1.5707963267948957,0.33535460790869515,0.44783060635949656,0.2973920976939751,0.3
2.299999999999995,-1.2365122118004266,-1.397608658262763,1.8794063265411058,-2.052593995073247,-1.5707963267948957,0.33428411499446864,0.45026092929512807,0.29763422769454273,0.3
2.3099999999999947,-1.237599661709839,-1.3927319723795712,1.8734874453317474,-2.0515517997470805,-1.5707963267948952,0.3331966650850562,0.45269910647713785,0.2978646076270699,0.3
2.3199999999999945,-1.2387036044840556,-1.3878572680708194,1.8675429475432372,-2.0504820062673224,-1.5707963267948952,0.33209272231083947,0.45514475288898404,0.29808322839549073,0.3
2.3299999999999943,-1.2398235845448717,-1.3829849226419426,1.8615734016179522,-2.049384805770915,-1.5707963267948954,0.33097274225002377,0.4575974823346524,0.2982900813679676,0.3
2.339999999999994,-1.240959154853517,-1.3781153148760525,1.8555793877791715,-2.0482603996980244,-1.5707963267948954,0.3298371719413783,0.4600569074996406,0.29848515837723233,0.3
2.349999999999994,-1.2421098768927028,-1.3732488251581476,1.8495614981244923,-2.04710899976125,-1.5707963267948954,0.32868644990219226,0.4625226400121196,0.2986684517209088,0.3
2.3599999999999937,-1.2432753206437068,-1.36838583559796,1.8435203367173723,-2.0459308279143174,-1.5707963267948957,0.3275210061511884,0.4649942905042624,0.2988399541618169,0.3
2.3699999999999934,-1.2444550645587216,-1.3635267301514786,1.837456519676872,-2.0447261163202994,-1.5707963267948954,0.32634126223617366,0.4674714686737291,0.2989996589282587,0.3
2.3799999999999932,-1.2456486955286925,-1.3586718947412422,1.8313706752656953,-2.043495107319359,-1.5707963267948952,0.325147631266203,0.46995378334530125,0.2991475597142858,0.3
2.389999999999993,-1.2468558088468713,-1.3538217173754397,1.8252634439765913,-2.042238053396057,-1.5707963267948957,0.3239405179480238,0.4724408425326517,0.29928365067994867,0.3
2.399999999999993,-1.2480760081682916,-1.3489765882658777,1.819135478617208,-2.0409552171462373,-1.5707963267948952,0.3227203186266037,0.4749322535002448,0.29940792645152686,0.3
2.4099999999999926,-1.2493089054653885,-1.34413689994487,1.8129874443934717,-2.0396468712435083,-1.5707963267948952,0.32148742132950664,0.47742762282535334,0.299520382121742,0.3
2.4199999999999924,-1.2505541209799564,-1.3393030473810652,1.8068200189915242,-2.0383132984053653,-1.5707963267948952,0.3202422058149387,0.4799265564601847,0.2996210132499512,0.3
2.429999999999992,-1.2518112831716528,-1.3344754280942817,1.8006338926583245,-2.03695479135895,-1.570796326794895,0.3189850436232423,0.48242865979410576,0.2997098158623227,0.3
2.439999999999992,-1.2530800286632433,-1.329654442269349,1.7944297682809263,-2.0355716528064844,-1.5707963267948954,0.317716298131652,0.4849335377159558,0.299786786451993,0.3
2.4499999999999917,-1.2543600021827719,-1.3248404928689996,1.7882083614644968,-2.0341641953904044,-1.5707963267948954,0.31643632461212334,0.48744079467644047,0.2998519219792052,0.3
2.4599999999999915,-1.2556508565028484,-1.3200339857458077,1.781970400609097,-2.0327327416581973,-1.5707963267948954,0.31514547029204665,0.489950034750592,0.2999052198714295,0.3
2.4699999999999913,-1.25695225237723,-1.315235329753213,1.7757166269852802,-2.0312776240269748,-1.570796326794895,0.31384407441766504,0.4924608617002916,0.2999466780234648,0.3
2.479999999999991,-1.25826385847487,-1.310444936855602,1.7694477948084808,-2.029799184747787,-1.570796326794895,0.3125324683200255,0.4949728790368394,0.2999762947975221,0.3
2.489999999999991,-1.2595853513116075,-1.305663222237477,1.7631646713122608,-2.028297775869692,-1.5707963267948952,0.3112109754832879,0.4974856900835649,0.2999940690232889,0.3
2.4999999999999907,-1.2609164151796626,-1.3008906044116755,1.7568680368203622,-2.0267737592035955,-1.5707963267948954,0.3098799116152327,0.49999889803846664,0.2999999999979761,0.3
2.5099999999999905,-1.2622567420750914,-1.2961275053266426,1.7505586848175803,-2.0252275062858462,-1.570796326794895,0.3085395847198035,0.5025121060368718,0.29999408748634565,0.3
2.5199999999999902,-1.2636060316233648,-1.2913743504727373,1.7442374220194423,-2.0236593983416142,-1.5707963267948948,0.3071902951715301,0.5050249172141064,0.29997633172072014,0.3
2.52999999999999,-1.2649639910032142,-1.286631568987522,1.73790506844063,-2.0220698262480177,-1.570796326794895,0.305832335791681,0.5075369347681633,0.29994673340097344,0.3
2.53999999999999,-1.266330334868893,-1.2818995937600342,1.7315624574621384,-2.0204591904970144,-1.570796326794895,0.30446599192600216,0.5100477620223638,0.299905293694504,0.3
2.5499999999999896,-1.2677047852709948,-1.2771788615339605,1.725210435897074,-2.0188279011580237,-1.5707963267948948,0.3030915415239001,0.5125570024879957,0.299852014236188,0.3
2.5599999999999894,-1.2690870715759641,-1.272469813009699,1.7188498640550558,-2.0171763778402676,-1.570796326794895,0.3017092552189308,0.5150642599269251,0.2997868971283157,0.3
2.569999999999989,-1.2704769303844263,-1.2677728929452239,1.71248161580511,-2.0155050496547973,-1.5707963267948948,0.30031939641046845,0.5175691384141652,0.29970994494050823,0.3
2.579999999999989,-1.2718741054484752,-1.2630885502557063,1.7061065786369682,-2.0138143551761734,-1.570796326794895,0.2989222213464196,0.5200712424003989,0.29962116070961664,0.3
2.5899999999999888,-1.2732783475880283,-1.2584172381118182,1.6997256537206624,-2.012104742403756,-1.570796326794895,0.2975179792068667,0.5225701767744405,0.29952054793960176,0.3
2.5999999999999885,-1.2746894146063734,-1.2537594140366257,1.69333975596427,-2.0103766687225564,-1.570796326794895,0.29610691218852137,0.5250655469256272,0.2994081106013963,0.3
2.6099999999999883,-1.2761070712050249,-1.249115540001008,1.686949814069682,-2.0086306008635866,-1.5707963267948948,0.29468925558987,0.5275569588061338,0.2992838531327484,0.3
2.619999999999988,-1.2775310888979874,-1.2444860825174853,1.6805567705862257,-2.0068670148636536,-1.5707963267948948,0.2932652378969076,0.5300440189931973,0.29914778043804635,0.3
2.629999999999988,-1.2789612459255444,-1.239871512732361,1.6741615819619524,-2.005086396024505,-1.5707963267948943,0.2918350808693505,0.5325263347512423,0.2989998978881251,0.3
2.6399999999999877,-1.2803973271676659,-1.2352723065160696,1.667765218592412,-2.003289238871256,-1.5707963267948943,0.2903989996272291,0.535003514093899,0.29884021132005456,0.3
2.6499999999999875,-1.2818391240571325,-1.2306889445516087,1.6613686648666943,-2.00147604711,-1.5707963267948946,0.28895720273776215,0.5374751658459022,0.29866872703690955,0.3
2.6599999999999873,-1.283286434492474,-1.2261219124209186,1.654972919210496,-1.9996473335844924,-1.5707963267948946,0.2875098923024206,0.5399408997048628,0.2984854518075205,0.3
2.669999999999987,-1.2847390627508057,-1.2215717006890783,1.6485789941259676,-1.997803620231805,-1.5707963267948946,0.28605726404408943,0.5424003263029005,0.2982903928662072,0.3
2.679999999999987,-1.28619681940065,-1.2170388049861702,1.6421879162280686,-1.9959454380368142,-1.5707963267948948,0.2845995073942448,0.5448530572681295,0.2980835579124926,0.3
2.6899999999999866,-1.2876595212148303,-1.2125237260866621,1.6358007262771432,-1.9940733269853976,-1.5707963267948943,0.28313680558006443,0.5472987052859875,0.29786495511079947,0.3
2.6999999999999864,-1.2891269910835057,-1.208026969986125,1.6294184792073931,-1.9921878360161849,-1.5707963267948943,0.28166933571138913,0.5497368841603969,0.29763459309012824,0.3
2.709999999999986,-1.29059905792743,-1.2035490479751305,1.6230422441509218,-1.9902895229707085,-1.5707963267948946,0.2801972688674646,0.5521672088747492,0.29739248094371645,0.3
2.719999999999986,-1.2920755566115019,-1.1990904767101283,1.6166731044569944,-1.9883789545417843,-1.5707963267948943,0.27872077018339264,0.5545892956527042,0.29713862822867965,0.3
2.7299999999999858,-1.2935563278586735,-1.1946517782811177,1.6103121577061346,-1.9864567062199354,-1.5707963267948946,0.277239998936221,0.5570027620187925,0.29687304496563477,0.3
2.7399999999999856,-1.2950412181642865,-1.1902334802759043,1.6039605157186554,-1.98452336223767,-1.5707963267948941,0.275755108630608,0.5594072268588125,0.2965957416383044,0.3
2.7499999999999853,-1.2965300797108914,-1.1858361158407285,1.5976193045572158,-1.9825795155114068,-1.570796326794894,0.274266247084003,0.5618023104800131,0.29630672919310297,0.3
2.759999999999985,-1.298022770283613,-1.1814602237370304,1.5912896645229306,-1.9806257675808203,-1.5707963267948941,0.2727735565112815,0.5641876346710516,0.296006019038705,0.3
2.769999999999985,-1.2995191531861148,-1.1771063483941395,1.5849727501446051,-1.9786627285453864,-1.570796326794894,0.27127717360878006,0.5665628227617175,0.2956936230455949,0.3
2.7799999999999847,-1.3010190971572142,-1.172775039957607,1.5786697301605501,-1.9766910169978642,-1.570796326794894,0.26977722963768,0.5689274996824133,0.29536955354559835,0.3
2.7899999999999845,-1.3025224762882042,-1.1684668543329635,1.5723817874925292,-1.9747112599544876,-1.570796326794894,0.26827385050669006,0.5712812920233817,0.29503382333139544,0.3
2.7999999999999843,-1.3040291699409168,-1.1641823532245974,1.5661101192112281,-1.9727240927815535,-1.5707963267948937,0.2667671568539778,0.5736238280936725,0.29468644565601626,0.3
2.809999999999984,-1.3055390626665846,-1.1599221041695038,1.5598559364927371,-1.9707301591181567,-1.5707963267948937,0.26525726412831,0.5759547379798354,0.2943274342323175,0.3
2.819999999999984,-1.307052044125533,-1.155686680565596,1.5536204645654303,-1.9687301107947583,-1.5707963267948937,0.26374428266936134,0.578273653604335,0.29395680323244155,0.3
2.8299999999999836,-1.3085680090077487,-1.1514766616942955,1.5474049426466485,-1.9667246077472778,-1.5707963267948937,0.2622283177871456,0.5805802087836736,0.29357456728725695,0.3
2.8399999999999834,-1.3100868569543556,-1.1472926327370783,1.5412106238685435,-1.9647143179263904,-1.5707963267948937,0.26070946984053894,0.5828740392862163,0.2931807414857806,0.3
2.849999999999983,-1.3116084924800355,-1.143135184785667,1.5350387751924282,-1.9626999172016877,-1.5707963267948937,0.2591878343148588,0.5851547828897071,0.2927753413745831,0.3
2.859999999999983,-1.313132824896427,-1.1390049148455286,1.5288906773109554,-1.960682089260354,-1.5707963267948934,0.2576635018984674,0.5874220794384682,0.2923583829571745,0.3
2.869999999999983,-1.3146597682365273,-1.134902425832356,1.5227676245374389,-1.958661525500011,-1.5707963267948934,0.25613655855836687,0.5896755709002726,0.29192988269337283,0.3
2.8799999999999826,-1.3161892411801313,-1.130828326561161,1.5166709246815582,-1.9566389249153253,-1.5707963267948932,0.25460708561476253,0.5919149014228816,0.29148985749865436,0.3
2.8899999999999824,-1.3177211669803277,-1.1267832317276407,1.5106018989107526,-1.9546149939780408,-1.5707963267948934,0.2530751598145663,0.594139717390238,0.2910383247434863,0.3
2.899999999999982,-1.31925547339108,-1.1227677618814451,1.5045618815965103,-1.9525904465099955,-1.570796326794893,0.25154085340381427,0.5963496674783059,0.29057530225264067,0.3
2.909999999999982,-1.3207920925959113,-1.118782543390961,1.4985522201447818,-1.950566003548752,-1.5707963267948932,0.25000423419898293,0.5985444027105495,0.2901008083044914,0.3
2.9199999999999817,-1.3223309611377183,-1.1148282083992462,1.4925742748097237,-1.9485423932054091,-1.5707963267948928,0.24846536565717559,0.6007235765130399,0.2896148616302921,0.3
2.9299999999999815,-1.3238720198497245,-1.1109053947707235,1.486629418489972,-1.9465203505141808,-1.5707963267948932,0.2469243069451695,0.6028868447691832,0.2891174814134375,0.3
2.9399999999999813,-1.3254152137875972,-1.1070147460282203,1.4807190365065857,-1.9445006172732993,-1.5707963267948926,0.24538111300729684,0.6050338658740606,0.28860868728870587,0.3
2.949999999999981,-1.3269604921627391,-1.103156911279986,1.4748445263618717,-1.94248394187682,-1.5707963267948926,0.24383583463215494,0.6071643007883722,0.28808849934148395,0.3
2.959999999999981,-1.3285078082767692,-1.0993325451362588,1.4690072974782011,-1.9404710791368776,-1.5707963267948928,0.24228851851812444,0.6092778130919745,0.28755693810697436,0.3
2.9699999999999807,-1.3300571194572077,-1.095542307614988,1.4632087709159909,-1.9384627900959392,-1.5707963267948926,0.24073920733768647,0.6113740690370051,0.2870140245693852,0.3
2.9799999999999804,-1.3316083869943673,-1.0917868640362969,1.4574503790699747,-1.9364598418286145,-1.5707963267948928,0.23918793980052683,0.6134527376005862,0.28645978016110124,0.3
2.9899999999999802,-1.333161576079474,-1.0880668849052886,1.4517335653429129,-1.9344630072325626,-1.5707963267948923,0.23763475071542,0.6155134905370959,0.2858942267618384,0.3
2.99999999999998,-1.334716655744013,-1.0843830457827723,1.446059783795875,-1.9324730648080415,-1.5707963267948923,0.23607967105088068,0.6175560024300027,0.28531738669778,0.3
3.00999999999998,-1.3362735988003116,-1.0807360271435245,1.4404304987742496,-1.930490798425665,-1.5707963267948921,0.23452272799458218,0.6195799507432519,0.2847292827406957,0.3
3.0199999999999796,-1.3378323817833653,-1.0771265142216604,1.4348471845086053,-1.928516997081885,-1.5707963267948923,0.23296394501152817,0.6215850158721985,0.2841299381070421,0.3
3.0299999999999794,-1.339392984893915,-1.0735551968427497,1.4293113246896043,-1.9265524546417965,-1.5707963267948921,0.23140334190097858,0.6235708811940759,0.28351937645704683,0.3
3.039999999999979,-1.3409553919427692,-1.0700227692422617,1.423824412016118,-1.9245979695687996,-1.5707963267948921,0.22984093485212417,0.6255372331179945,0.28289762189377443,0.3
3.049999999999979,-1.3425195902963831,-1.0665299298699837,1.418387947715746,-1.9226543446407056,-1.5707963267948921,0.22827673649851055,0.6274837611344611,0.28226469896217515,0.3
3.0599999999999787,-1.3440855708236934,-1.0630773811800454,1.413003441036985,-1.9207223866518839,-1.570796326794892,0.22671075597120036,0.6294101578644127,0.2816206326481158,0.3
3.0699999999999785,-1.345653327844209,-1.0596658294061827,1.4076724087122576,-1.9188029061010208,-1.5707963267948917,0.225142998950684,0.6313161191077543,0.28096544837739335,0.3
3.0799999999999783,-1.3472228590773592,-1.0562959843219344,1.4023963743911325,-1.9168967168641449,-1.570796326794892,0.2235734677175343,0.6332013438913957,0.2802991720147322,0.3
3.089999999999978,-1.3487941655930928,-1.0529685589854367,1.3971768680430203,-1.915004635852531,-1.5707963267948917,0.22200216120180066,0.6350655345167795,0.27962182986276185,0.3
3.099999999999978,-1.3503672517637377,-1.0496842694685282,1.39201542532874,-1.91312748265516,-1.5707963267948917,0.22042907503115577,0.6369083966068901,0.2789334486609798,0.3
3.1099999999999777,-1.3519421252171064,-1.0464438345699114,1.3869135869403755,-1.911266079165413,-1.5707963267948915,0.21885420157778712,0.63872963915274,0.2782340555846955,0.3
3.1199999999999775,-1.3535187967908555,-1.043247975512114,1.3818728979088848,-1.9094212491917206,-1.5707963267948917,0.21727753000403818,0.6405289745593226,0.2775236782439578,0.3
3.1299999999999772,-1.3550972804880845,-1.0400974156220466,1.3768949068790113,-1.9075938180519154,-1.5707963267948915,0.21569904630680872,0.6423061186910279,0.2768023446824649,0.3
3.139999999999977,-1.356677593434182,-1.0369928799949917,1.3719811653511171,-1.9057846121510769,-1.5707963267948915,0.21411873336071152,0.6440607909165101,0.27607008337645755,0.3
3.149999999999977,-1.358259755834902,-1.0339350951418682,1.3671332268895986,-1.9039944585426827,-1.5707963267948912,0.2125365709599913,0.6457927141530024,0.2753269232335951,0.3
3.1599999999999766,-1.3598437909356769,-1.0309247886196913,1.3623526462976803,-1.9022241844729417,-1.570796326794891,0.21095253585921642,0.6475016149100719,0.27457289359181397,0.3
3.1699999999999764,-1.3614297249821523,-1.027962688645147,1.3576409787584076,-1.9004746169082143,-1.570796326794891,0.20936660181274125,0.649187223332807,0.2738080242181699,0.3
3.179999999999976,-1.3630175871819425,-1.0250495236912993,1.3529997789418298,-1.8987465820454852,-1.5707963267948912,0.20777873961295068,0.6508492732444303,0.27303234530766274,0.3
3.189999999999976,-1.3646074096675997,-1.0221860220674472,1.3484306000783897,-1.8970409048058972,-1.570796326794891,0.20618891712729384,0.652487502188331,0.27224588748204487,0.3
3.1999999999999758,-1.3661992274607855,-1.0193729114822363,1.3439349929987072,-1.8953584083114263,-1.570796326794891,0.20459709933410802,0.6541016514695103,0.27144868178861165,0.3
3.2099999999999755,-1.3677930784376462,-1.0166109185901573,1.3395145051400128,-1.8936999133448118,-1.570796326794891,0.2030032483572473,0.6556914661954314,0.2706407596989768,0.3
3.2199999999999753,-1.369389003295375,-1.0139007685216597,1.3351706795196499,-1.8920662377929462,-1.570796326794891,0.20140732349951831,0.6572566953162711,0.26982215310782937,0.3
3.229999999999975,-1.3709870455199586,-1.0112431843971112,1.330905053676132,-1.8904581960739777,-1.570796326794891,0.199809281274935,0.6587970916645624,0.268992894331675,0.3
3.239999999999975,-1.372587251355099,-1.0086388868249776,1.3267191585784703,-1.8888765985484501,-1.5707963267948906,0.1982090754397945,0.6603124119942259,0.2681530161075601,0.3
3.2499999999999747,-1.3741896697723004,-1.006088593384576,1.3226145175045014,-1.8873222509148828,-1.5707963267948908,0.19660665702259278,0.6618024170189807,0.26730255159177974,0.3
3.2599999999999745,-1.3757943524421163,-1.0035930180938943,1.3185926448891918,-1.8857959535902555,-1.5707963267948908,0.19500197435277733,0.6632668714501306,0.2664415343585685,0.3
3.2699999999999743,-1.3774013537065422,-1.0011528708630066,1.3146550451440093,-1.8842985010759603,-1.5707963267948908,0.19339497308835157,0.6647055440337195,0.2655699983987753,0.3
3.279999999999974,-1.3790107305525505,-0.998768856933686,1.3108032114485602,-1.8828306813098319,-1.5707963267948908,0.19178559624234287,0.6661182075870475,0.2646879781185218,0.3
3.289999999999974,-1.3806225425867553,-0.9964416763059069,1.30703862451592,-1.8813932750049713,-1.5707963267948908,0.19017378420813794,0.6675046390345474,0.2637955083378437,0.3
3.2999999999999736,-1.382236852011197,-0.994172023151989,1.303362751333188,-1.8799870549761566,-1.5707963267948908,0.18855947478369664,0.6688646194430095,0.2628926242893169,0.3
3.3099999999999734,-1.3838537236002393,-0.9919605852192194,1.2997770438789629,-1.8786127854547012,-1.5707963267948908,0.18694260319465403,0.670197934056155,0.2619793616166658,0.3
3.319999999999973,-1.3854732246785706,-0.9898080432218691,1.2962829378196363,-1.8772712213927247,-1.570796326794891,0.18532310211632286,0.6715043723285474,0.26105575637335704,0.3
3.329999999999973,-1.387095425100291,-0.9877150702235782,1.2928818511864848,-1.8759631077578633,-1.5707963267948908,0.18370090169460235,0.6727837279588407,0.26012184502117564,0.3
3.3399999999999728,-1.3887203972290902,-0.9856823310111928,1.2895751830357878,-1.8746891788195512,-1.570796326794891,0.18207592956580354,0.6740357989223562,0.25917766442878637,0.3
3.3499999999999726,-1.3903482159194887,-0.9837104814611723,1.2863643120942774,-1.8734501574280609,-1.5707963267948912,0.18044811087540527,0.6752603875029851,0.2582232518702775,0.3
3.3599999999999723,-1.391978958499148,-0.9818001678997974,1.283250595392433,-1.8722467542875905,-1.5707963267948912,0.17881736829574588,0.6764573003244101,0.25725864502368984,0.3
3.369999999999972,-1.3936127047522306,-0.9799520264584501,1.2802353668882578,-1.8710796672247614,-1.5707963267948912,0.17718362204266289,0.6776263483806408,0.2562838819695296,0.3
3.379999999999972,-1.3952495369038025,-0.9781666824253266,1.2773199360843173,-1.869949580453944,-1.5707963267948912,0.17554678989109157,0.6787673470658616,0.2552990011892642,0.3
3.3899999999999717,-1.396889539605264,-0.9764447495949935,1.2745055866409698,-1.8688571638409286,-1.5707963267948915,0.17390678718962976,0.6798801162035812,0.25430404156380426,0.3
3.3999999999999715,-1.3985327999208093,-0.9747868296172797,1.2717935749888407,-1.8678030721665124,-1.5707963267948915,0.1722635268740847,0.6809644800750866,0.253299042371968,0.3
3.4099999999999713,-1.4001794073148914,-0.9731935113470256,1.2691851289437022,-1.8667879443916269,-1.5707963267948915,0.17061691948000296,0.6820202674471887,0.25228404328893095,0.3
3.419999999999971,-1.40182945364069,-0.9716653701963018,1.266681446327066,-1.8658124029257128,-1.570796326794892,0.1689668731542045,0.6830473115992645,0.25125908438465966,0.3
3.429999999999971,-1.403483033129572,-0.9702029674907057,1.2642836935958237,-1.8648770529000653,-1.5707963267948917,0.16731329366532244,0.6840454503495819,0.2502242061223299,0.3
3.4399999999999706,-1.4051402423815311,-0.9688068498314504,1.2619930044844687,-1.8639824814479642,-1.5707963267948921,0.16565608441336307,0.685014526080912,0.2491794493567293,0.3
3.4499999999999704,-1.406801180356597,-0.9674775484649175,1.2598104786633526,-1.8631292569933788,-1.5707963267948921,0.1639951464382972,0.6859543857654171,0.24812485533264433,0.3
3.45999999999997,-1.4084659483672064,-0.9662155786614565,1.2577371804166577,-1.8623179285501439,-1.5707963267948921,0.16233037842768835,0.6868648809888169,0.24706046568323267,0.3
3.46999999999997,-1.4101346500715215,-0.9650214391051503,1.2557741373436535,-1.8615490250334432,-1.5707963267948923,0.16066167672337286,0.6877458679738239,0.24598632242837878,0.3
3.47999999999997,-1.4118073914676923,-0.9638956112963492,1.2539223390869456,-1.8608230545855347,-1.5707963267948928,0.15898893532720204,0.6885972076028475,0.24490246797303608,0.3
3.4899999999999696,-1.4134842808890424,-0.962838558968725,1.252182736091351,-1.8601405039175618,-1.570796326794893,0.1573120459058524,0.6894187654399628,0.2438089451055522,0.3
3.4999999999999694,-1.4151654290001747,-0.9618507275226295,1.2505562383970832,-1.8595018376693875,-1.5707963267948932,0.1556308977947202,0.6902104117521394,0.24270579699598008,0.3
3.509999999999969,-1.4168509487939913,-0.9609325434765009,1.2490437144708673,-1.8589074977892983,-1.570796326794893,0.15394537800090347,0.6909720215297273,0.2415930671943739,0.3
3.519999999999969,-1.418540955589603,-0.9600844139380434,1.2476459900785386,-1.8583579029354242,-1.5707963267948937,0.15225537120529237,0.6917034745061978,0.2404707996290696,0.3
3.5299999999999687,-1.4202355670311306,-0.9593067260968922,1.2463638472026801,-1.8578534479007143,-1.570796326794894,0.15056075976376448,0.692404655177135,0.2393390386049508,0.3
3.5399999999999685,-1.4219349030873858,-0.9585998467404008,1.2451980230086876,-1.8573945030632113,-1.570796326794894,0.14886142370750974,0.6930754528184749,0.23819782880169973,0.3
3.5499999999999683,-1.4236390860524115,-0.9579641217941557,1.2441492088625716,-1.8569814138633374,-1.5707963267948943,0.1471572407424844,0.6937157615039902,0.2370472152720337,0.3
3.559999999999968,-1.4253482405468867,-0.9573998758887625,1.2432180494037188,-1.8566145003098753,-1.5707963267948948,0.1454480862480089,0.6943254801220174,0.235887243439926,0.3
3.569999999999968,-1.427062493520371,-0.9569074119543608,1.2424051416756048,-1.85629405651616,-1.570796326794895,0.1437338332745247,0.6949045123914233,0.2347179590988132,0.3
3.5799999999999677,-1.4287819742543868,-0.9564870108442705,1.2417110343173814,-1.8560203502680248,-1.570796326794895,0.14201435254050893,0.6954527668768088,0.233539408409787,0.3
3.5899999999999674,-1.4305068143663253,-0.9561389309890457,1.2411362268189772,-1.8557936226248424,-1.5707963267948952,0.14028951242857085,0.6959701570029477,0.23235163789977234,0.3
3.5999999999999672,-1.4322371478141644,-0.9558634080821727,1.2406811688422712,-1.8556140875550062,-1.5707963267948954,0.13855917898073178,0.6964566010684582,0.2311546944596898,0.3
3.609999999999967,-1.4339731109019958,-0.955660654798481,1.240346259610557,-1.855481931606981,-1.5707963267948957,0.13682321589290058,0.696912022258704,0.22994862534260527,0.3
3.619999999999967,-1.4357148422863342,-0.9555308605462594,1.2401318473683618,-1.8553973136170048,-1.5707963267948961,0.1350814845085623,0.6973363486579243,0.22873347816186448,0.3
3.6299999999999666,-1.4374624829832159,-0.9554741912539801,1.240038228913475,-1.855360364454394,-1.5707963267948963,0.13333384381168079,0.6977295132605904,0.2275093008892127,0.3
3.6399999999999664,-1.4392161763760625,-0.9554907891923216,1.240065649202641,-1.8553711868052156,-1.5707963267948966,0.13158015041883425,0.6980914539819865,0.22627614185290146,0.3
3.649999999999966,-1.4409760682243042,-0.9555807728321608,1.2402143010322948,-1.8554298549950274,-1.5707963267948968,0.1298202585705927,0.6984221136680132,0.22503404973578067,0.3
3.659999999999966,-1.4427423066727514,-0.9557442367390008,1.2404843247953088,-1.8555364148511981,-1.5707963267948977,0.12805402012214567,0.6987214401042134,0.22378307357337654,0.3
3.6699999999999657,-1.4445150422616984,-0.9559812515041672,1.2408758083144549,-1.855690883605175,-1.5707963267948974,0.12628128453319867,0.6989893860240173,0.2225232627519556,0.3
3.6799999999999655,-1.446294427937755,-0.9562918637130301,1.241388786753111,-1.8558932498349656,-1.5707963267948977,0.12450189885714238,0.6992259091162057,0.22125466700657526,0.3
3.6899999999999653,-1.4480806190653845,-0.9566760959502774,1.2420232426032687,-1.8561434734478734,-1.5707963267948981,0.1227157077295126,0.6994309720315928,0.21997733641912068,0.3
3.699999999999965,-1.4498737734391467,-0.9571339468422148,1.2427791057508024,-1.856441485703467,-1.5707963267948983,0.12092255335575075,0.6996045423889224,0.21869132141632705,0.3
3.709999999999965,-1.4516740512966206,-0.9576653911358614,1.2436562536175206,-1.8567871892765353,-1.5707963267948986,0.1191222754982769,0.6997465927799827,0.21739667276778912,0.3
3.7199999999999647,-1.453481615332008,-0.9582703798145129,1.2446545113793315,-1.8571804583596923,-1.5707963267948986,0.11731471146288965,0.6998571007739334,0.21609344158395694,0.3
3.7299999999999645,-1.4552966307103936,-0.9589488402492861,1.2457736522595224,-1.8576211388051074,-1.5707963267948992,0.11549969608450422,0.699936048920848,0.2147816793141182,0.3
3.7399999999999642,-1.457119265082652,-0.9597006763860417,1.2470133978959068,-1.858109048304734,-1.5707963267948992,0.11367706171224565,0.6999834247544697,0.21346143774436682,0.3
3.749999999999964,-1.4589496886009927,-0.9605257689669524,1.2483734187803293,-1.8586439766082434,-1.5707963267948992,0.11184663819390507,0.6999992207941796,0.2121327689955586,0.3
3.759999999999964,-1.4607880739351196,-0.9614239757858298,1.2498533347687182,-1.8592256857777523,-1.5707963267948994,0.11000825285977851,0.6999834345461777,0.210795725521254,0.3
3.7699999999999636,-1.4626345962889964,-0.9623951319762706,1.2514527156597202,-1.8598539104783116,-1.5707963267948997,0.10816173050590162,0.6999360685038774,0.20945036010564688,0.3
3.7799999999999634,-1.464489433418206,-0.9634390503315009,1.2531710818396378,-1.8605283583029966,-1.5707963267949,0.10630689337669252,0.699857130147511,0.2080967258614807,0.3
3.789999999999963,-1.4663527656478779,-0.9645555216547367,1.255007904991213,-1.8612487101313342,-1.5707963267949,0.10444356114702079,0.6997466319429491,0.20673487622795203,0.3
3.799999999999963,-1.4682247758911788,-0.9657443151387677,1.256962608863604,-1.8620146205196926,-1.5707963267949003,0.10257155090371975,0.6996045913397314,0.20536486496860068,0.3
3.8099999999999627,-1.4701056496683444,-0.9670051787733974,1.2590345701007346,-1.8628257181221914,-1.5707963267949006,0.10069067712655441,0.6994310307683118,0.20398674616918708,0.3
3.8199999999999625,-1.471995575126232,-0.9683378397792544,1.2612231191249588,-1.8636816061405566,-1.5707963267949008,0.09880075166866692,0.6992259776365162,0.2026005742355571,0.3
3.8299999999999623,-1.4738947430583875,-0.9697420050664768,1.2635275410729625,-1.8645818628013364,-1.5707963267949008,0.09690158373651134,0.6989894643252138,0.20120640389149452,0.3
3.839999999999962,-1.4758033469255936,-0.9712173617166429,1.2659470767805452,-1.8655260418587516,-1.5707963267949008,0.09499297986930534,0.6987215281832051,0.19980429017656026,0.3
3.849999999999962,-1.477721582876893,-0.9727635774863372,1.268480923812974,-1.8665136731214842,-1.5707963267949012,0.09307474391800608,0.6984222115213226,0.19839428844391932,0.3
3.8599999999999617,-1.4796496497710603,-0.9743803013306418,1.2711282375373854,-1.8675442630015902,-1.570796326794901,0.09114667702383894,0.6980915616057506,0.1969764543581562,0.3
3.8699999999999615,-1.4815877491985006,-0.9760671639448169,1.2738881322336926,-1.8686172950837212,-1.5707963267949014,0.08920857759639844,0.6977296306505605,0.19555084389307678,0.3
3.8799999999999613,-1.4835360855035613,-0.9778237783224737,1.2767596822404663,-1.869732230712837,-1.5707963267949014,0.08726024129133779,0.6973364758094659,0.19411751332949853,0.3
3.889999999999961,-1.4854948658072251,-0.9796497403284002,1.2797419231320653,-1.8708885095985086,-1.5707963267949014,0.08530146098767416,0.6969121591667974,0.19267651925302876,0.3
3.899999999999961,-1.4874643000301675,-0.9815446292843378,1.2828338529234928,-1.872085550433998,-1.5707963267949014,0.08333202676473189,0.6964567477276986,0.19122791855183097,0.3
3.9099999999999606,-1.489444600916153,-0.9835080085658955,1.2860344332992704,-1.8733227515282171,-1.5707963267949017,0.08135172587874608,0.6959703134075452,0.18977176841437868,0.3
3.9199999999999604,-1.4914359840557454,-0.9855394262088586,1.2893425908627645,-1.8745994914487474,-1.5707963267949019,0.07936034273915396,0.6954529330205887,0.18830812632719734,0.3
3.92999999999996,-1.4934386679103016,-0.9876384155231364,1.2927572184023775,-1.8759151296740821,-1.5707963267949019,0.07735765888459777,0.6949046882678267,0.18683705007259566,0.3
3.93999999999996,-1.4954528738362292,-0.9898044957126549,1.2962771761711305,-1.8772690072533162,-1.5707963267949019,0.07534345295867027,0.694325665724101,0.18535859772638377,0.3
3.9499999999999598,-1.4974788261094731,-0.9920371724994789,1.299901293176153,-1.8786604474715138,-1.5707963267949019,0.07331750068542603,0.6937159568244267,0.1838728276555807,0.3
3.9599999999999596,-1.4995167519502033,-0.994335938750537,1.303628368474757,-1.8800887565190603,-1.5707963267949019,0.0712795748446963,0.6930756578495534,0.1823797985161098,0.3
3.9699999999999593,-1.5015668815476724,-0.9967002751053429,1.3074571724738235,-1.8815532241633208,-1.5707963267949019,0.0692294452472272,0.6924048699107611,0.18087956925048385,0.3
3.979999999999959,-1.5036294480852097,-0.9991296506031471,1.3113864482293442,-1.8830531244210376,-1.5707963267949019,0.06716687870969011,0.6917036989338943,0.17937219908547714,0.3
3.989999999999959,-1.5057046877653206,-1.0016235233080488,1.315414912743109,-1.8845877162299003,-1.570796326794902,0.0650916390295789,0.6909722556426341,0.17785774752978792,0.3
3.9999999999999587,-1.5077928398348508,-1.0041813409305917,1.3195412582535815,-1.8861562441178301,-1.570796326794902,0.063003486960049,0.6902106555410141,0.17633627437168842,0.3
4.009999999999959,-1.509894146610181,-1.0068025414445045,1.3237641535182538,-1.8877579388685903,-1.570796326794902,0.06090218018471885,0.6894190188951813,0.17480783967666538,0.3
4.019999999999959,-1.5120088535024134,-1.0094865536972402,1.3280822450847805,-1.8893920181823807,-1.5707963267949019,0.05878747329248599,0.6885974707144036,0.17327250378504752,0.3
4.0299999999999585,-1.514137209042509,-1.0122327980131014,1.3324941585484504,-1.8910576873301908,-1.5707963267949019,0.05665911775239075,0.6877461407313303,0.17173032730962448,0.3
4.039999999999958,-1.516279464906327,-1.0150406867877604,1.3369984997936488,-1.89275413980073,-1.5707963267949019,0.054516861888572285,0.6868651633815058,0.17018137113325324,0.3
4.049999999999958,-1.5184358759395362,-1.017909625073074,1.3415938562171017,-1.89448055793887,-1.5707963267949017,0.052360450855363595,0.6859546777821401,0.16862569640645472,0.3
4.059999999999958,-1.5206067001823318,-1.0208390111511756,1.3462787979309099,-1.8962361135745767,-1.570796326794902,0.050189626612567755,0.6850148277101406,0.16706336454499937,0.3
4.069999999999958,-1.5227921988939268,-1.0238282370968739,1.3510518789434627,-1.898019968641432,-1.5707963267949017,0.048004127900972804,0.6840457615794084,0.16549443722748292,0.3
4.079999999999957,-1.5249926365767563,-1.0268766893274897,1.3559116383165601,-1.8998312757839142,-1.5707963267949017,0.04580369021814318,0.6830476324174021,0.16391897639289083,0.3
4.089999999999957,-1.527208281000343,-1.0299837491393111,1.3608566012971355,-1.9016691789526685,-1.5707963267949017,0.04358804579455667,0.6820205978409722,0.16233704423815368,0.3
4.099999999999957,-1.5294394032247693,-1.03314879322993,1.3658852804222057,-1.9035328139871206,-1.5707963267949017,0.04135692357013014,0.6809648200314724,0.1607487032156908,0.3
4.109999999999957,-1.5316862776236988,-1.0363711942057965,1.37099617659579,-1.9054213091848395,-1.5707963267949014,0.039110049171200784,0.6798804657091485,0.15915401603094537,0.3
4.119999999999957,-1.5339491819068811,-1.039650321074384,1.3761877801366726,-1.907333785857136,-1.5707963267949012,0.03684714488801859,0.6787677061068125,0.15755304563990896,0.3
4.129999999999956,-1.5362283971420787,-1.0429855397204464,1.3814585717960859,-1.909269358870487,-1.5707963267949012,0.03456792965282107,0.677626716942801,0.15594585524663504,0.3
4.139999999999956,-1.5385242077763528,-1.0463762133658887,1.3868070237444632,-1.9112271371734229,-1.5707963267949012,0.032272119018546826,0.6764576783932292,0.15433250830074502,0.3
4.149999999999956,-1.5408369016566272,-1.0498217030128405,1.3922316005265802,-1.9132062243085892,-1.5707963267949012,0.02995942513827239,0.6752607750635379,0.15271306849492217,0.3
4.159999999999956,-1.5431667700494707,-1.0533213678696212,1.3977307599845765,-1.9152057189098053,-1.5707963267949014,0.02762955674542876,0.6740361959593423,0.15108759976239797,0.3
4.1699999999999555,-1.5455141076600076,-1.0568745657592664,1.4033029541483693,-1.9172247151839537,-1.5707963267949012,0.025282219134891946,0.6727841344565857,0.14945616627442726,0.3
4.179999999999955,-1.547879212649888,-1.06048065351042,1.4089466300932088,-1.9192623033776404,-1.570796326794901,0.022917114145011536,0.6715047882710036,0.1478188324377555,0.3
4.189999999999955,-1.5502623866542256,-1.0641389873303861,1.4146602307641476,-1.9213175702286138,-1.5707963267949008,0.020533940140673848,0.6701983594269016,0.14617566289207568,0.3
4.199999999999955,-1.5526639347974212,-1.0678489231602355,1.4204421957673716,-1.9233895994019905,-1.5707963267949008,0.018132391997478185,0.6688650542252537,0.14452672250747597,0.3
4.209999999999955,-1.5550841657077776,-1.0716098170118553,1.426290962128399,-1.9254774719113983,-1.5707963267949008,0.015712161087121965,0.6675050832111246,0.14287207638187965,0.3
4.2199999999999545,-1.557523391530809,-1.075421025286916,1.4322049650172466,-1.927580266525186,-1.5707963267949008,0.01327293526409045,0.6661186611404225,0.14121178983847385,0.3
4.229999999999954,-1.5599819279411522,-1.0792819050777467,1.4381826384408063,-1.929697060157916,-1.5707963267949006,0.010814398853747275,0.6647060069459868,0.13954592842313188,0.3
4.239999999999954,-1.5624600941529656,-1.0831918144501542,1.4442224159026944,-1.9318269282473972,-1.5707963267949003,0.008336232641933566,0.6632673437030152,0.13787455790182432,0.3
4.249999999999954,-1.5649582129287172,-1.0871501127082464,1.4503227310309355,-1.9339689451175472,-1.5707963267949006,0.005838113866182164,0.6618028985938386,0.13619774425802345,0.3
4.259999999999954,-1.5674766105862392,-1.091156160641364,1.456482018173942,-1.936122184327437,-1.5707963267949,0.0033197162086598363,0.6603129028720454,0.13451555369009785,0.3
4.269999999999953,-1.5700156170039423,-1.0952093207532414,1.462698712965267,-1.9382857190068856,-1.5707963267949003,0.0007807097909567607,0.6587975918259648,0.1328280526086991,0.3
4.279999999999953,-1.5725755656240534,-1.0993089574735382,1.4689712528576968,-1.940458622179019,-1.5707963267949,-0.001779238829154186,0.6572572047415108,0.13113530763413953,0.3
4.289999999999953,-1.5751567934537594,-1.103454437351932,1.4752980776273183,-1.942639967070248,-1.5707963267949,-0.004360466658860294,0.6556919848643972,0.12943738559376228,0.3
4.299999999999953,-1.5777596410641175,-1.1076451292349327,1.4816776298481897,-1.9448288274081198,-1.5707963267949,-0.0069633142692184565,0.6541021793617259,0.12773435351930332,0.3
4.3099999999999525,-1.580384452586583,-1.111880404425593,1.4881083553382182,-1.947024277707481,-1.5707963267949008,-0.00958812579168354,0.6524880392829562,0.1260262786442443,0.3
4.319999999999952,-1.5830315757070577,-1.1161596368265527,1.4945887035775018,-1.949225393545793,-1.5707963267949019,-0.012235248912157175,0.6508498195202613,0.12431322840115895,0.3
4.329999999999952,-1.5857013616572364,-1.1204822030663188,1.5011171280991649,-1.951431251827679,-1.570796326794903,-0.01490503486233535,0.6491877787682778,0.12259527041905025,0.3
4.339999999999952,-1.5883941652031217,-1.1248474826091324,1.507692086853736,-1.9536409310394274,-1.570796326794904,-0.017597838408219508,0.6475021794832552,0.12087247252068095,0.3
4.349999999999952,-1.5911103446305737,-1.129254857848845,1.5143120425482954,-1.9558535114942646,-1.5707963267949054,-0.020314017835670644,0.6457932878416095,0.11914490271989533,0.3
4.3599999999999515,-1.593850261727694,-1.133703714186877,1.5209754629608365,-1.9580680755687654,-1.5707963267949059,-0.023053934932790145,0.6440613736978928,0.11741262921893432,0.3
4.369999999999951,-1.5966142817638718,-1.1381934400945597,1.5276808212308137,-1.9602837079310529,-1.5707963267949068,-0.025817954968967532,0.6423067105421792,0.11567572040574331,0.3
4.379999999999951,-1.5994027734653105,-1.1427234271601323,1.5344265961267718,-1.9624994957614321,-1.5707963267949074,-0.028606446670405534,0.640529575456877,0.1139342448512713,0.3
4.389999999999951,-1.6022161089868447,-1.147293070120632,1.5412112722919193,-1.9647145289660735,-1.570796326794908,-0.031419782191939076,0.6387302490729752,0.11218827130676445,0.3
4.399999999999951,-1.6050546638798466,-1.1519017668789524,1.5480333404685598,-1.9669279003843885,-1.5707963267949088,-0.03425833708494061,0.6369090155257274,0.11043786870105153,0.3
4.40999999999995,-1.607918817056018,-1.156548918506304,1.5548912977022666,-1.9691387059907388,-1.570796326794909,-0.03712249026111145,0.6350661624097852,0.10868310613782267,0.3
4.41999999999995,-1.6108089507468528,-1.1612339292303493,1.561783647526716,-1.9713460450911389,-1.5707963267949099,-0.04001262395194568,0.6332019807337816,0.1069240528929008,0.3
4.42999999999995,-1.6137254504585496,-1.1659562064092313,1.5687089001300505,-1.9735490205155883,-1.57079632679491,-0.042929123663642134,0.6313167648743787,0.10516077841150688,0.3
4.43999999999995,-1.6166687049221442,-1.1707151604917567,1.5756655725036999,-1.9757467388067096,-1.5707963267949105,-0.04587237812723633,0.6294108125297821,0.10339335230551851,0.3
4.4499999999999496,-1.619639106038621,-1.1755102049639508,1.5826521885745197,-1.9779383104053327,-1.5707963267949108,-0.04884277924371289,0.6274844246727306,0.10162184435072129,0.3
4.459999999999949,-1.6226370488187638,-1.18034075628222,1.5896672793211557,-1.9801228498336976,-1.5707963267949112,-0.051840722023855486,0.6255379055029683,0.09984632448405374,0.3
4.469999999999949,-1.6256629313174829,-1.1852062337933211,1.596709382875489,-1.9822994758769283,-1.5707963267949112,-0.05486660452257398,0.6235715623992096,0.09806686280084698,0.3
4.479999999999949,-1.6287171545623593,-1.190106059641366,1.603777044610038,-1.9844673117634313,-1.5707963267949117,-0.057920827767450424,0.6215857058705995,0.09628352955205682,0.3
4.489999999999949,-1.6318001224761316,-1.1950396586620364,1.6108688172121641,-1.986625485344886,-1.5707963267949119,-0.06100379568122232,0.6195806495076801,0.09449639514149023,0.3
4.4999999999999485,-1.6349122417928443,-1.2000064582642296,1.6179832607459421,-1.9887731292764703,-1.5707963267949119,-0.06411591499793498,0.6175567099328718,0.09270553012302576,0.3
4.509999999999948,-1.6380539219673667,-1.2050058882992742,1.6251189427024866,-1.9909093811979697,-1.570796326794912,-0.06725759517245658,0.6155142067504752,0.09091100519782852,0.3
4.519999999999948,-1.6412255750779747,-1.210037380917926,1.6322744380395984,-1.99303338391643,-1.5707963267949119,-0.07042924828306477,0.6134534624962007,0.08911289121155849,0.3
4.529999999999948,-1.6444276157217013,-1.215100370415269,1.6394483292114872,-1.9951442855909765,-1.570796326794912,-0.07363128892679123,0.6113748025862371,0.08731125915157323,0.3
4.539999999999948,-1.6476604609021186,-1.2201942930637077,1.6466392061893995,-1.9972412399204502,-1.5707963267949123,-0.07686413410720823,0.6092785552658647,0.08550618014412598,0.3
4.549999999999947,-1.6509245299092319,-1.225318586934163,1.6538456664738934,-1.9993234063344898,-1.5707963267949123,-0.08012820311432144,0.6071650515576212,0.08369772545155725,0.3
4.559999999999947,-1.6542202441911473,-1.2304726917056121,1.6610663150995215,-2.0013899501886696,-1.570796326794912,-0.08342391739623681,0.6050346252090292,0.08188596646948101,0.3
4.569999999999947,-1.6575480272171614,-1.2356560484631187,1.668299764632694,-2.003440042964337,-1.570796326794912,-0.08675170042225083,0.6028876126398939,0.08007097472396633,0.3
4.579999999999947,-1.6609083043319137,-1.2408680994844297,1.6755446351634018,-2.005472862473735,-1.570796326794912,-0.09011197753700285,0.6007243528891786,0.07825282186871373,0.3
4.589999999999947,-1.6643015026002408,-1.2461082880152867,1.6827995542915464,-2.0074875930710245,-1.5707963267949119,-0.09350517580533,0.5985451875614664,0.07643157968222593,0.3
4.599999999999946,-1.667728050642348,-1.251376058033526,1.6900631571085643,-2.009483425869804,-1.5707963267949117,-0.09693172384743663,0.5963504607730161,0.07460732006497378,0.3
4.609999999999946,-1.6711883784589183,-1.2566708540020817,1.6973340861750104,-2.011459558967697,-1.5707963267949117,-0.10039205166400725,0.5941405190974235,0.07278011503655821,0.3
4.619999999999946,-1.674682917245758,-1.2619921206109688,1.704610991494794,-2.0134151976785954,-1.5707963267949117,-0.1038865904508469,0.5919157115108927,0.07095003673286658,0.3
4.629999999999946,-1.6782120991975777,-1.2673393025083333,1.7118925304866754,-2.015349554773114,-1.5707963267949114,-0.10741577240266692,0.5896763893371284,0.06911715740322448,0.3
4.6399999999999455,-1.6817763573004978,-1.2727118440206735,1.7191773679537177,-2.0172618507278184,-1.5707963267949112,-0.11098003050558686,0.5874229061918581,0.0672815494075435,0.3
4.649999999999945,-1.685376125112849,-1.2781091888622744,1.7264641760512471,-2.0191513139837496,-1.5707963267949112,-0.11457979831793796,0.5851556179269922,0.06544328521346467,0.3
4.659999999999945,-1.6890118365338465,-1.2835307798339661,1.7337516342539827,-2.021017181214795,-1.570796326794911,-0.1182155097389356,0.582874882574431,0.06360243739349727,0.3
4.669999999999945,-1.6926839255597004,-1.2889760585112762,1.7410384293228898,-2.0228586976063943,-1.5707963267949108,-0.1218875987647895,0.580581060289526,0.06175907862215312,0.3
4.679999999999945,-1.69639282602671,-1.2944444649220495,1.7483232552723693,-2.024675117145103,-1.570796326794911,-0.1255964992317992,0.5782745132942093,0.059913281673078175,0.3
4.689999999999944,-1.7001389713408999,-1.2999354372136172,1.7556048133382987,-2.026465702919468,-1.5707963267949103,-0.12934264454598904,0.5759556058197927,0.05806511941617904,0.3
4.699999999999944,-1.7039227941937376,-1.3054484113096234,1.7628818119475356,-2.0282297274327004,-1.57079632679491,-0.13312646739882694,0.5736247040494518,0.05621466481474572,0.3
4.709999999999944,-1.7077447262634722,-1.3109828205565703,1.770152966689363,-2.029966472927584,-1.57079632679491,-0.13694839946856152,0.5712821760604018,0.054361990922571275,0.3
4.719999999999944,-1.7116051979016247,-1.3165380953602122,1.7774170002894545,-2.0316752317240363,-1.5707963267949099,-0.14080887110671417,0.5689283917657737,0.052507170881067884,0.3
4.729999999999944,-1.7155046378041618,-1.3221136628118757,1.784672642586807,-2.0333553065697276,-1.5707963267949094,-0.14470831100925152,0.5665637228562004,0.050650277916378786,0.3
4.739999999999943,-1.7194434726668864,-1.3277089463048677,1.7919186305142136,-2.0350060110041457,-1.5707963267949092,-0.14864714587197628,0.5641885427411228,0.048791385336487574,0.3
4.749999999999943,-1.7234221268245584,-1.3333233651410619,1.7991537080827036,-2.0366266697364437,-1.570796326794909,-0.15262580002964826,0.5618032264898235,0.046930566528323364,0.3
4.759999999999943,-1.7274410218732876,-1.338956334127842,1.8063766263704502,-2.038216619037413,-1.5707963267949088,-0.1566446950783777,0.5594081507721997,0.04506789495486443,0.3
4.769999999999943,-1.73150057627571,-1.3446072631655488,1.8135861435165979,-2.0397752071458566,-1.5707963267949088,-0.16070424948080048,0.5570036937992822,0.0432034441522369,0.3
4.7799999999999425,-1.7356012049484928,-1.350275556825629,1.8207810247204705,-2.041301794689652,-1.5707963267949085,-0.1648048781535832,0.554590235263511,0.041337287726811854,0.3
4.789999999999942,-1.7397433188316882,-1.35596061391968,1.8279600422465796,-2.042795755121713,-1.5707963267949079,-0.16894699203677865,0.5521681562787789,0.039469499352299695,0.3
4.799999999999942,-1.743927324439483,-1.3616618270596237,1.8351219754358659,-2.0442564751710584,-1.5707963267949077,-0.17313099764457374,0.5497378393202476,0.03760015276684095,0.3
4.809999999999942,-1.7481536233918946,-1.3673785822092712,1.8422656107235866,-2.0456833553091345,-1.5707963267949074,-0.17735729659698554,0.5472996681639513,0.035729321770095364,0.3
4.819999999999942,-1.752422611926959,-1.3731102582275467,1.8493897416642393,-2.0470758102315143,-1.5707963267949072,-0.1816262851320501,0.5448540278261933,0.03385708022032774,0.3
4.8299999999999415,-1.7567346803929937,-1.3788562264037023,1.8564931689639088,-2.0484332693550313,-1.570796326794907,-0.185938353598085,0.5424013045027486,0.03198350203149287,0.3
4.839999999999941,-1.761090212720505,-1.3846158499848586,1.8635747005204124,-2.049755177330381,-1.5707963267949066,-0.19029388592559668,0.5399418855078777,0.03010866117031643,0.3
4.849999999999941,-1.765489585873352,-1.3903884836962672,1.870633151471594,-2.051040994570157,-1.5707963267949063,-0.1946932590784439,0.5374761592131657,0.02823263165337518,0.3
4.859999999999941,-1.7699331692787759,-1.3961734732547104,1.8776673442521161,-2.0522901977922388,-1.5707963267949059,-0.1991368424838682,0.5350045149861947,0.02635548754417498,0.3
4.869999999999941,-1.7744213242359401,-1.4019701548755001,1.8846761086590598,-2.0535022805783965,-1.5707963267949054,-0.20362499744103263,0.5325273431290567,0.024477302950226303,0.3
4.87999999999994,-1.7789544033026488,-1.4077778547736042,1.8916582819266738,-2.054676753947909,-1.5707963267949054,-0.2081580765077415,0.5300450348167216,0.02259815202011874,0.3
4.88999999999994,-1.7835327496599334,-1.413595888659433,1.8986127088105316,-2.055813146945941,-1.570796326794905,-0.2127364228650266,0.5275579820352649,0.020718108940593,0.3
4.89999999999994,-1.7881566964542401,-1.419423561229919,1.9055382416814113,-2.0569110072463372,-1.5707963267949048,-0.21736036965933375,0.5250665775199698,0.018837247933612928,0.3
4.90999999999994,-1.7928265661169687,-1.4252601656555213,1.9124337406291174,-2.0579699017684443,-1.5707963267949043,-0.22203023932206248,0.5225712146933084,0.016955643253434096,0.3
4.9199999999999395,-1.7975426696611745,-1.4311049830638993,1.919298073576529,-2.058989417307481,-1.5707963267949039,-0.22674634286626835,0.520072287602817,0.015073369183673288,0.3
4.929999999999939,-1.8023053059552674,-1.43695728202101,1.926130116404045,-2.059969161177889,-1.5707963267949037,-0.23150897916036206,0.5175701908588703,0.013190500034374646,0.3
4.939999999999939,-1.8071147609736056,-1.442816318010476,1.9329287530846844,-2.0609087618690656,-1.5707963267949034,-0.23631843417870074,0.5150653195723688,0.011307110139076825,0.3
4.949999999999939,-1.8119713070239145,-1.4486813329121153,1.9396928758299579,-2.0618078697127027,-1.570796326794903,-0.24117498022900985,0.5125580692923452,0.009423273851877837,0.3
4.959999999999939,-1.8168752019515408,-1.4545515544806038,1.946421385246713,-2.0626661575609724,-1.5707963267949026,-0.24607887515663654,0.510048835943503,0.007539065544499128,0.3
4.9699999999999385,-1.821826688320593,-1.4604261958253093,1.95311319050506,-2.0634833214746173,-1.570796326794902,-0.25103036152568914,0.5075380157636962,0.005654559603350246,0.3
4.979999999999938,-1.8268259925720862,-1.46630445489239,1.9597672095174834,-2.064259081419963,-1.5707963267949014,-0.25602966577718295,0.5050260052413565,0.0037698304265909744,0.3
4.989999999999938,-1.8318733241592995,-1.4721855139503461,1.9663823691292173,-2.064993181973743,-1.5707963267949012,-0.2610769973643963,0.5025132010528863,0.0018849524211951112,0.3
4.999999999999938,-1.8369688746605952,-1.4780685390802748,1.9729576053199342,-2.065685393034535,-1.5707963267949006,-0.2661725478656928,0.5000000000000157,1.1760752143194357e-14,0.3
5.009999999999938,-1.8421128168700762,-1.483952679672163,1.9794918634167709,-2.0663355105394867,-1.5707963267949003,-0.2713164900751744,0.49748679894714504,-0.0018849524211715899,0.3
5.019999999999937,-1.8473053038664873,-1.489837067928612,1.985984098318653,-2.0669433571849227,-1.5707963267948999,-0.2765089770715862,0.49497399475867476,-0.003769830426567455,0.3
5.029999999999937,-1.8525464680609187,-1.4957208183775037,1.992433274731909,-2.0675087831492904,-1.5707963267948994,-0.281750141266018,0.4924619842363352,-0.005654559603326728,0.3
5.039999999999937,-1.8578364202239184,-1.5016030273951566,1.9988383674170582,-2.0680316668167897,-1.5707963267948988,-0.2870400934290183,0.4899511640565283,-0.007539065544475613,0.3
5.049999999999937,-1.8631752484927502,-1.5074827727416231,2.005198361446668,-2.0685119154999363,-1.5707963267948983,-0.2923789216978509,0.4874419307076861,-0.00942327385185433,0.3
5.0599999999999365,-1.8685630173596308,-1.5133591131098587,2.0115122524741103,-2.0689494661591428,-1.5707963267948986,-0.29776669056473143,0.4849346804276625,-0.01130711013905332,0.3
5.069999999999936,-1.873999766641939,-1.5192310876906006,2.017779047013138,-2.0693442861174294,-1.5707963267948983,-0.30320343984703946,0.4824298091411609,-0.013190500034351148,0.3
5.079999999999936,-1.8794855104353816,-1.5250977157547572,2.0239977627277823,-2.069696373767917,-1.5707963267948986,-0.308689183640482,0.47992771239721416,-0.015073369183649796,0.3
5.089999999999936,-1.8850202360514083,-1.5309579962553648,2.0301674287325633,-2.0700057592720906,-1.5707963267948988,-0.3142239092565087,0.4774287853067226,-0.016955643253410743,0.3
5.099999999999936,-1.8906039029401658,-1.5368109074511045,2.036287085902571,-2.0702725052463578,-1.5707963267948986,-0.319807576145266,0.4749334224800613,-0.01883724793358945,0.3
5.1099999999999355,-1.8962364416004613,-1.5426554065535028,2.0423557871930598,-2.0704967074344487,-1.5707963267948986,-0.3254401148055616,0.47244201796476615,-0.020718108940569534,0.3
5.119999999999935,-1.9019177524783566,-1.5484904293999924,2.048372597968161,-2.070678495363061,-1.5707963267948988,-0.3311214256834565,0.46995496518330954,-0.02259815202009515,0.3
5.129999999999935,-1.9076477048561373,-1.5543148901550763,2.054336596338239,-2.0708180329780554,-1.570796326794899,-0.3368513780612375,0.46747265687097406,-0.024477302950202992,0.3
5.139999999999935,-1.9134261357335836,-1.5601276810419205,2.060246873505403,-2.0709155192583752,-1.5707963267948988,-0.3426298089386834,0.4649954850138362,-0.02635548754415155,0.3
5.149999999999935,-1.9192528487035887,-1.565927672106714,2.066102534116604,-2.0709711888047826,-1.5707963267948992,-0.34845652190868803,0.46252384078686526,-0.028232631653351627,0.3
5.159999999999934,-1.9251276128243688,-1.5717137110182284,2.071902696623727,-2.070985312400391,-1.570796326794899,-0.35433128602946845,0.46005811449215306,-0.030108661170293028,0.3
5.169999999999934,-1.9310501614906366,-1.5774846229050177,2.0776464936500116,-2.070958197539887,-1.5707963267948992,-0.360253834695736,0.4575986954972821,-0.03198350203146948,0.3
5.179999999999934,-1.9370201913062906,-1.5832392102327444,2.083333072362106,-2.0708901889242552,-1.5707963267948994,-0.3662238645113896,0.4551459721738371,-0.0338570802203045,0.3
5.189999999999934,-1.9430373609613525,-1.588976252724164,2.0889615948469986,-2.070781668917728,-1.5707963267948994,-0.37224103416645143,0.4527003318360793,-0.035729321770072014,0.3
5.199999999999934,-1.9491012901160192,-1.594694507324267,2.0945312384930173,-2.0706330579636436,-1.5707963267948997,-0.3783049633211182,0.45026216067978286,-0.0376001527668176,0.3
5.209999999999933,-1.9552115582949001,-1.600392708213135,2.1000411963740566,-2.0704448149558154,-1.5707963267948997,-0.384415231499999,0.4478318437212512,-0.03946949935227651,0.3
5.219999999999933,-1.96136770379465,-1.606069566869023,2.1054906776361175,-2.070217437561989,-1.5707963267948997,-0.39057137699974814,0.4454097647365191,-0.04133728772678856,0.3
5.229999999999933,-1.967569222608384,-1.6117237721841815,2.110878907885212,-2.0699514624959243,-1.5707963267948997,-0.3967728958134826,0.44299630620074804,-0.04320344415221348,0.3
5.239999999999933,-1.9738155673704465,-1.6173539906359014,2.116205129575657,-2.06964746573465,-1.5707963267948999,-0.4030192405755443,0.4405918492278302,-0.04506789495484117,0.3
5.2499999999999325,-1.9801061463252023,-1.622958866515185,2.1214686023976816,-2.0693060626773914,-1.5707963267949,-0.4093098195303003,0.4381967735102063,-0.04693056652830013,0.3
5.259999999999932,-1.986440322323754,-1.6285370222154465,2.1266686036633056,-2.068927908242754,-1.5707963267949006,-0.4156439955288514,0.435811457258907,-0.04879138533646424,0.3
5.269999999999932,-1.992817411852568,-1.634087058583507,2.1318044286893385,-2.0685136969007263,-1.5707963267949003,-0.42202108505766545,0.43343627714382904,-0.050650277916355735,0.3
5.279999999999932,-1.9992366840981628,-1.6396075553350828,2.136875391176346,-2.068064162636158,-1.5707963267949012,-0.42844035730325936,0.4310716082342558,-0.052507170881044715,0.3
5.289999999999932,-2.0056973600521557,-1.6450970715368904,2.1418808235824187,-2.0675800788404235,-1.5707963267949028,-0.4349010332572498,0.4287178239396274,-0.054361990922548266,0.3
5.299999999999931,-2.012198611661072,-1.6505541461573099,2.1468200774905077,-2.0670622581280917,-1.5707963267949037,-0.4414022848661644,0.4263752959505774,-0.05621466481472261,0.3
5.309999999999931,-2.0187395610253343,-1.655977298687361,2.1516925239680096,-2.0665115520755424,-1.5707963267949054,-0.4479432342304244,0.4240443941802364,-0.058065119416155955,0.3
5.319999999999931,-2.0253192796521495,-1.6613650298337568,2.1564975539174545,-2.065928850878592,-1.570796326794907,-0.45452295285723704,0.4217254867058194,-0.05991328167305526,0.3
5.329999999999931,-2.0319367877668926,-1.666715822285428,2.161234578416924,-2.0653150829263907,-1.5707963267949085,-0.46114046097197736,0.4194189397105026,-0.0617590786221301,0.3
5.339999999999931,-2.038591053687733,-1.6720281415548128,2.1659030290489287,-2.0646712142890107,-1.5707963267949105,-0.4677947268928157,0.4171251174255977,-0.06360243739347415,0.3
5.34999999999993,-2.0452809932682783,-1.6773004368949544,2.170502358216432,-2.063998248116372,-1.5707963267949125,-0.4744846664733582,0.414844382073036,-0.06544328521344185,0.3
5.35999999999993,-2.0520054694130128,-1.6825311422932212,2.1750320394447216,-2.0632972239463956,-1.570796326794914,-0.4812091426180896,0.4125770938081701,-0.06728154940752057,0.3
5.36999999999993,-2.0587632916703162,-1.6877186775421895,2.179491567667817,-2.0625692169205223,-1.5707963267949163,-0.48796696487538993,0.41032361066289974,-0.06911715740320147,0.3
5.37999999999993,-2.0655532159078316,-1.6928614493879914,2.1838804594981407,-2.0618153369050454,-1.5707963267949185,-0.49475688911290217,0.4080842884891351,-0.07095003673284374,0.3
5.3899999999999295,-2.07237394407486,-1.6979578527560926,2.188198253478166,-2.0610367275169708,-1.5707963267949205,-0.5015776172799274,0.40585948090260415,-0.07278011503653539,0.3
5.399999999999929,-2.079224124056409,-1.7030062720541759,2.1924445103128014,-2.0602345650535243,-1.5707963267949228,-0.5084277972614736,0.4036495392270115,-0.07460732006495088,0.3
5.409999999999929,-2.0861023496234132,-1.7080050825515134,2.196618813081304,-2.0594100573246896,-1.570796326794925,-0.5153060228284743,0.40145481243856096,-0.0764315796822032,0.3
5.419999999999929,-2.093007160483475,-1.7129526518338078,2.2007207674275433,-2.0585644423886365,-1.5707963267949274,-0.5222108336885325,0.3992756471108485,-0.07825282186869102,0.3
5.429999999999929,-2.0999370424363315,-1.7178473413321884,2.2047500017274824,-2.0576989871901956,-1.5707963267949303,-0.5291407156413854,0.3971123873601329,-0.0800709747239438,0.3
5.4399999999999284,-2.1068904276380476,-1.722687507924668,2.208706167232819,-2.056814986103054,-1.5707963267949328,-0.5360941008430977,0.39496537479099747,-0.0818859664694584,0.3
5.449999999999928,-2.1138656949776697,-1.7274715056079744,2.2125889381897528,-2.055913759376683,-1.5707963267949352,-0.5430693681827162,0.3928349484424053,-0.08369772545153467,0.3
5.459999999999928,-2.120861170569852,-1.732197687237335,2.2163980119319464,-2.054996651489518,-1.5707963267949379,-0.5500648437748951,0.39072144473416137,-0.08550618014410356,0.3
5.469999999999928,-2.127875128366631,-1.7368644063313718,2.220133108946817,-2.0540650294103537,-1.5707963267949405,-0.5570788015716696,0.38862519741378887,-0.08731125915155073,0.3
5.479999999999928,-2.134905790891185,-1.7414700189388814,2.2237939729143363,-2.0531202807703655,-1.5707963267949436,-0.56410946409622,0.3865465375038252,-0.0891128912115359,0.3
5.489999999999927,-2.141951330096096,-1.746012885563925,2.227380370717687,-2.0521638119486743,-1.5707963267949463,-0.5711550033011276,0.3844857932495503,-0.09091100519780625,0.3
5.499999999999927,-2.14900986834816,-1.7504913731452119,2.23089209242512,-2.0511970460748215,-1.5707963267949492,-0.5782135415531879,0.3824432900671535,-0.09270553012300341,0.3
5.509999999999927,-2.156079479541415,-1.7549038570854276,2.2343289512425364,-2.0502214209520253,-1.5707963267949518,-0.5852831527464393,0.3804193504923452,-0.09449639514146779,0.3
5.519999999999927,-2.1631581903395807,-1.7592487233257583,2.237690783436372,-2.049238386905532,-1.5707963267949547,-0.5923618635446013,0.37841429412942545,-0.09628352955203456,0.3
5.5299999999999265,-2.1702439815485968,-1.7635243704605204,2.2409774482264972,-2.0482494045608974,-1.5707963267949576,-0.5994476547536141,0.37642843760081507,-0.09806686280082474,0.3
5.539999999999926,-2.1773347896194526,-1.7677292118864314,2.2441888276489474,-2.047255942557438,-1.5707963267949603,-0.6065384628244663,0.374462094497056,-0.09984632448403169,0.3
5.549999999999926,-2.1844285082809574,-1.7718616779807663,2.2473248263884127,-2.046259475202571,-1.570796326794963,-0.6136321814859674,0.3725155753272936,-0.10162184435069915,0.3
5.559999999999926,-2.1915229903015163,-1.7759202183022773,2.2503853715805384,-2.0452614800731874,-1.5707963267949652,-0.6207266635065236,0.3705891874702417,-0.10339335230549643,0.3
5.569999999999926,-2.1986160493784555,-1.7799033038085401,2.2533704125842204,-2.044263435570609,-1.5707963267949674,-0.6278197225834603,0.3686832351256447,-0.10516077841148498,0.3
5.5799999999999255,-2.2057054621527663,-1.7838094290830437,2.256279920724165,-2.043266818436052,-1.5707963267949696,-0.6349091353577682,0.3667980192662418,-0.10692405289287883,0.3
