takaya-hirano-hayashibeLabo/UR5e-IK-Control/main/collect_dataset/20241017/ellipse_dt0.1/output/datasets.csv
time,joint0,joint1,joint2,joint3,joint4,joint5,endpos_x,endpos_y,endpos_z,target_x,target_y,target_z
0.1,-1.2629239199481976,-1.307729998394474,1.6296578539129842,-1.8678942174537392,-1.570679154712934,0.3071514737423669,0.5119915479159564,0.3034284914834078,0.34689965204050244,0.47493226001507305,0.2976343183174008,0.3
0.2,-1.2523996790772978,-1.3462388397566825,1.8156609194529738,-2.040218406491188,-1.5707963267948966,0.31839664771759874,0.47493226001507316,0.29763431831740084,0.3000000000000002,0.4502609552259814,0.29057476563883644,0.3
0.30000000000000004,-1.2504362511696387,-1.4014544861222566,1.8840542249991636,-2.0533960656718038,-1.5707963267948966,0.3203600756252581,0.45026095522598175,0.2905747656388366,0.29999999999999993,0.4263740648856412,0.2789326753251965,0.3
0.4,-1.2576054475884377,-1.4618083563495086,1.9546815287154682,-2.063669499160856,-1.5707963267948966,0.31319087920645894,0.4263740648856412,0.2789326753251965,0.29999999999999993,0.4036482995240562,0.2628916500953747,0.3
0.5,-1.2754102034269388,-1.5272536077070609,2.026272391967107,-2.0698151110549423,-1.5707963267948966,0.29538612336795794,0.40364829952405623,0.2628916500953747,0.29999999999999993,0.38244205803669273,0.24270466649968916,0.3
0.6,-1.3056407019669711,-1.597577342575831,2.0973238463597226,-2.0705428305787876,-1.5707963267948966,0.2651556248279252,0.38244205803669284,0.2427046664996893,0.2999999999999999,0.36308977551980115,0.21869008532856352,0.3
0.7,-1.3503433186110145,-1.672236224250711,2.1660851923568667,-2.0646452949010525,-1.5707963267948966,0.220453008183882,0.36308977551980104,0.21869008532856354,0.30000000000000016,0.34589664902916606,0.1912266308726817,0.3
0.7999999999999999,-1.4116661799889918,-1.7500722760255591,2.230564468205993,-2.0512885189753303,-1.5707963267948966,0.15913014680590487,0.34589664902916606,0.19122663087268157,0.30000000000000004,0.3311338244402208,0.16074741821468555,0.3
0.8999999999999999,-1.4914646658050956,-1.82888114104216,2.288586733749683,-2.030501919502419,-1.5707963267948966,0.07933166098980086,0.3311338244402208,0.16074741821468563,0.30000000000000004,0.3190341203156169,0.12773312274559076,0.3
0.9999999999999999,-1.5905187526736575,-1.9048832292484175,2.3379401044678922,-2.0038532020143713,-1.5707963267948966,-0.019722425878761024,0.31903412031561684,0.1277331227455908,0.29999999999999993,0.3097883562174123,0.09270439962672904,0.3
1.0999999999999999,-1.7073064777468228,-1.9723469560793694,2.3766211621460265,-1.9750705328615537,-1.5707963267948966,-0.13651015095192603,0.30978835621741235,0.0927043996267291,0.30000000000000004,0.3035423433685873,0.05621367274682978,0.3
1.2,-1.8366880780085884,-2.0238981105945397,2.4031124819416885,-1.9500106981420453,-1.5707963267948966,-0.26589175121369174,0.3035423433685873,0.05621367274682985,0.29999999999999993,0.30039458512295525,0.01883642266729255,0.3
1.3,-1.969576501323132,-2.0520938490621052,2.4165306696983997,-1.9352331474311906,-1.5707963267948966,-0.3987801745282352,0.3003945851229552,0.018836422667292574,0.2999999999999999,0.30039472350842933,-0.01883788905004137,0.3
1.4000000000000001,-2.0948281697425686,-2.052092997999904,2.4165302758097265,-1.9352336046047194,-1.5707963267948966,-0.5240318429476717,0.30039472350842933,-0.01883788905004139,0.30000000000000004,0.30354275634258787,-0.056215116003846606,0.3
1.5000000000000002,-2.2029265761164134,-2.0238956997514226,2.4031113028082336,-1.9500119298517078,-1.5707963267948968,-0.6321302493215165,0.30354275634258765,-0.05621511600384666,0.3000000000000001,0.3097890372670927,-0.09270579699698876,0.3
1.6000000000000003,-2.2888470760304322,-1.972343341557117,2.3766192135622526,-1.9750721988000324,-1.5707963267948966,-0.7180507492355354,0.3097890372670927,-0.09270579699698887,0.3,0.31903505870041693,-0.12773445219172944,0.3
1.7000000000000004,-2.3521779875550255,-1.9048788306183562,2.3379374286256884,-2.0038549248022286,-1.5707963267948966,-0.7813816607601288,0.3190350587004168,-0.12773445219172933,0.29999999999999993,0.3311350053612515,-0.1607486587705436,0.3
1.8000000000000005,-2.3953372817948164,-1.8288763196675089,2.2885834010628288,-2.0305034081902162,-1.5707963267948968,-0.8245409549999196,0.3311350053612515,-0.16074865877054353,0.3000000000000001,0.3458980538625975,-0.19122776297395205,0.3
1.9000000000000006,-2.421712375538252,-1.7500672875174814,2.230560567252535,-2.05128960652995,-1.5707963267948968,-0.8509160487433555,0.3458980538625976,-0.19122776297395214,0.29999999999999993,0.3630913821105707,-0.21869109112133284,0.3
2.0000000000000004,-2.434564328286557,-1.672231225767788,2.1660808171170753,-2.064645918144184,-1.5707963267948968,-0.8637680014916606,0.36309138211057074,-0.21869109112133273,0.29999999999999993,0.3824438410479043,-0.2427055301220047,0.3
2.1000000000000005,-2.4366105579164583,-1.597572420802928,2.0973190873707668,-2.070542993362735,-1.5707963267948966,-0.8658142311215616,0.38244384104790435,-0.24270553012200458,0.29999999999999993,0.4036502308365578,-0.26289235792739646,0.3
2.2000000000000006,-2.4299695532319485,-1.5272488064476148,2.0262673326363516,-2.0698148529836335,-1.5707963267948968,-0.8591732264370521,0.4036502308365578,-0.2628923579273964,0.30000000000000004,0.4263761140414811,-0.2789332162039908,0.3
2.3000000000000007,-2.4162432015806456,-1.461803696716558,1.9546762453224056,-2.0636688754007437,-1.5707963267948966,-0.8454468747857489,0.4263761140414812,-0.2789332162039908,0.2999999999999997,0.4502630899087479,-0.2905751310344216,0.3
2.400000000000001,-2.39662888171497,-1.4014499793696524,1.8840487885797383,-2.0533951360049825,-1.5707963267948966,-0.8258325549200735,0.4502630899087479,-0.2905751310344217,0.29999999999999993,0.47493444655954364,-0.2976345024672701,0.3
2.500000000000001,-2.372021413279724,-1.3462344947874207,1.8156553982788184,-2.040217230286294,-1.5707963267948966,-0.8012250864848273,0.47493444655954364,-0.29763450246727013,0.30000000000000004,0.5000011019615311,-0.2999999999979761,0.3
2.600000000000001,-2.3430949773081546,-1.2961233328079846,1.7505531467233597,-2.025226140710272,-1.5707963267948966,-0.7722986505132583,0.5000011019615312,-0.2999999999979761,0.2999999999999998,0.5250677399849272,-0.2976343183174007,0.3
2.700000000000001,-2.3103659812281685,-1.2510402747321498,1.689601038665178,-2.009357090727925,-1.5707963267948966,-0.7395696544332715,0.5250677399849268,-0.29763431831740095,0.2999999999999999,0.5497390447740188,-0.2905747656388364,0.3
2.800000000000001,-2.2742407203567003,-1.2108796476226762,1.6334697086132737,-1.993386387785494,-1.5707963267948966,-0.7034443935618038,0.5497390447740189,-0.29057476563883644,0.29999999999999993,0.573625935114359,-0.2789326753251964,0.3
2.9000000000000012,-2.23505170712509,-1.1755067494744715,1.5826471620270839,-1.9779367393475087,-1.5707963267948968,-0.6642553803301935,0.573625935114359,-0.2789326753251963,0.2999999999999996,0.5963517004759441,-0.2628916500953745,0.3
3.0000000000000013,-2.1930857435163587,-1.1447539569834404,1.5374438843132134,-1.9634862541246696,-1.5707963267948968,-0.6222894167214621,0.596351700475944,-0.2628916500953744,0.3000000000000001,0.6175579419633075,-0.24270466649968894,0.3
3.1000000000000014,-2.148605927468752,-1.1184176240610069,1.4980011741353112,-1.950379876869201,-1.5707963267948968,-0.5778096006738553,0.6175579419633077,-0.24270466649968916,0.29999999999999977,0.6369102244801991,-0.21869008532856313,0.3
3.2000000000000015,-2.1018690280950443,-1.0962589429602336,1.464306140924194,-1.9388435247588567,-1.5707963267948966,-0.5310727013001478,0.6369102244801991,-0.2186900853285631,0.29999999999999993,0.6541033509708342,-0.19122663087268127,0.3
3.3000000000000016,-2.0531390805845624,-1.0780104342987014,1.4362155554309202,-1.9290014479271156,-1.5707963267948966,-0.4823427537896657,0.6541033509708343,-0.19122663087268132,0.3000000000000002,0.6688661755597795,-0.16074741821468502,0.3
3.4000000000000017,-2.002697634781867,-1.0633883668177466,1.4134888833921544,-1.9208968433693046,-1.5707963267948966,-0.4319013079869706,0.6688661755597799,-0.1607474182146849,0.3,0.6809658796843833,-0.12773312274559007,0.3
3.5000000000000018,-1.9508508312006518,-1.0521101588708732,1.3958287640852438,-1.9145149320092674,-1.5707963267948966,-0.3800545044057552,0.6809658796843834,-0.12773312274558998,0.29999999999999993,0.6902116437825878,-0.0927043996267285,0.3
3.600000000000002,-1.8979333668377345,-1.043914806993081,1.3829254011336762,-1.9098069209354915,-1.5707963267948966,-0.3271370400428379,0.6902116437825879,-0.09270439962672852,0.2999999999999999,0.6964576566314128,-0.05621367274682916,0.3
3.700000000000002,-1.8443094405497007,-1.0385837704497103,1.3745002152100374,-1.9067127715552237,-1.5707963267948966,-0.2735131137548039,0.6964576566314125,-0.0562136727468291,0.3,0.6996054148770448,-0.01883642266729192,0.3
3.800000000000002,-1.7903709130997474,-1.0359595910604982,1.3703438545351534,-1.9051805902695516,-1.5707963267948966,-0.21957458630485047,0.6996054148770448,-0.018836422667291925,0.3,0.6996052764915707,0.018837889050042265,0.3
3.900000000000002,-1.7365331425797577,-1.035959819519995,1.3703442166460202,-1.9051807239209217,-1.5707963267948966,-0.1657368157848607,0.6996052764915703,0.01883788905004218,0.2999999999999999,0.696457243657412,0.056215116003847286,0.3
4.000000000000002,-1.6832292079168854,-1.0385844524419954,1.3745012946187296,-1.9067131689716308,-1.5707963267948963,-0.11243288112198896,0.696457243657412,0.05621511600384751,0.29999999999999993,0.6902109627329072,0.09270579699698911,0.3
4.100000000000001,-1.63090345065245,-1.0439159324987684,1.3829271772628884,-1.909807571559017,-1.5707963267948966,-0.06010712385755326,0.6902109627329069,0.0927057969969893,0.30000000000000016,0.680964941299583,0.1277344521917299,0.3
4.200000000000001,-1.5800053952969633,-1.052111711658638,1.3958312033020315,-1.9145158184382902,-1.5707963267948966,-0.00920906850206658,0.6809649412995828,0.12773445219172982,0.3,0.6688649946387484,0.16074865877054376,0.3
4.300000000000001,-1.5309851221185067,-1.0633903251542336,1.4134919400423192,-1.9208979416829823,-1.5707963267948966,0.039811204676390204,0.6688649946387488,0.1607486587705437,0.2999999999999998,0.6541019461374026,0.19122776297395203,0.3
4.4,-1.484291066772845,-1.078012771945386,1.4362191733337415,-1.929002728183252,-1.5707963267948968,0.08650526002205164,0.6541019461374027,0.1912277629739521,0.29999999999999993,0.6369086178894293,0.2186910911213328,0.3
4.5,-1.4403710434935575,-1.0962616304328867,1.4643102553059388,-1.9388449516679487,-1.5707963267948963,0.13042528330133904,0.6369086178894292,0.2186910911213328,0.3,0.6175561589520959,0.24270553012200452,0.3
4.6,-1.399677086882522,-1.118420630093026,1.4980057139051142,-1.950381410606985,-1.5707963267948966,0.17111923991237468,0.6175561589520959,0.24270553012200471,0.30000000000000004,0.5963497691634425,0.26289235792739624,0.3
4.699999999999999,-1.362674538339617,-1.1447572500968373,1.5374487745012415,-1.9634878511993006,-1.5707963267948966,0.20812178845527968,0.5963497691634425,0.26289235792739607,0.29999999999999993,0.5736238859585192,0.27893321620399064,0.3
4.799999999999999,-1.3298557093816632,-1.1755102995329163,1.5826523261403755,-1.9779383534023556,-1.5707963267948966,0.24094061741323342,0.5736238859585193,0.27893321620399064,0.30000000000000004,0.5497369100912526,0.29057513103442145,0.3
4.899999999999999,-1.3017584512765588,-1.210883427227349,1.6334750706422234,-1.993387970209771,-1.5707963267948966,0.2690378755183377,0.5497369100912526,0.29057513103442145,0.3,0.525065553440457,0.2976345024672699,0.3
4.999999999999998,-1.2789900269881969,-1.2510442603219023,1.6896065245014065,-2.0093585909744007,-1.5707963267948966,0.29180629980669953,0.5250655534404567,0.29763450246726986,0.30000000000000016,0.4999988980384694,0.2999999999979761,0.3
5.099999999999998,-1.262256742075067,-1.2961275053265715,1.7505586848174124,-2.0252275062857374,-1.5707963267948963,0.3085395847198296,0.4999988980384694,0.2999999999979761,0.30000000000000004,0.499998898038469,0.2999999999979761,0.3
5.1999999999999975,-1.2622567420750668,-1.2961275053265726,1.7505586848174137,-2.025227506285738,-1.5707963267948966,0.3085395847198299,0.499998898038469,0.2999999999979761,0.30000000000000004,0.47493226001507305,0.2976343183174008,0.3
5.299999999999997,-1.2523996790772978,-1.3462388397566827,1.8156609194529747,-2.040218406491188,-1.5707963267948966,0.3183966477175988,0.4749322600150728,0.2976343183174007,0.2999999999999998,0.4502609552259814,0.29057476563883644,0.3
5.399999999999997,-1.2504362511696387,-1.4014544861222566,1.8840542249991645,-2.053396065671804,-1.5707963267948966,0.32036007562525803,0.4502609552259816,0.29057476563883655,0.2999999999999998,0.4263740648856412,0.2789326753251965,0.3
5.4999999999999964,-1.2576054475884382,-1.4618083563495088,1.954681528715468,-2.0636694991608557,-1.5707963267948966,0.3131908792064586,0.4263740648856412,0.2789326753251965,0.30000000000000004,0.4036482995240562,0.2628916500953747,0.3
5.599999999999996,-1.2754102034269386,-1.5272536077070609,2.026272391967107,-2.0698151110549428,-1.5707963267948966,0.2953861233679579,0.4036482995240561,0.26289165009537474,0.3,0.38244205803669273,0.24270466649968916,0.3
5.699999999999996,-1.3056407019669711,-1.597577342575831,2.0973238463597226,-2.0705428305787876,-1.5707963267948966,0.2651556248279252,0.38244205803669284,0.2427046664996893,0.2999999999999999,0.36308977551980115,0.21869008532856352,0.3
5.799999999999995,-1.3503433186110145,-1.672236224250711,2.1660851923568667,-2.0646452949010525,-1.5707963267948966,0.220453008183882,0.36308977551980104,0.21869008532856354,0.30000000000000016,0.34589664902916606,0.1912266308726817,0.3
5.899999999999995,-1.4116661799889918,-1.7500722760255591,2.230564468205993,-2.0512885189753303,-1.5707963267948966,0.15913014680590487,0.34589664902916606,0.19122663087268157,0.30000000000000004,0.3311338244402208,0.16074741821468555,0.3
5.999999999999995,-1.4914646658050956,-1.82888114104216,2.288586733749683,-2.030501919502419,-1.5707963267948966,0.07933166098980086,0.3311338244402208,0.16074741821468563,0.30000000000000004,0.3190341203156169,0.12773312274559076,0.3
6.099999999999994,-1.5905187526736575,-1.9048832292484175,2.3379401044678922,-2.0038532020143713,-1.5707963267948966,-0.019722425878761024,0.31903412031561684,0.1277331227455908,0.29999999999999993,0.3097883562174123,0.09270439962672904,0.3
6.199999999999994,-1.7073064777468228,-1.9723469560793694,2.3766211621460265,-1.9750705328615537,-1.5707963267948966,-0.13651015095192603,0.30978835621741235,0.0927043996267291,0.30000000000000004,0.3035423433685873,0.05621367274682978,0.3
6.299999999999994,-1.8366880780085884,-2.0238981105945397,2.4031124819416885,-1.9500106981420453,-1.5707963267948966,-0.26589175121369174,0.3035423433685873,0.05621367274682985,0.29999999999999993,0.30039458512295525,0.01883642266729255,0.3
6.399999999999993,-1.969576501323132,-2.0520938490621052,2.4165306696983997,-1.9352331474311906,-1.5707963267948966,-0.3987801745282352,0.3003945851229552,0.018836422667292574,0.2999999999999999,0.30039472350842933,-0.01883788905004137,0.3
6.499999999999993,-2.0948281697425686,-2.052092997999904,2.4165302758097265,-1.9352336046047194,-1.5707963267948966,-0.5240318429476717,0.30039472350842933,-0.01883788905004139,0.30000000000000004,0.30354275634258787,-0.056215116003846606,0.3
6.5999999999999925,-2.2029265761164134,-2.0238956997514226,2.4031113028082336,-1.9500119298517078,-1.5707963267948968,-0.6321302493215165,0.30354275634258765,-0.05621511600384666,0.3000000000000001,0.3097890372670927,-0.09270579699698876,0.3
6.699999999999992,-2.2888470760304322,-1.972343341557117,2.3766192135622526,-1.9750721988000324,-1.5707963267948966,-0.7180507492355354,0.3097890372670927,-0.09270579699698887,0.3,0.31903505870041693,-0.12773445219172944,0.3
6.799999999999992,-2.3521779875550255,-1.9048788306183562,2.3379374286256884,-2.0038549248022286,-1.5707963267948966,-0.7813816607601288,0.3190350587004168,-0.12773445219172933,0.29999999999999993,0.3311350053612515,-0.1607486587705436,0.3
6.8999999999999915,-2.3953372817948164,-1.8288763196675089,2.2885834010628288,-2.0305034081902162,-1.5707963267948968,-0.8245409549999196,0.3311350053612515,-0.16074865877054353,0.3000000000000001,0.3458980538625975,-0.19122776297395205,0.3
6.999999999999991,-2.421712375538252,-1.7500672875174814,2.230560567252535,-2.05128960652995,-1.5707963267948968,-0.8509160487433555,0.3458980538625976,-0.19122776297395214,0.29999999999999993,0.3630913821105707,-0.21869109112133284,0.3
7.099999999999991,-2.434564328286557,-1.672231225767788,2.1660808171170753,-2.064645918144184,-1.5707963267948968,-0.8637680014916606,0.36309138211057074,-0.21869109112133273,0.29999999999999993,0.3824438410479043,-0.2427055301220047,0.3
7.19999999999999,-2.4366105579164583,-1.597572420802928,2.0973190873707668,-2.070542993362735,-1.5707963267948966,-0.8658142311215616,0.38244384104790435,-0.24270553012200458,0.29999999999999993,0.4036502308365578,-0.26289235792739646,0.3
7.29999999999999,-2.4299695532319485,-1.5272488064476148,2.0262673326363516,-2.0698148529836335,-1.5707963267948968,-0.8591732264370521,0.4036502308365578,-0.2628923579273964,0.30000000000000004,0.4263761140414811,-0.2789332162039908,0.3
7.39999999999999,-2.4162432015806456,-1.461803696716558,1.9546762453224056,-2.0636688754007437,-1.5707963267948966,-0.8454468747857489,0.4263761140414812,-0.2789332162039908,0.2999999999999997,0.4502630899087479,-0.2905751310344216,0.3
7.499999999999989,-2.39662888171497,-1.4014499793696524,1.8840487885797383,-2.0533951360049825,-1.5707963267948966,-0.8258325549200735,0.4502630899087479,-0.2905751310344217,0.29999999999999993,0.47493444655954364,-0.2976345024672701,0.3
7.599999999999989,-2.372021413279724,-1.3462344947874207,1.8156553982788184,-2.040217230286294,-1.5707963267948966,-0.8012250864848273,0.47493444655954364,-0.29763450246727013,0.30000000000000004,0.5000011019615311,-0.2999999999979761,0.3
7.699999999999989,-2.3430949773081546,-1.2961233328079846,1.7505531467233597,-2.025226140710272,-1.5707963267948966,-0.7722986505132583,0.5000011019615312,-0.2999999999979761,0.2999999999999998,0.5250677399849272,-0.2976343183174007,0.3
7.799999999999988,-2.3103659812281685,-1.2510402747321498,1.689601038665178,-2.009357090727925,-1.5707963267948966,-0.7395696544332715,0.5250677399849268,-0.29763431831740095,0.2999999999999999,0.5497390447740188,-0.2905747656388364,0.3
7.899999999999988,-2.2742407203567003,-1.2108796476226762,1.6334697086132737,-1.993386387785494,-1.5707963267948966,-0.7034443935618038,0.5497390447740189,-0.29057476563883644,0.29999999999999993,0.573625935114359,-0.2789326753251964,0.3
7.999999999999988,-2.23505170712509,-1.1755067494744715,1.5826471620270839,-1.9779367393475087,-1.5707963267948968,-0.6642553803301935,0.573625935114359,-0.2789326753251963,0.2999999999999996,0.5963517004759441,-0.2628916500953745,0.3
8.099999999999987,-2.1930857435163587,-1.1447539569834404,1.5374438843132134,-1.9634862541246696,-1.5707963267948968,-0.6222894167214621,0.596351700475944,-0.2628916500953744,0.3000000000000001,0.6175579419633075,-0.24270466649968894,0.3
8.199999999999987,-2.148605927468752,-1.1184176240610069,1.4980011741353112,-1.950379876869201,-1.5707963267948968,-0.5778096006738553,0.6175579419633077,-0.24270466649968916,0.29999999999999977,0.6369102244801991,-0.21869008532856313,0.3
8.299999999999986,-2.1018690280950443,-1.0962589429602336,1.464306140924194,-1.9388435247588567,-1.5707963267948966,-0.5310727013001478,0.6369102244801991,-0.2186900853285631,0.29999999999999993,0.6541033509708342,-0.19122663087268127,0.3
8.399999999999986,-2.0531390805845624,-1.0780104342987014,1.4362155554309202,-1.9290014479271156,-1.5707963267948966,-0.4823427537896657,0.6541033509708343,-0.19122663087268132,0.3000000000000002,0.6688661755597795,-0.16074741821468502,0.3
8.499999999999986,-2.002697634781867,-1.0633883668177466,1.4134888833921544,-1.9208968433693046,-1.5707963267948966,-0.4319013079869706,0.6688661755597799,-0.1607474182146849,0.3,0.6809658796843833,-0.12773312274559007,0.3
8.599999999999985,-1.9508508312006518,-1.0521101588708732,1.3958287640852438,-1.9145149320092674,-1.5707963267948966,-0.3800545044057552,0.6809658796843834,-0.12773312274558998,0.29999999999999993,0.6902116437825878,-0.0927043996267285,0.3
8.699999999999985,-1.8979333668377345,-1.043914806993081,1.3829254011336762,-1.9098069209354915,-1.5707963267948966,-0.3271370400428379,0.6902116437825879,-0.09270439962672852,0.2999999999999999,0.6964576566314128,-0.05621367274682916,0.3
8.799999999999985,-1.8443094405497007,-1.0385837704497103,1.3745002152100374,-1.9067127715552237,-1.5707963267948966,-0.2735131137548039,0.6964576566314125,-0.0562136727468291,0.3,0.6996054148770448,-0.01883642266729192,0.3
8.899999999999984,-1.7903709130997474,-1.0359595910604982,1.3703438545351534,-1.9051805902695516,-1.5707963267948966,-0.21957458630485047,0.6996054148770448,-0.018836422667291925,0.3,0.6996052764915707,0.018837889050042265,0.3
8.999999999999984,-1.7365331425797577,-1.035959819519995,1.3703442166460202,-1.9051807239209217,-1.5707963267948966,-0.1657368157848607,0.6996052764915703,0.01883788905004218,0.2999999999999999,0.696457243657412,0.056215116003847286,0.3
9.099999999999984,-1.6832292079168854,-1.0385844524419954,1.3745012946187296,-1.9067131689716308,-1.5707963267948963,-0.11243288112198896,0.696457243657412,0.05621511600384751,0.29999999999999993,0.6902109627329072,0.09270579699698911,0.3
9.199999999999983,-1.63090345065245,-1.0439159324987684,1.3829271772628884,-1.909807571559017,-1.5707963267948966,-0.06010712385755326,0.6902109627329069,0.0927057969969893,0.30000000000000016,0.680964941299583,0.1277344521917299,0.3
9.299999999999983,-1.5800053952969633,-1.052111711658638,1.3958312033020315,-1.9145158184382902,-1.5707963267948966,-0.00920906850206658,0.6809649412995828,0.12773445219172982,0.3,0.6688649946387484,0.16074865877054376,0.3
9.399999999999983,-1.5309851221185067,-1.0633903251542336,1.4134919400423192,-1.9208979416829823,-1.5707963267948966,0.039811204676390204,0.6688649946387488,0.1607486587705437,0.2999999999999998,0.6541019461374026,0.19122776297395203,0.3
9.499999999999982,-1.484291066772845,-1.078012771945386,1.4362191733337415,-1.929002728183252,-1.5707963267948968,0.08650526002205164,0.6541019461374027,0.1912277629739521,0.29999999999999993,0.6369086178894293,0.2186910911213328,0.3
9.599999999999982,-1.4403710434935575,-1.0962616304328867,1.4643102553059388,-1.9388449516679487,-1.5707963267948963,0.13042528330133904,0.6369086178894292,0.2186910911213328,0.3,0.6175561589520959,0.24270553012200452,0.3
9.699999999999982,-1.399677086882522,-1.118420630093026,1.4980057139051142,-1.950381410606985,-1.5707963267948966,0.17111923991237468,0.6175561589520959,0.24270553012200471,0.30000000000000004,0.5963497691634425,0.26289235792739624,0.3
9.799999999999981,-1.362674538339617,-1.1447572500968373,1.5374487745012415,-1.9634878511993006,-1.5707963267948966,0.20812178845527968,0.5963497691634425,0.26289235792739607,0.29999999999999993,0.5736238859585192,0.27893321620399064,0.3
9.89999999999998,-1.3298557093816632,-1.1755102995329163,1.5826523261403755,-1.9779383534023556,-1.5707963267948966,0.24094061741323342,0.5736238859585193,0.27893321620399064,0.30000000000000004,0.5497369100912526,0.29057513103442145,0.3
9.99999999999998,-1.3017584512765588,-1.210883427227349,1.6334750706422234,-1.993387970209771,-1.5707963267948966,0.2690378755183377,0.5497369100912526,0.29057513103442145,0.3,0.525065553440457,0.2976345024672699,0.3
10.09999999999998,-1.2789900269881969,-1.2510442603219023,1.6896065245014065,-2.0093585909744007,-1.5707963267948966,0.29180629980669953,0.5250655534404567,0.29763450246726986,0.30000000000000016,0.4999988980384694,0.2999999999979761,0.3
10.19999999999998,-1.262256742075067,-1.2961275053265715,1.7505586848174124,-2.0252275062857374,-1.5707963267948963,0.3085395847198296,0.4999988980384694,0.2999999999979761,0.30000000000000004,0.499998898038469,0.2999999999979761,0.3
10.29999999999998,-1.2622567420750668,-1.2961275053265726,1.7505586848174137,-2.025227506285738,-1.5707963267948966,0.3085395847198299,0.499998898038469,0.2999999999979761,0.30000000000000004,0.47493226001507305,0.2976343183174008,0.3
10.399999999999979,-1.2523996790772978,-1.3462388397566827,1.8156609194529747,-2.040218406491188,-1.5707963267948966,0.3183966477175988,0.4749322600150728,0.2976343183174007,0.2999999999999998,0.4502609552259814,0.29057476563883644,0.3
10.499999999999979,-1.2504362511696387,-1.4014544861222566,1.8840542249991645,-2.053396065671804,-1.5707963267948966,0.32036007562525803,0.4502609552259816,0.29057476563883655,0.2999999999999998,0.4263740648856412,0.2789326753251965,0.3
10.599999999999978,-1.2576054475884382,-1.4618083563495088,1.954681528715468,-2.0636694991608557,-1.5707963267948966,0.3131908792064586,0.4263740648856412,0.2789326753251965,0.30000000000000004,0.4036482995240562,0.2628916500953747,0.3
10.699999999999978,-1.2754102034269386,-1.5272536077070609,2.026272391967107,-2.0698151110549428,-1.5707963267948966,0.2953861233679579,0.4036482995240561,0.26289165009537474,0.3,0.38244205803669273,0.24270466649968916,0.3
10.799999999999978,-1.3056407019669711,-1.597577342575831,2.0973238463597226,-2.0705428305787876,-1.5707963267948966,0.2651556248279252,0.38244205803669284,0.2427046664996893,0.2999999999999999,0.36308977551980115,0.21869008532856352,0.3
10.899999999999977,-1.3503433186110145,-1.672236224250711,2.1660851923568667,-2.0646452949010525,-1.5707963267948966,0.220453008183882,0.36308977551980104,0.21869008532856354,0.30000000000000016,0.34589664902916606,0.1912266308726817,0.3
10.999999999999977,-1.4116661799889918,-1.7500722760255591,2.230564468205993,-2.0512885189753303,-1.5707963267948966,0.15913014680590487,0.34589664902916606,0.19122663087268157,0.30000000000000004,0.3311338244402208,0.16074741821468555,0.3
11.099999999999977,-1.4914646658050956,-1.82888114104216,2.288586733749683,-2.030501919502419,-1.5707963267948966,0.07933166098980086,0.3311338244402208,0.16074741821468563,0.30000000000000004,0.3190341203156169,0.12773312274559076,0.3
11.199999999999976,-1.5905187526736575,-1.9048832292484175,2.3379401044678922,-2.0038532020143713,-1.5707963267948966,-0.019722425878761024,0.31903412031561684,0.1277331227455908,0.29999999999999993,0.3097883562174123,0.09270439962672904,0.3
11.299999999999976,-1.7073064777468228,-1.9723469560793694,2.3766211621460265,-1.9750705328615537,-1.5707963267948966,-0.13651015095192603,0.30978835621741235,0.0927043996267291,0.30000000000000004,0.3035423433685873,0.05621367274682978,0.3
11.399999999999975,-1.8366880780085884,-2.0238981105945397,2.4031124819416885,-1.9500106981420453,-1.5707963267948966,-0.26589175121369174,0.3035423433685873,0.05621367274682985,0.29999999999999993,0.30039458512295525,0.01883642266729255,0.3
11.499999999999975,-1.969576501323132,-2.0520938490621052,2.4165306696983997,-1.9352331474311906,-1.5707963267948966,-0.3987801745282352,0.3003945851229552,0.018836422667292574,0.2999999999999999,0.30039472350842933,-0.01883788905004137,0.3
11.599999999999975,-2.0948281697425686,-2.052092997999904,2.4165302758097265,-1.9352336046047194,-1.5707963267948966,-0.5240318429476717,0.30039472350842933,-0.01883788905004139,0.30000000000000004,0.30354275634258787,-0.056215116003846606,0.3
11.699999999999974,-2.2029265761164134,-2.0238956997514226,2.4031113028082336,-1.9500119298517078,-1.5707963267948968,-0.6321302493215165,0.30354275634258765,-0.05621511600384666,0.3000000000000001,0.3097890372670927,-0.09270579699698876,0.3
11.799999999999974,-2.2888470760304322,-1.972343341557117,2.3766192135622526,-1.9750721988000324,-1.5707963267948966,-0.7180507492355354,0.3097890372670927,-0.09270579699698887,0.3,0.31903505870041693,-0.12773445219172944,0.3
11.899999999999974,-2.3521779875550255,-1.9048788306183562,2.3379374286256884,-2.0038549248022286,-1.5707963267948966,-0.7813816607601288,0.3190350587004168,-0.12773445219172933,0.29999999999999993,0.3311350053612515,-0.1607486587705436,0.3
11.999999999999973,-2.3953372817948164,-1.8288763196675089,2.2885834010628288,-2.0305034081902162,-1.5707963267948968,-0.8245409549999196,0.3311350053612515,-0.16074865877054353,0.3000000000000001,0.3458980538625975,-0.19122776297395205,0.3
12.099999999999973,-2.421712375538252,-1.7500672875174814,2.230560567252535,-2.05128960652995,-1.5707963267948968,-0.8509160487433555,0.3458980538625976,-0.19122776297395214,0.29999999999999993,0.3630913821105707,-0.21869109112133284,0.3
12.199999999999973,-2.434564328286557,-1.672231225767788,2.1660808171170753,-2.064645918144184,-1.5707963267948968,-0.8637680014916606,0.36309138211057074,-0.21869109112133273,0.29999999999999993,0.3824438410479043,-0.2427055301220047,0.3
12.299999999999972,-2.4366105579164583,-1.597572420802928,2.0973190873707668,-2.070542993362735,-1.5707963267948966,-0.8658142311215616,0.38244384104790435,-0.24270553012200458,0.29999999999999993,0.4036502308365578,-0.26289235792739646,0.3
12.399999999999972,-2.4299695532319485,-1.5272488064476148,2.0262673326363516,-2.0698148529836335,-1.5707963267948968,-0.8591732264370521,0.4036502308365578,-0.2628923579273964,0.30000000000000004,0.4263761140414811,-0.2789332162039908,0.3
12.499999999999972,-2.4162432015806456,-1.461803696716558,1.9546762453224056,-2.0636688754007437,-1.5707963267948966,-0.8454468747857489,0.4263761140414812,-0.2789332162039908,0.2999999999999997,0.4502630899087479,-0.2905751310344216,0.3
12.599999999999971,-2.39662888171497,-1.4014499793696524,1.8840487885797383,-2.0533951360049825,-1.5707963267948966,-0.8258325549200735,0.4502630899087479,-0.2905751310344217,0.29999999999999993,0.47493444655954364,-0.2976345024672701,0.3
12.69999999999997,-2.372021413279724,-1.3462344947874207,1.8156553982788184,-2.040217230286294,-1.5707963267948966,-0.8012250864848273,0.47493444655954364,-0.29763450246727013,0.30000000000000004,0.5000011019615311,-0.2999999999979761,0.3
12.79999999999997,-2.3430949773081546,-1.2961233328079846,1.7505531467233597,-2.025226140710272,-1.5707963267948966,-0.7722986505132583,0.5000011019615312,-0.2999999999979761,0.2999999999999998,0.5250677399849272,-0.2976343183174007,0.3
12.89999999999997,-2.3103659812281685,-1.2510402747321498,1.689601038665178,-2.009357090727925,-1.5707963267948966,-0.7395696544332715,0.5250677399849268,-0.29763431831740095,0.2999999999999999,0.5497390447740188,-0.2905747656388364,0.3
12.99999999999997,-2.2742407203567003,-1.2108796476226762,1.6334697086132737,-1.993386387785494,-1.5707963267948966,-0.7034443935618038,0.5497390447740189,-0.29057476563883644,0.29999999999999993,0.573625935114359,-0.2789326753251964,0.3
13.09999999999997,-2.23505170712509,-1.1755067494744715,1.5826471620270839,-1.9779367393475087,-1.5707963267948968,-0.6642553803301935,0.573625935114359,-0.2789326753251963,0.2999999999999996,0.5963517004759441,-0.2628916500953745,0.3
13.199999999999969,-2.1930857435163587,-1.1447539569834404,1.5374438843132134,-1.9634862541246696,-1.5707963267948968,-0.6222894167214621,0.596351700475944,-0.2628916500953744,0.3000000000000001,0.6175579419633075,-0.24270466649968894,0.3
13.299999999999969,-2.148605927468752,-1.1184176240610069,1.4980011741353112,-1.950379876869201,-1.5707963267948968,-0.5778096006738553,0.6175579419633077,-0.24270466649968916,0.29999999999999977,0.6369102244801991,-0.21869008532856313,0.3
13.399999999999968,-2.1018690280950443,-1.0962589429602336,1.464306140924194,-1.9388435247588567,-1.5707963267948966,-0.5310727013001478,0.6369102244801991,-0.2186900853285631,0.29999999999999993,0.6541033509708342,-0.19122663087268127,0.3
13.499999999999968,-2.0531390805845624,-1.0780104342987014,1.4362155554309202,-1.9290014479271156,-1.5707963267948966,-0.4823427537896657,0.6541033509708343,-0.19122663087268132,0.3000000000000002,0.6688661755597795,-0.16074741821468502,0.3
13.599999999999968,-2.002697634781867,-1.0633883668177466,1.4134888833921544,-1.9208968433693046,-1.5707963267948966,-0.4319013079869706,0.6688661755597799,-0.1607474182146849,0.3,0.6809658796843833,-0.12773312274559007,0.3
13.699999999999967,-1.9508508312006518,-1.0521101588708732,1.3958287640852438,-1.9145149320092674,-1.5707963267948966,-0.3800545044057552,0.6809658796843834,-0.12773312274558998,0.29999999999999993,0.6902116437825878,-0.0927043996267285,0.3
13.799999999999967,-1.8979333668377345,-1.043914806993081,1.3829254011336762,-1.9098069209354915,-1.5707963267948966,-0.3271370400428379,0.6902116437825879,-0.09270439962672852,0.2999999999999999,0.6964576566314128,-0.05621367274682916,0.3
13.899999999999967,-1.8443094405497007,-1.0385837704497103,1.3745002152100374,-1.9067127715552237,-1.5707963267948966,-0.2735131137548039,0.6964576566314125,-0.0562136727468291,0.3,0.6996054148770448,-0.01883642266729192,0.3
13.999999999999966,-1.7903709130997474,-1.0359595910604982,1.3703438545351534,-1.9051805902695516,-1.5707963267948966,-0.21957458630485047,0.6996054148770448,-0.018836422667291925,0.3,0.6996052764915707,0.018837889050042265,0.3
14.099999999999966,-1.7365331425797577,-1.035959819519995,1.3703442166460202,-1.9051807239209217,-1.5707963267948966,-0.1657368157848607,0.6996052764915703,0.01883788905004218,0.2999999999999999,0.696457243657412,0.056215116003847286,0.3
14.199999999999966,-1.6832292079168854,-1.0385844524419954,1.3745012946187296,-1.9067131689716308,-1.5707963267948963,-0.11243288112198896,0.696457243657412,0.05621511600384751,0.29999999999999993,0.6902109627329072,0.09270579699698911,0.3
14.299999999999965,-1.63090345065245,-1.0439159324987684,1.3829271772628884,-1.909807571559017,-1.5707963267948966,-0.06010712385755326,0.6902109627329069,0.0927057969969893,0.30000000000000016,0.680964941299583,0.1277344521917299,0.3
14.399999999999965,-1.5800053952969633,-1.052111711658638,1.3958312033020315,-1.9145158184382902,-1.5707963267948966,-0.00920906850206658,0.6809649412995828,0.12773445219172982,0.3,0.6688649946387484,0.16074865877054376,0.3
14.499999999999964,-1.5309851221185067,-1.0633903251542336,1.4134919400423192,-1.9208979416829823,-1.5707963267948966,0.039811204676390204,0.6688649946387488,0.1607486587705437,0.2999999999999998,0.6541019461374026,0.19122776297395203,0.3
14.599999999999964,-1.484291066772845,-1.078012771945386,1.4362191733337415,-1.929002728183252,-1.5707963267948968,0.08650526002205164,0.6541019461374027,0.1912277629739521,0.29999999999999993,0.6369086178894293,0.2186910911213328,0.3
14.699999999999964,-1.4403710434935575,-1.0962616304328867,1.4643102553059388,-1.9388449516679487,-1.5707963267948963,0.13042528330133904,0.6369086178894292,0.2186910911213328,0.3,0.6175561589520959,0.24270553012200452,0.3
14.799999999999963,-1.399677086882522,-1.118420630093026,1.4980057139051142,-1.950381410606985,-1.5707963267948966,0.17111923991237468,0.6175561589520959,0.24270553012200471,0.30000000000000004,0.5963497691634425,0.26289235792739624,0.3
14.899999999999963,-1.362674538339617,-1.1447572500968373,1.5374487745012415,-1.9634878511993006,-1.5707963267948966,0.20812178845527968,0.5963497691634425,0.26289235792739607,0.29999999999999993,0.5736238859585192,0.27893321620399064,0.3
14.999999999999963,-1.3298557093816632,-1.1755102995329163,1.5826523261403755,-1.9779383534023556,-1.5707963267948966,0.24094061741323342,0.5736238859585193,0.27893321620399064,0.30000000000000004,0.5497369100912526,0.29057513103442145,0.3
15.099999999999962,-1.3017584512765588,-1.210883427227349,1.6334750706422234,-1.993387970209771,-1.5707963267948966,0.2690378755183377,0.5497369100912526,0.29057513103442145,0.3,0.525065553440457,0.2976345024672699,0.3
15.199999999999962,-1.2789900269881969,-1.2510442603219023,1.6896065245014065,-2.0093585909744007,-1.5707963267948966,0.29180629980669953,0.5250655534404567,0.29763450246726986,0.30000000000000016,0.4999988980384694,0.2999999999979761,0.3
15.299999999999962,-1.262256742075067,-1.2961275053265715,1.7505586848174124,-2.0252275062857374,-1.5707963267948963,0.3085395847198296,0.4999988980384694,0.2999999999979761,0.30000000000000004,0.499998898038469,0.2999999999979761,0.3
15.399999999999961,-1.2622567420750668,-1.2961275053265726,1.7505586848174137,-2.025227506285738,-1.5707963267948966,0.3085395847198299,0.499998898038469,0.2999999999979761,0.30000000000000004,0.47493226001507305,0.2976343183174008,0.3
15.499999999999961,-1.2523996790772978,-1.3462388397566827,1.8156609194529747,-2.040218406491188,-1.5707963267948966,0.3183966477175988,0.4749322600150728,0.2976343183174007,0.2999999999999998,0.4502609552259814,0.29057476563883644,0.3
15.59999999999996,-1.2504362511696387,-1.4014544861222566,1.8840542249991645,-2.053396065671804,-1.5707963267948966,0.32036007562525803,0.4502609552259816,0.29057476563883655,0.2999999999999998,0.4263740648856412,0.2789326753251965,0.3
15.69999999999996,-1.2576054475884382,-1.4618083563495088,1.954681528715468,-2.0636694991608557,-1.5707963267948966,0.3131908792064586,0.4263740648856412,0.2789326753251965,0.30000000000000004,0.4036482995240562,0.2628916500953747,0.3
15.79999999999996,-1.2754102034269386,-1.5272536077070609,2.026272391967107,-2.0698151110549428,-1.5707963267948966,0.2953861233679579,0.4036482995240561,0.26289165009537474,0.3,0.38244205803669273,0.24270466649968916,0.3
15.89999999999996,-1.3056407019669711,-1.597577342575831,2.0973238463597226,-2.0705428305787876,-1.5707963267948966,0.2651556248279252,0.38244205803669284,0.2427046664996893,0.2999999999999999,0.36308977551980115,0.21869008532856352,0.3
15.99999999999996,-1.3503433186110145,-1.672236224250711,2.1660851923568667,-2.0646452949010525,-1.5707963267948966,0.220453008183882,0.36308977551980104,0.21869008532856354,0.30000000000000016,0.34589664902916606,0.1912266308726817,0.3
16.09999999999996,-1.4116661799889918,-1.7500722760255591,2.230564468205993,-2.0512885189753303,-1.5707963267948966,0.15913014680590487,0.34589664902916606,0.19122663087268157,0.30000000000000004,0.3311338244402208,0.16074741821468555,0.3
16.19999999999996,-1.4914646658050956,-1.82888114104216,2.288586733749683,-2.030501919502419,-1.5707963267948966,0.07933166098980086,0.3311338244402208,0.16074741821468563,0.30000000000000004,0.3190341203156169,0.12773312274559076,0.3
16.29999999999996,-1.5905187526736575,-1.9048832292484175,2.3379401044678922,-2.0038532020143713,-1.5707963267948966,-0.019722425878761024,0.31903412031561684,0.1277331227455908,0.29999999999999993,0.3097883562174123,0.09270439962672904,0.3
16.399999999999963,-1.7073064777468228,-1.9723469560793694,2.3766211621460265,-1.9750705328615537,-1.5707963267948966,-0.13651015095192603,0.30978835621741235,0.0927043996267291,0.30000000000000004,0.3035423433685873,0.05621367274682978,0.3
16.499999999999964,-1.8366880780085884,-2.0238981105945397,2.4031124819416885,-1.9500106981420453,-1.5707963267948966,-0.26589175121369174,0.3035423433685873,0.05621367274682985,0.29999999999999993,0.30039458512295525,0.01883642266729255,0.3
16.599999999999966,-1.969576501323132,-2.0520938490621052,2.4165306696983997,-1.9352331474311906,-1.5707963267948966,-0.3987801745282352,0.3003945851229552,0.018836422667292574,0.2999999999999999,0.30039472350842933,-0.01883788905004137,0.3
16.699999999999967,-2.0948281697425686,-2.052092997999904,2.4165302758097265,-1.9352336046047194,-1.5707963267948966,-0.5240318429476717,0.30039472350842933,-0.01883788905004139,0.30000000000000004,0.30354275634258787,-0.056215116003846606,0.3
16.79999999999997,-2.2029265761164134,-2.0238956997514226,2.4031113028082336,-1.9500119298517078,-1.5707963267948968,-0.6321302493215165,0.30354275634258765,-0.05621511600384666,0.3000000000000001,0.3097890372670927,-0.09270579699698876,0.3
16.89999999999997,-2.2888470760304322,-1.972343341557117,2.3766192135622526,-1.9750721988000324,-1.5707963267948966,-0.7180507492355354,0.3097890372670927,-0.09270579699698887,0.3,0.31903505870041693,-0.12773445219172944,0.3
16.99999999999997,-2.3521779875550255,-1.9048788306183562,2.3379374286256884,-2.0038549248022286,-1.5707963267948966,-0.7813816607601288,0.3190350587004168,-0.12773445219172933,0.29999999999999993,0.3311350053612515,-0.1607486587705436,0.3
17.099999999999973,-2.3953372817948164,-1.8288763196675089,2.2885834010628288,-2.0305034081902162,-1.5707963267948968,-0.8245409549999196,0.3311350053612515,-0.16074865877054353,0.3000000000000001,0.3458980538625975,-0.19122776297395205,0.3
17.199999999999974,-2.421712375538252,-1.7500672875174814,2.230560567252535,-2.05128960652995,-1.5707963267948968,-0.8509160487433555,0.3458980538625976,-0.19122776297395214,0.29999999999999993,0.3630913821105707,-0.21869109112133284,0.3
17.299999999999976,-2.434564328286557,-1.672231225767788,2.1660808171170753,-2.064645918144184,-1.5707963267948968,-0.8637680014916606,0.36309138211057074,-0.21869109112133273,0.29999999999999993,0.3824438410479043,-0.2427055301220047,0.3
17.399999999999977,-2.4366105579164583,-1.597572420802928,2.0973190873707668,-2.070542993362735,-1.5707963267948966,-0.8658142311215616,0.38244384104790435,-0.24270553012200458,0.29999999999999993,0.4036502308365578,-0.26289235792739646,0.3
17.49999999999998,-2.4299695532319485,-1.5272488064476148,2.0262673326363516,-2.0698148529836335,-1.5707963267948968,-0.8591732264370521,0.4036502308365578,-0.2628923579273964,0.30000000000000004,0.4263761140414811,-0.2789332162039908,0.3
17.59999999999998,-2.4162432015806456,-1.461803696716558,1.9546762453224056,-2.0636688754007437,-1.5707963267948966,-0.8454468747857489,0.4263761140414812,-0.2789332162039908,0.2999999999999997,0.4502630899087479,-0.2905751310344216,0.3
17.69999999999998,-2.39662888171497,-1.4014499793696524,1.8840487885797383,-2.0533951360049825,-1.5707963267948966,-0.8258325549200735,0.4502630899087479,-0.2905751310344217,0.29999999999999993,0.47493444655954364,-0.2976345024672701,0.3
17.799999999999983,-2.372021413279724,-1.3462344947874207,1.8156553982788184,-2.040217230286294,-1.5707963267948966,-0.8012250864848273,0.47493444655954364,-0.29763450246727013,0.30000000000000004,0.5000011019615311,-0.2999999999979761,0.3
17.899999999999984,-2.3430949773081546,-1.2961233328079846,1.7505531467233597,-2.025226140710272,-1.5707963267948966,-0.7722986505132583,0.5000011019615312,-0.2999999999979761,0.2999999999999998,0.5250677399849272,-0.2976343183174007,0.3
17.999999999999986,-2.3103659812281685,-1.2510402747321498,1.689601038665178,-2.009357090727925,-1.5707963267948966,-0.7395696544332715,0.5250677399849268,-0.29763431831740095,0.2999999999999999,0.5497390447740188,-0.2905747656388364,0.3
18.099999999999987,-2.2742407203567003,-1.2108796476226762,1.6334697086132737,-1.993386387785494,-1.5707963267948966,-0.7034443935618038,0.5497390447740189,-0.29057476563883644,0.29999999999999993,0.573625935114359,-0.2789326753251964,0.3
18.19999999999999,-2.23505170712509,-1.1755067494744715,1.5826471620270839,-1.9779367393475087,-1.5707963267948968,-0.6642553803301935,0.573625935114359,-0.2789326753251963,0.2999999999999996,0.5963517004759441,-0.2628916500953745,0.3
18.29999999999999,-2.1930857435163587,-1.1447539569834404,1.5374438843132134,-1.9634862541246696,-1.5707963267948968,-0.6222894167214621,0.596351700475944,-0.2628916500953744,0.3000000000000001,0.6175579419633075,-0.24270466649968894,0.3
18.39999999999999,-2.148605927468752,-1.1184176240610069,1.4980011741353112,-1.950379876869201,-1.5707963267948968,-0.5778096006738553,0.6175579419633077,-0.24270466649968916,0.29999999999999977,0.6369102244801991,-0.21869008532856313,0.3
18.499999999999993,-2.1018690280950443,-1.0962589429602336,1.464306140924194,-1.9388435247588567,-1.5707963267948966,-0.5310727013001478,0.6369102244801991,-0.2186900853285631,0.29999999999999993,0.6541033509708342,-0.19122663087268127,0.3
18.599999999999994,-2.0531390805845624,-1.0780104342987014,1.4362155554309202,-1.9290014479271156,-1.5707963267948966,-0.4823427537896657,0.6541033509708343,-0.19122663087268132,0.3000000000000002,0.6688661755597795,-0.16074741821468502,0.3
18.699999999999996,-2.002697634781867,-1.0633883668177466,1.4134888833921544,-1.9208968433693046,-1.5707963267948966,-0.4319013079869706,0.6688661755597799,-0.1607474182146849,0.3,0.6809658796843833,-0.12773312274559007,0.3
18.799999999999997,-1.9508508312006518,-1.0521101588708732,1.3958287640852438,-1.9145149320092674,-1.5707963267948966,-0.3800545044057552,0.6809658796843834,-0.12773312274558998,0.29999999999999993,0.6902116437825878,-0.0927043996267285,0.3
18.9,-1.8979333668377345,-1.043914806993081,1.3829254011336762,-1.9098069209354915,-1.5707963267948966,-0.3271370400428379,0.6902116437825879,-0.09270439962672852,0.2999999999999999,0.6964576566314128,-0.05621367274682916,0.3
19.0,-1.8443094405497007,-1.0385837704497103,1.3745002152100374,-1.9067127715552237,-1.5707963267948966,-0.2735131137548039,0.6964576566314125,-0.0562136727468291,0.3,0.6996054148770448,-0.01883642266729192,0.3
19.1,-1.7903709130997474,-1.0359595910604982,1.3703438545351534,-1.9051805902695516,-1.5707963267948966,-0.21957458630485047,0.6996054148770448,-0.018836422667291925,0.3,0.6996052764915707,0.018837889050042265,0.3
19.200000000000003,-1.7365331425797577,-1.035959819519995,1.3703442166460202,-1.9051807239209217,-1.5707963267948966,-0.1657368157848607,0.6996052764915703,0.01883788905004218,0.2999999999999999,0.696457243657412,0.056215116003847286,0.3
19.300000000000004,-1.6832292079168854,-1.0385844524419954,1.3745012946187296,-1.9067131689716308,-1.5707963267948963,-0.11243288112198896,0.696457243657412,0.05621511600384751,0.29999999999999993,0.6902109627329072,0.09270579699698911,0.3
19.400000000000006,-1.63090345065245,-1.0439159324987684,1.3829271772628884,-1.909807571559017,-1.5707963267948966,-0.06010712385755326,0.6902109627329069,0.0927057969969893,0.30000000000000016,0.680964941299583,0.1277344521917299,0.3
19.500000000000007,-1.5800053952969633,-1.052111711658638,1.3958312033020315,-1.9145158184382902,-1.5707963267948966,-0.00920906850206658,0.6809649412995828,0.12773445219172982,0.3,0.6688649946387484,0.16074865877054376,0.3
19.60000000000001,-1.5309851221185067,-1.0633903251542336,1.4134919400423192,-1.9208979416829823,-1.5707963267948966,0.039811204676390204,0.6688649946387488,0.1607486587705437,0.2999999999999998,0.6541019461374026,0.19122776297395203,0.3
19.70000000000001,-1.484291066772845,-1.078012771945386,1.4362191733337415,-1.929002728183252,-1.5707963267948968,0.08650526002205164,0.6541019461374027,0.1912277629739521,0.29999999999999993,0.6369086178894293,0.2186910911213328,0.3
19.80000000000001,-1.4403710434935575,-1.0962616304328867,1.4643102553059388,-1.9388449516679487,-1.5707963267948963,0.13042528330133904,0.6369086178894292,0.2186910911213328,0.3,0.6175561589520959,0.24270553012200452,0.3
19.900000000000013,-1.399677086882522,-1.118420630093026,1.4980057139051142,-1.950381410606985,-1.5707963267948966,0.17111923991237468,0.6175561589520959,0.24270553012200471,0.30000000000000004,0.5963497691634425,0.26289235792739624,0.3
20.000000000000014,-1.362674538339617,-1.1447572500968373,1.5374487745012415,-1.9634878511993006,-1.5707963267948966,0.20812178845527968,0.5963497691634425,0.26289235792739607,0.29999999999999993,0.5736238859585192,0.27893321620399064,0.3
20.100000000000016,-1.3298557093816632,-1.1755102995329163,1.5826523261403755,-1.9779383534023556,-1.5707963267948966,0.24094061741323342,0.5736238859585193,0.27893321620399064,0.30000000000000004,0.5497369100912526,0.29057513103442145,0.3
20.200000000000017,-1.3017584512765588,-1.210883427227349,1.6334750706422234,-1.993387970209771,-1.5707963267948966,0.2690378755183377,0.5497369100912526,0.29057513103442145,0.3,0.525065553440457,0.2976345024672699,0.3
20.30000000000002,-1.2789900269881969,-1.2510442603219023,1.6896065245014065,-2.0093585909744007,-1.5707963267948966,0.29180629980669953,0.5250655534404567,0.29763450246726986,0.30000000000000016,0.4999988980384694,0.2999999999979761,0.3
20.40000000000002,-1.262256742075067,-1.2961275053265715,1.7505586848174124,-2.0252275062857374,-1.5707963267948963,0.3085395847198296,0.4999988980384694,0.2999999999979761,0.30000000000000004,0.499998898038469,0.2999999999979761,0.3
20.50000000000002,-1.2622567420750668,-1.2961275053265726,1.7505586848174137,-2.025227506285738,-1.5707963267948966,0.3085395847198299,0.499998898038469,0.2999999999979761,0.30000000000000004,0.47493226001507305,0.2976343183174008,0.3
20.600000000000023,-1.2523996790772978,-1.3462388397566827,1.8156609194529747,-2.040218406491188,-1.5707963267948966,0.3183966477175988,0.4749322600150728,0.2976343183174007,0.2999999999999998,0.4502609552259814,0.29057476563883644,0.3
20.700000000000024,-1.2504362511696387,-1.4014544861222566,1.8840542249991645,-2.053396065671804,-1.5707963267948966,0.32036007562525803,0.4502609552259816,0.29057476563883655,0.2999999999999998,0.4263740648856412,0.2789326753251965,0.3
20.800000000000026,-1.2576054475884382,-1.4618083563495088,1.954681528715468,-2.0636694991608557,-1.5707963267948966,0.3131908792064586,0.4263740648856412,0.2789326753251965,0.30000000000000004,0.4036482995240562,0.2628916500953747,0.3
20.900000000000027,-1.2754102034269386,-1.5272536077070609,2.026272391967107,-2.0698151110549428,-1.5707963267948966,0.2953861233679579,0.4036482995240561,0.26289165009537474,0.3,0.38244205803669273,0.24270466649968916,0.3
21.00000000000003,-1.3056407019669711,-1.597577342575831,2.0973238463597226,-2.0705428305787876,-1.5707963267948966,0.2651556248279252,0.38244205803669284,0.2427046664996893,0.2999999999999999,0.36308977551980115,0.21869008532856352,0.3
21.10000000000003,-1.3503433186110145,-1.672236224250711,2.1660851923568667,-2.0646452949010525,-1.5707963267948966,0.220453008183882,0.36308977551980104,0.21869008532856354,0.30000000000000016,0.34589664902916606,0.1912266308726817,0.3
21.20000000000003,-1.4116661799889918,-1.7500722760255591,2.230564468205993,-2.0512885189753303,-1.5707963267948966,0.15913014680590487,0.34589664902916606,0.19122663087268157,0.30000000000000004,0.3311338244402208,0.16074741821468555,0.3
21.300000000000033,-1.4914646658050956,-1.82888114104216,2.288586733749683,-2.030501919502419,-1.5707963267948966,0.07933166098980086,0.3311338244402208,0.16074741821468563,0.30000000000000004,0.3190341203156169,0.12773312274559076,0.3
21.400000000000034,-1.5905187526736575,-1.9048832292484175,2.3379401044678922,-2.0038532020143713,-1.5707963267948966,-0.019722425878761024,0.31903412031561684,0.1277331227455908,0.29999999999999993,0.3097883562174123,0.09270439962672904,0.3
21.500000000000036,-1.7073064777468228,-1.9723469560793694,2.3766211621460265,-1.9750705328615537,-1.5707963267948966,-0.13651015095192603,0.30978835621741235,0.0927043996267291,0.30000000000000004,0.3035423433685873,0.05621367274682978,0.3
21.600000000000037,-1.8366880780085884,-2.0238981105945397,2.4031124819416885,-1.9500106981420453,-1.5707963267948966,-0.26589175121369174,0.3035423433685873,0.05621367274682985,0.29999999999999993,0.30039458512295525,0.01883642266729255,0.3
21.70000000000004,-1.969576501323132,-2.0520938490621052,2.4165306696983997,-1.9352331474311906,-1.5707963267948966,-0.3987801745282352,0.3003945851229552,0.018836422667292574,0.2999999999999999,0.30039472350842933,-0.01883788905004137,0.3
21.80000000000004,-2.0948281697425686,-2.052092997999904,2.4165302758097265,-1.9352336046047194,-1.5707963267948966,-0.5240318429476717,0.30039472350842933,-0.01883788905004139,0.30000000000000004,0.30354275634258787,-0.056215116003846606,0.3
21.90000000000004,-2.2029265761164134,-2.0238956997514226,2.4031113028082336,-1.9500119298517078,-1.5707963267948968,-0.6321302493215165,0.30354275634258765,-0.05621511600384666,0.3000000000000001,0.3097890372670927,-0.09270579699698876,0.3
22.000000000000043,-2.2888470760304322,-1.972343341557117,2.3766192135622526,-1.9750721988000324,-1.5707963267948966,-0.7180507492355354,0.3097890372670927,-0.09270579699698887,0.3,0.31903505870041693,-0.12773445219172944,0.3
22.100000000000044,-2.3521779875550255,-1.9048788306183562,2.3379374286256884,-2.0038549248022286,-1.5707963267948966,-0.7813816607601288,0.3190350587004168,-0.12773445219172933,0.29999999999999993,0.3311350053612515,-0.1607486587705436,0.3
22.200000000000045,-2.3953372817948164,-1.8288763196675089,2.2885834010628288,-2.0305034081902162,-1.5707963267948968,-0.8245409549999196,0.3311350053612515,-0.16074865877054353,0.3000000000000001,0.3458980538625975,-0.19122776297395205,0.3
22.300000000000047,-2.421712375538252,-1.7500672875174814,2.230560567252535,-2.05128960652995,-1.5707963267948968,-0.8509160487433555,0.3458980538625976,-0.19122776297395214,0.29999999999999993,0.3630913821105707,-0.21869109112133284,0.3
22.40000000000005,-2.434564328286557,-1.672231225767788,2.1660808171170753,-2.064645918144184,-1.5707963267948968,-0.8637680014916606,0.36309138211057074,-0.21869109112133273,0.29999999999999993,0.3824438410479043,-0.2427055301220047,0.3
22.50000000000005,-2.4366105579164583,-1.597572420802928,2.0973190873707668,-2.070542993362735,-1.5707963267948966,-0.8658142311215616,0.38244384104790435,-0.24270553012200458,0.29999999999999993,0.4036502308365578,-0.26289235792739646,0.3
22.60000000000005,-2.4299695532319485,-1.5272488064476148,2.0262673326363516,-2.0698148529836335,-1.5707963267948968,-0.8591732264370521,0.4036502308365578,-0.2628923579273964,0.30000000000000004,0.4263761140414811,-0.2789332162039908,0.3
22.700000000000053,-2.4162432015806456,-1.461803696716558,1.9546762453224056,-2.0636688754007437,-1.5707963267948966,-0.8454468747857489,0.4263761140414812,-0.2789332162039908,0.2999999999999997,0.4502630899087479,-0.2905751310344216,0.3
22.800000000000054,-2.39662888171497,-1.4014499793696524,1.8840487885797383,-2.0533951360049825,-1.5707963267948966,-0.8258325549200735,0.4502630899087479,-0.2905751310344217,0.29999999999999993,0.47493444655954364,-0.2976345024672701,0.3
22.900000000000055,-2.372021413279724,-1.3462344947874207,1.8156553982788184,-2.040217230286294,-1.5707963267948966,-0.8012250864848273,0.47493444655954364,-0.29763450246727013,0.30000000000000004,0.5000011019615311,-0.2999999999979761,0.3
23.000000000000057,-2.3430949773081546,-1.2961233328079846,1.7505531467233597,-2.025226140710272,-1.5707963267948966,-0.7722986505132583,0.5000011019615312,-0.2999999999979761,0.2999999999999998,0.5250677399849272,-0.2976343183174007,0.3
23.10000000000006,-2.3103659812281685,-1.2510402747321498,1.689601038665178,-2.009357090727925,-1.5707963267948966,-0.7395696544332715,0.5250677399849268,-0.29763431831740095,0.2999999999999999,0.5497390447740188,-0.2905747656388364,0.3
23.20000000000006,-2.2742407203567003,-1.2108796476226762,1.6334697086132737,-1.993386387785494,-1.5707963267948966,-0.7034443935618038,0.5497390447740189,-0.29057476563883644,0.29999999999999993,0.573625935114359,-0.2789326753251964,0.3
23.30000000000006,-2.23505170712509,-1.1755067494744715,1.5826471620270839,-1.9779367393475087,-1.5707963267948968,-0.6642553803301935,0.573625935114359,-0.2789326753251963,0.2999999999999996,0.5963517004759441,-0.2628916500953745,0.3
23.400000000000063,-2.1930857435163587,-1.1447539569834404,1.5374438843132134,-1.9634862541246696,-1.5707963267948968,-0.6222894167214621,0.596351700475944,-0.2628916500953744,0.3000000000000001,0.6175579419633075,-0.24270466649968894,0.3
23.500000000000064,-2.148605927468752,-1.1184176240610069,1.4980011741353112,-1.950379876869201,-1.5707963267948968,-0.5778096006738553,0.6175579419633077,-0.24270466649968916,0.29999999999999977,0.6369102244801991,-0.21869008532856313,0.3
23.600000000000065,-2.1018690280950443,-1.0962589429602336,1.464306140924194,-1.9388435247588567,-1.5707963267948966,-0.5310727013001478,0.6369102244801991,-0.2186900853285631,0.29999999999999993,0.6541033509708342,-0.19122663087268127,0.3
23.700000000000067,-2.0531390805845624,-1.0780104342987014,1.4362155554309202,-1.9290014479271156,-1.5707963267948966,-0.4823427537896657,0.6541033509708343,-0.19122663087268132,0.3000000000000002,0.6688661755597795,-0.16074741821468502,0.3
23.800000000000068,-2.002697634781867,-1.0633883668177466,1.4134888833921544,-1.9208968433693046,-1.5707963267948966,-0.4319013079869706,0.6688661755597799,-0.1607474182146849,0.3,0.6809658796843833,-0.12773312274559007,0.3
23.90000000000007,-1.9508508312006518,-1.0521101588708732,1.3958287640852438,-1.9145149320092674,-1.5707963267948966,-0.3800545044057552,0.6809658796843834,-0.12773312274558998,0.29999999999999993,0.6902116437825878,-0.0927043996267285,0.3
24.00000000000007,-1.8979333668377345,-1.043914806993081,1.3829254011336762,-1.9098069209354915,-1.5707963267948966,-0.3271370400428379,0.6902116437825879,-0.09270439962672852,0.2999999999999999,0.6964576566314128,-0.05621367274682916,0.3
24.100000000000072,-1.8443094405497007,-1.0385837704497103,1.3745002152100374,-1.9067127715552237,-1.5707963267948966,-0.2735131137548039,0.6964576566314125,-0.0562136727468291,0.3,0.6996054148770448,-0.01883642266729192,0.3
24.200000000000074,-1.7903709130997474,-1.0359595910604982,1.3703438545351534,-1.9051805902695516,-1.5707963267948966,-0.21957458630485047,0.6996054148770448,-0.018836422667291925,0.3,0.6996052764915707,0.018837889050042265,0.3
24.300000000000075,-1.7365331425797577,-1.035959819519995,1.3703442166460202,-1.9051807239209217,-1.5707963267948966,-0.1657368157848607,0.6996052764915703,0.01883788905004218,0.2999999999999999,0.696457243657412,0.056215116003847286,0.3
24.400000000000077,-1.6832292079168854,-1.0385844524419954,1.3745012946187296,-1.9067131689716308,-1.5707963267948963,-0.11243288112198896,0.696457243657412,0.05621511600384751,0.29999999999999993,0.6902109627329072,0.09270579699698911,0.3
24.500000000000078,-1.63090345065245,-1.0439159324987684,1.3829271772628884,-1.909807571559017,-1.5707963267948966,-0.06010712385755326,0.6902109627329069,0.0927057969969893,0.30000000000000016,0.680964941299583,0.1277344521917299,0.3
24.60000000000008,-1.5800053952969633,-1.052111711658638,1.3958312033020315,-1.9145158184382902,-1.5707963267948966,-0.00920906850206658,0.6809649412995828,0.12773445219172982,0.3,0.6688649946387484,0.16074865877054376,0.3
24.70000000000008,-1.5309851221185067,-1.0633903251542336,1.4134919400423192,-1.9208979416829823,-1.5707963267948966,0.039811204676390204,0.6688649946387488,0.1607486587705437,0.2999999999999998,0.6541019461374026,0.19122776297395203,0.3
24.800000000000082,-1.484291066772845,-1.078012771945386,1.4362191733337415,-1.929002728183252,-1.5707963267948968,0.08650526002205164,0.6541019461374027,0.1912277629739521,0.29999999999999993,0.6369086178894293,0.2186910911213328,0.3
24.900000000000084,-1.4403710434935575,-1.0962616304328867,1.4643102553059388,-1.9388449516679487,-1.5707963267948963,0.13042528330133904,0.6369086178894292,0.2186910911213328,0.3,0.6175561589520959,0.24270553012200452,0.3
25.000000000000085,-1.399677086882522,-1.118420630093026,1.4980057139051142,-1.950381410606985,-1.5707963267948966,0.17111923991237468,0.6175561589520959,0.24270553012200471,0.30000000000000004,0.5963497691634425,0.26289235792739624,0.3
25.100000000000087,-1.362674538339617,-1.1447572500968373,1.5374487745012415,-1.9634878511993006,-1.5707963267948966,0.20812178845527968,0.5963497691634425,0.26289235792739607,0.29999999999999993,0.5736238859585192,0.27893321620399064,0.3
25.200000000000088,-1.3298557093816632,-1.1755102995329163,1.5826523261403755,-1.9779383534023556,-1.5707963267948966,0.24094061741323342,0.5736238859585193,0.27893321620399064,0.30000000000000004,0.5497369100912526,0.29057513103442145,0.3
25.30000000000009,-1.3017584512765588,-1.210883427227349,1.6334750706422234,-1.993387970209771,-1.5707963267948966,0.2690378755183377,0.5497369100912526,0.29057513103442145,0.3,0.525065553440457,0.2976345024672699,0.3
25.40000000000009,-1.2789900269881969,-1.2510442603219023,1.6896065245014065,-2.0093585909744007,-1.5707963267948966,0.29180629980669953,0.5250655534404567,0.29763450246726986,0.30000000000000016,0.4999988980384694,0.2999999999979761,0.3
25.500000000000092,-1.262256742075067,-1.2961275053265715,1.7505586848174124,-2.0252275062857374,-1.5707963267948963,0.3085395847198296,0.4999988980384694,0.2999999999979761,0.30000000000000004,0.499998898038469,0.2999999999979761,0.3
25.600000000000094,-1.2622567420750668,-1.2961275053265726,1.7505586848174137,-2.025227506285738,-1.5707963267948966,0.3085395847198299,0.499998898038469,0.2999999999979761,0.30000000000000004,0.47493226001507305,0.2976343183174008,0.3
25.700000000000095,-1.2523996790772978,-1.3462388397566827,1.8156609194529747,-2.040218406491188,-1.5707963267948966,0.3183966477175988,0.4749322600150728,0.2976343183174007,0.2999999999999998,0.4502609552259814,0.29057476563883644,0.3
25.800000000000097,-1.2504362511696387,-1.4014544861222566,1.8840542249991645,-2.053396065671804,-1.5707963267948966,0.32036007562525803,0.4502609552259816,0.29057476563883655,0.2999999999999998,0.4263740648856412,0.2789326753251965,0.3
25.900000000000098,-1.2576054475884382,-1.4618083563495088,1.954681528715468,-2.0636694991608557,-1.5707963267948966,0.3131908792064586,0.4263740648856412,0.2789326753251965,0.30000000000000004,0.4036482995240562,0.2628916500953747,0.3
26.0000000000001,-1.2754102034269386,-1.5272536077070609,2.026272391967107,-2.0698151110549428,-1.5707963267948966,0.2953861233679579,0.4036482995240561,0.26289165009537474,0.3,0.38244205803669273,0.24270466649968916,0.3
26.1000000000001,-1.3056407019669711,-1.597577342575831,2.0973238463597226,-2.0705428305787876,-1.5707963267948966,0.2651556248279252,0.38244205803669284,0.2427046664996893,0.2999999999999999,0.36308977551980115,0.21869008532856352,0.3
26.200000000000102,-1.3503433186110145,-1.672236224250711,2.1660851923568667,-2.0646452949010525,-1.5707963267948966,0.220453008183882,0.36308977551980104,0.21869008532856354,0.30000000000000016,0.34589664902916606,0.1912266308726817,0.3
26.300000000000104,-1.4116661799889918,-1.7500722760255591,2.230564468205993,-2.0512885189753303,-1.5707963267948966,0.15913014680590487,0.34589664902916606,0.19122663087268157,0.30000000000000004,0.3311338244402208,0.16074741821468555,0.3
26.400000000000105,-1.4914646658050956,-1.82888114104216,2.288586733749683,-2.030501919502419,-1.5707963267948966,0.07933166098980086,0.3311338244402208,0.16074741821468563,0.30000000000000004,0.3190341203156169,0.12773312274559076,0.3
26.500000000000107,-1.5905187526736575,-1.9048832292484175,2.3379401044678922,-2.0038532020143713,-1.5707963267948966,-0.019722425878761024,0.31903412031561684,0.1277331227455908,0.29999999999999993,0.3097883562174123,0.09270439962672904,0.3
26.600000000000108,-1.7073064777468228,-1.9723469560793694,2.3766211621460265,-1.9750705328615537,-1.5707963267948966,-0.13651015095192603,0.30978835621741235,0.0927043996267291,0.30000000000000004,0.3035423433685873,0.05621367274682978,0.3
26.70000000000011,-1.8366880780085884,-2.0238981105945397,2.4031124819416885,-1.9500106981420453,-1.5707963267948966,-0.26589175121369174,0.3035423433685873,0.05621367274682985,0.29999999999999993,0.30039458512295525,0.01883642266729255,0.3
26.80000000000011,-1.969576501323132,-2.0520938490621052,2.4165306696983997,-1.9352331474311906,-1.5707963267948966,-0.3987801745282352,0.3003945851229552,0.018836422667292574,0.2999999999999999,0.30039472350842933,-0.01883788905004137,0.3
26.900000000000112,-2.0948281697425686,-2.052092997999904,2.4165302758097265,-1.9352336046047194,-1.5707963267948966,-0.5240318429476717,0.30039472350842933,-0.01883788905004139,0.30000000000000004,0.30354275634258787,-0.056215116003846606,0.3
27.000000000000114,-2.2029265761164134,-2.0238956997514226,2.4031113028082336,-1.9500119298517078,-1.5707963267948968,-0.6321302493215165,0.30354275634258765,-0.05621511600384666,0.3000000000000001,0.3097890372670927,-0.09270579699698876,0.3
27.100000000000115,-2.2888470760304322,-1.972343341557117,2.3766192135622526,-1.9750721988000324,-1.5707963267948966,-0.7180507492355354,0.3097890372670927,-0.09270579699698887,0.3,0.31903505870041693,-0.12773445219172944,0.3
27.200000000000117,-2.3521779875550255,-1.9048788306183562,2.3379374286256884,-2.0038549248022286,-1.5707963267948966,-0.7813816607601288,0.3190350587004168,-0.12773445219172933,0.29999999999999993,0.3311350053612515,-0.1607486587705436,0.3
27.300000000000118,-2.3953372817948164,-1.8288763196675089,2.2885834010628288,-2.0305034081902162,-1.5707963267948968,-0.8245409549999196,0.3311350053612515,-0.16074865877054353,0.3000000000000001,0.3458980538625975,-0.19122776297395205,0.3
27.40000000000012,-2.421712375538252,-1.7500672875174814,2.230560567252535,-2.05128960652995,-1.5707963267948968,-0.8509160487433555,0.3458980538625976,-0.19122776297395214,0.29999999999999993,0.3630913821105707,-0.21869109112133284,0.3
27.50000000000012,-2.434564328286557,-1.672231225767788,2.1660808171170753,-2.064645918144184,-1.5707963267948968,-0.8637680014916606,0.36309138211057074,-0.21869109112133273,0.29999999999999993,0.3824438410479043,-0.2427055301220047,0.3
27.600000000000122,-2.4366105579164583,-1.597572420802928,2.0973190873707668,-2.070542993362735,-1.5707963267948966,-0.8658142311215616,0.38244384104790435,-0.24270553012200458,0.29999999999999993,0.4036502308365578,-0.26289235792739646,0.3
27.700000000000124,-2.4299695532319485,-1.5272488064476148,2.0262673326363516,-2.0698148529836335,-1.5707963267948968,-0.8591732264370521,0.4036502308365578,-0.2628923579273964,0.30000000000000004,0.4263761140414811,-0.2789332162039908,0.3
27.800000000000125,-2.4162432015806456,-1.461803696716558,1.9546762453224056,-2.0636688754007437,-1.5707963267948966,-0.8454468747857489,0.4263761140414812,-0.2789332162039908,0.2999999999999997,0.4502630899087479,-0.2905751310344216,0.3
27.900000000000126,-2.39662888171497,-1.4014499793696524,1.8840487885797383,-2.0533951360049825,-1.5707963267948966,-0.8258325549200735,0.4502630899087479,-0.2905751310344217,0.29999999999999993,0.47493444655954364,-0.2976345024672701,0.3
28.000000000000128,-2.372021413279724,-1.3462344947874207,1.8156553982788184,-2.040217230286294,-1.5707963267948966,-0.8012250864848273,0.47493444655954364,-0.29763450246727013,0.30000000000000004,0.5000011019615311,-0.2999999999979761,0.3
28.10000000000013,-2.3430949773081546,-1.2961233328079846,1.7505531467233597,-2.025226140710272,-1.5707963267948966,-0.7722986505132583,0.5000011019615312,-0.2999999999979761,0.2999999999999998,0.5250677399849272,-0.2976343183174007,0.3
28.20000000000013,-2.3103659812281685,-1.2510402747321498,1.689601038665178,-2.009357090727925,-1.5707963267948966,-0.7395696544332715,0.5250677399849268,-0.29763431831740095,0.2999999999999999,0.5497390447740188,-0.2905747656388364,0.3
28.300000000000132,-2.2742407203567003,-1.2108796476226762,1.6334697086132737,-1.993386387785494,-1.5707963267948966,-0.7034443935618038,0.5497390447740189,-0.29057476563883644,0.29999999999999993,0.573625935114359,-0.2789326753251964,0.3
28.400000000000134,-2.23505170712509,-1.1755067494744715,1.5826471620270839,-1.9779367393475087,-1.5707963267948968,-0.6642553803301935,0.573625935114359,-0.2789326753251963,0.2999999999999996,0.5963517004759441,-0.2628916500953745,0.3
28.500000000000135,-2.1930857435163587,-1.1447539569834404,1.5374438843132134,-1.9634862541246696,-1.5707963267948968,-0.6222894167214621,0.596351700475944,-0.2628916500953744,0.3000000000000001,0.6175579419633075,-0.24270466649968894,0.3
28.600000000000136,-2.148605927468752,-1.1184176240610069,1.4980011741353112,-1.950379876869201,-1.5707963267948968,-0.5778096006738553,0.6175579419633077,-0.24270466649968916,0.29999999999999977,0.6369102244801991,-0.21869008532856313,0.3
28.700000000000138,-2.1018690280950443,-1.0962589429602336,1.464306140924194,-1.9388435247588567,-1.5707963267948966,-0.5310727013001478,0.6369102244801991,-0.2186900853285631,0.29999999999999993,0.6541033509708342,-0.19122663087268127,0.3
28.80000000000014,-2.0531390805845624,-1.0780104342987014,1.4362155554309202,-1.9290014479271156,-1.5707963267948966,-0.4823427537896657,0.6541033509708343,-0.19122663087268132,0.3000000000000002,0.6688661755597795,-0.16074741821468502,0.3
28.90000000000014,-2.002697634781867,-1.0633883668177466,1.4134888833921544,-1.9208968433693046,-1.5707963267948966,-0.4319013079869706,0.6688661755597799,-0.1607474182146849,0.3,0.6809658796843833,-0.12773312274559007,0.3
29.000000000000142,-1.9508508312006518,-1.0521101588708732,1.3958287640852438,-1.9145149320092674,-1.5707963267948966,-0.3800545044057552,0.6809658796843834,-0.12773312274558998,0.29999999999999993,0.6902116437825878,-0.0927043996267285,0.3
29.100000000000144,-1.8979333668377345,-1.043914806993081,1.3829254011336762,-1.9098069209354915,-1.5707963267948966,-0.3271370400428379,0.6902116437825879,-0.09270439962672852,0.2999999999999999,0.6964576566314128,-0.05621367274682916,0.3
29.200000000000145,-1.8443094405497007,-1.0385837704497103,1.3745002152100374,-1.9067127715552237,-1.5707963267948966,-0.2735131137548039,0.6964576566314125,-0.0562136727468291,0.3,0.6996054148770448,-0.01883642266729192,0.3
29.300000000000146,-1.7903709130997474,-1.0359595910604982,1.3703438545351534,-1.9051805902695516,-1.5707963267948966,-0.21957458630485047,0.6996054148770448,-0.018836422667291925,0.3,0.6996052764915707,0.018837889050042265,0.3
29.400000000000148,-1.7365331425797577,-1.035959819519995,1.3703442166460202,-1.9051807239209217,-1.5707963267948966,-0.1657368157848607,0.6996052764915703,0.01883788905004218,0.2999999999999999,0.696457243657412,0.056215116003847286,0.3
29.50000000000015,-1.6832292079168854,-1.0385844524419954,1.3745012946187296,-1.9067131689716308,-1.5707963267948963,-0.11243288112198896,0.696457243657412,0.05621511600384751,0.29999999999999993,0.6902109627329072,0.09270579699698911,0.3
29.60000000000015,-1.63090345065245,-1.0439159324987684,1.3829271772628884,-1.909807571559017,-1.5707963267948966,-0.06010712385755326,0.6902109627329069,0.0927057969969893,0.30000000000000016,0.680964941299583,0.1277344521917299,0.3
29.700000000000152,-1.5800053952969633,-1.052111711658638,1.3958312033020315,-1.9145158184382902,-1.5707963267948966,-0.00920906850206658,0.6809649412995828,0.12773445219172982,0.3,0.6688649946387484,0.16074865877054376,0.3
29.800000000000153,-1.5309851221185067,-1.0633903251542336,1.4134919400423192,-1.9208979416829823,-1.5707963267948966,0.039811204676390204,0.6688649946387488,0.1607486587705437,0.2999999999999998,0.6541019461374026,0.19122776297395203,0.3
29.900000000000155,-1.484291066772845,-1.078012771945386,1.4362191733337415,-1.929002728183252,-1.5707963267948968,0.08650526002205164,0.6541019461374027,0.1912277629739521,0.29999999999999993,0.6369086178894293,0.2186910911213328,0.3
30.000000000000156,-1.4403710434935575,-1.0962616304328867,1.4643102553059388,-1.9388449516679487,-1.5707963267948963,0.13042528330133904,0.6369086178894292,0.2186910911213328,0.3,0.6175561589520959,0.24270553012200452,0.3
30.100000000000158,-1.399677086882522,-1.118420630093026,1.4980057139051142,-1.950381410606985,-1.5707963267948966,0.17111923991237468,0.6175561589520959,0.24270553012200471,0.30000000000000004,0.5963497691634425,0.26289235792739624,0.3
30.20000000000016,-1.362674538339617,-1.1447572500968373,1.5374487745012415,-1.9634878511993006,-1.5707963267948966,0.20812178845527968,0.5963497691634425,0.26289235792739607,0.29999999999999993,0.5736238859585192,0.27893321620399064,0.3
30.30000000000016,-1.3298557093816632,-1.1755102995329163,1.5826523261403755,-1.9779383534023556,-1.5707963267948966,0.24094061741323342,0.5736238859585193,0.27893321620399064,0.30000000000000004,0.5497369100912526,0.29057513103442145,0.3
30.400000000000162,-1.3017584512765588,-1.210883427227349,1.6334750706422234,-1.993387970209771,-1.5707963267948966,0.2690378755183377,0.5497369100912526,0.29057513103442145,0.3,0.525065553440457,0.2976345024672699,0.3
30.500000000000163,-1.2789900269881969,-1.2510442603219023,1.6896065245014065,-2.0093585909744007,-1.5707963267948966,0.29180629980669953,0.5250655534404567,0.29763450246726986,0.30000000000000016,0.4999988980384694,0.2999999999979761,0.3
30.600000000000165,-1.262256742075067,-1.2961275053265715,1.7505586848174124,-2.0252275062857374,-1.5707963267948963,0.3085395847198296,0.4999988980384694,0.2999999999979761,0.30000000000000004,0.499998898038469,0.2999999999979761,0.3
30.700000000000166,-1.2622567420750668,-1.2961275053265726,1.7505586848174137,-2.025227506285738,-1.5707963267948966,0.3085395847198299,0.499998898038469,0.2999999999979761,0.30000000000000004,0.47493226001507305,0.2976343183174008,0.3
30.800000000000168,-1.2523996790772978,-1.3462388397566827,1.8156609194529747,-2.040218406491188,-1.5707963267948966,0.3183966477175988,0.4749322600150728,0.2976343183174007,0.2999999999999998,0.4502609552259814,0.29057476563883644,0.3
30.90000000000017,-1.2504362511696387,-1.4014544861222566,1.8840542249991645,-2.053396065671804,-1.5707963267948966,0.32036007562525803,0.4502609552259816,0.29057476563883655,0.2999999999999998,0.4263740648856412,0.2789326753251965,0.3
31.00000000000017,-1.2576054475884382,-1.4618083563495088,1.954681528715468,-2.0636694991608557,-1.5707963267948966,0.3131908792064586,0.4263740648856412,0.2789326753251965,0.30000000000000004,0.4036482995240562,0.2628916500953747,0.3
31.100000000000172,-1.2754102034269386,-1.5272536077070609,2.026272391967107,-2.0698151110549428,-1.5707963267948966,0.2953861233679579,0.4036482995240561,0.26289165009537474,0.3,0.38244205803669273,0.24270466649968916,0.3
31.200000000000173,-1.3056407019669711,-1.597577342575831,2.0973238463597226,-2.0705428305787876,-1.5707963267948966,0.2651556248279252,0.38244205803669284,0.2427046664996893,0.2999999999999999,0.36308977551980115,0.21869008532856352,0.3
31.300000000000175,-1.3503433186110145,-1.672236224250711,2.1660851923568667,-2.0646452949010525,-1.5707963267948966,0.220453008183882,0.36308977551980104,0.21869008532856354,0.30000000000000016,0.34589664902916606,0.1912266308726817,0.3
31.400000000000176,-1.4116661799889918,-1.7500722760255591,2.230564468205993,-2.0512885189753303,-1.5707963267948966,0.15913014680590487,0.34589664902916606,0.19122663087268157,0.30000000000000004,0.3311338244402208,0.16074741821468555,0.3
31.500000000000178,-1.4914646658050956,-1.82888114104216,2.288586733749683,-2.030501919502419,-1.5707963267948966,0.07933166098980086,0.3311338244402208,0.16074741821468563,0.30000000000000004,0.3190341203156169,0.12773312274559076,0.3
31.60000000000018,-1.5905187526736575,-1.9048832292484175,2.3379401044678922,-2.0038532020143713,-1.5707963267948966,-0.019722425878761024,0.31903412031561684,0.1277331227455908,0.29999999999999993,0.3097883562174123,0.09270439962672904,0.3
31.70000000000018,-1.7073064777468228,-1.9723469560793694,2.3766211621460265,-1.9750705328615537,-1.5707963267948966,-0.13651015095192603,0.30978835621741235,0.0927043996267291,0.30000000000000004,0.3035423433685873,0.05621367274682978,0.3
31.800000000000182,-1.8366880780085884,-2.0238981105945397,2.4031124819416885,-1.9500106981420453,-1.5707963267948966,-0.26589175121369174,0.3035423433685873,0.05621367274682985,0.29999999999999993,0.30039458512295525,0.01883642266729255,0.3
31.900000000000183,-1.969576501323132,-2.0520938490621052,2.4165306696983997,-1.9352331474311906,-1.5707963267948966,-0.3987801745282352,0.3003945851229552,0.018836422667292574,0.2999999999999999,0.30039472350842933,-0.01883788905004137,0.3
32.000000000000185,-2.0948281697425686,-2.052092997999904,2.4165302758097265,-1.9352336046047194,-1.5707963267948966,-0.5240318429476717,0.30039472350842933,-0.01883788905004139,0.30000000000000004,0.30354275634258787,-0.056215116003846606,0.3
32.100000000000186,-2.2029265761164134,-2.0238956997514226,2.4031113028082336,-1.9500119298517078,-1.5707963267948968,-0.6321302493215165,0.30354275634258765,-0.05621511600384666,0.3000000000000001,0.3097890372670927,-0.09270579699698876,0.3
32.20000000000019,-2.2888470760304322,-1.972343341557117,2.3766192135622526,-1.9750721988000324,-1.5707963267948966,-0.7180507492355354,0.3097890372670927,-0.09270579699698887,0.3,0.31903505870041693,-0.12773445219172944,0.3
32.30000000000019,-2.3521779875550255,-1.9048788306183562,2.3379374286256884,-2.0038549248022286,-1.5707963267948966,-0.7813816607601288,0.3190350587004168,-0.12773445219172933,0.29999999999999993,0.3311350053612515,-0.1607486587705436,0.3
32.40000000000019,-2.3953372817948164,-1.8288763196675089,2.2885834010628288,-2.0305034081902162,-1.5707963267948968,-0.8245409549999196,0.3311350053612515,-0.16074865877054353,0.3000000000000001,0.3458980538625975,-0.19122776297395205,0.3
32.50000000000019,-2.421712375538252,-1.7500672875174814,2.230560567252535,-2.05128960652995,-1.5707963267948968,-0.8509160487433555,0.3458980538625976,-0.19122776297395214,0.29999999999999993,0.3630913821105707,-0.21869109112133284,0.3
32.60000000000019,-2.434564328286557,-1.672231225767788,2.1660808171170753,-2.064645918144184,-1.5707963267948968,-0.8637680014916606,0.36309138211057074,-0.21869109112133273,0.29999999999999993,0.3824438410479043,-0.2427055301220047,0.3
32.700000000000195,-2.4366105579164583,-1.597572420802928,2.0973190873707668,-2.070542993362735,-1.5707963267948966,-0.8658142311215616,0.38244384104790435,-0.24270553012200458,0.29999999999999993,0.4036502308365578,-0.26289235792739646,0.3
32.800000000000196,-2.4299695532319485,-1.5272488064476148,2.0262673326363516,-2.0698148529836335,-1.5707963267948968,-0.8591732264370521,0.4036502308365578,-0.2628923579273964,0.30000000000000004,0.4263761140414811,-0.2789332162039908,0.3
32.9000000000002,-2.4162432015806456,-1.461803696716558,1.9546762453224056,-2.0636688754007437,-1.5707963267948966,-0.8454468747857489,0.4263761140414812,-0.2789332162039908,0.2999999999999997,0.4502630899087479,-0.2905751310344216,0.3
33.0000000000002,-2.39662888171497,-1.4014499793696524,1.8840487885797383,-2.0533951360049825,-1.5707963267948966,-0.8258325549200735,0.4502630899087479,-0.2905751310344217,0.29999999999999993,0.47493444655954364,-0.2976345024672701,0.3
33.1000000000002,-2.372021413279724,-1.3462344947874207,1.8156553982788184,-2.040217230286294,-1.5707963267948966,-0.8012250864848273,0.47493444655954364,-0.29763450246727013,0.30000000000000004,0.5000011019615311,-0.2999999999979761,0.3
33.2000000000002,-2.3430949773081546,-1.2961233328079846,1.7505531467233597,-2.025226140710272,-1.5707963267948966,-0.7722986505132583,0.5000011019615312,-0.2999999999979761,0.2999999999999998,0.5250677399849272,-0.2976343183174007,0.3
33.3000000000002,-2.3103659812281685,-1.2510402747321498,1.689601038665178,-2.009357090727925,-1.5707963267948966,-0.7395696544332715,0.5250677399849268,-0.29763431831740095,0.2999999999999999,0.5497390447740188,-0.2905747656388364,0.3
33.400000000000205,-2.2742407203567003,-1.2108796476226762,1.6334697086132737,-1.993386387785494,-1.5707963267948966,-0.7034443935618038,0.5497390447740189,-0.29057476563883644,0.29999999999999993,0.573625935114359,-0.2789326753251964,0.3
33.500000000000206,-2.23505170712509,-1.1755067494744715,1.5826471620270839,-1.9779367393475087,-1.5707963267948968,-0.6642553803301935,0.573625935114359,-0.2789326753251963,0.2999999999999996,0.5963517004759441,-0.2628916500953745,0.3
33.60000000000021,-2.1930857435163587,-1.1447539569834404,1.5374438843132134,-1.9634862541246696,-1.5707963267948968,-0.6222894167214621,0.596351700475944,-0.2628916500953744,0.3000000000000001,0.6175579419633075,-0.24270466649968894,0.3
33.70000000000021,-2.148605927468752,-1.1184176240610069,1.4980011741353112,-1.950379876869201,-1.5707963267948968,-0.5778096006738553,0.6175579419633077,-0.24270466649968916,0.29999999999999977,0.6369102244801991,-0.21869008532856313,0.3
33.80000000000021,-2.1018690280950443,-1.0962589429602336,1.464306140924194,-1.9388435247588567,-1.5707963267948966,-0.5310727013001478,0.6369102244801991,-0.2186900853285631,0.29999999999999993,0.6541033509708342,-0.19122663087268127,0.3
33.90000000000021,-2.0531390805845624,-1.0780104342987014,1.4362155554309202,-1.9290014479271156,-1.5707963267948966,-0.4823427537896657,0.6541033509708343,-0.19122663087268132,0.3000000000000002,0.6688661755597795,-0.16074741821468502,0.3
34.00000000000021,-2.002697634781867,-1.0633883668177466,1.4134888833921544,-1.9208968433693046,-1.5707963267948966,-0.4319013079869706,0.6688661755597799,-0.1607474182146849,0.3,0.6809658796843833,-0.12773312274559007,0.3
34.100000000000215,-1.9508508312006518,-1.0521101588708732,1.3958287640852438,-1.9145149320092674,-1.5707963267948966,-0.3800545044057552,0.6809658796843834,-0.12773312274558998,0.29999999999999993,0.6902116437825878,-0.0927043996267285,0.3
34.200000000000216,-1.8979333668377345,-1.043914806993081,1.3829254011336762,-1.9098069209354915,-1.5707963267948966,-0.3271370400428379,0.6902116437825879,-0.09270439962672852,0.2999999999999999,0.6964576566314128,-0.05621367274682916,0.3
34.30000000000022,-1.8443094405497007,-1.0385837704497103,1.3745002152100374,-1.9067127715552237,-1.5707963267948966,-0.2735131137548039,0.6964576566314125,-0.0562136727468291,0.3,0.6996054148770448,-0.01883642266729192,0.3
34.40000000000022,-1.7903709130997474,-1.0359595910604982,1.3703438545351534,-1.9051805902695516,-1.5707963267948966,-0.21957458630485047,0.6996054148770448,-0.018836422667291925,0.3,0.6996052764915707,0.018837889050042265,0.3
34.50000000000022,-1.7365331425797577,-1.035959819519995,1.3703442166460202,-1.9051807239209217,-1.5707963267948966,-0.1657368157848607,0.6996052764915703,0.01883788905004218,0.2999999999999999,0.696457243657412,0.056215116003847286,0.3
34.60000000000022,-1.6832292079168854,-1.0385844524419954,1.3745012946187296,-1.9067131689716308,-1.5707963267948963,-0.11243288112198896,0.696457243657412,0.05621511600384751,0.29999999999999993,0.6902109627329072,0.09270579699698911,0.3
34.70000000000022,-1.63090345065245,-1.0439159324987684,1.3829271772628884,-1.909807571559017,-1.5707963267948966,-0.06010712385755326,0.6902109627329069,0.0927057969969893,0.30000000000000016,0.680964941299583,0.1277344521917299,0.3
34.800000000000225,-1.5800053952969633,-1.052111711658638,1.3958312033020315,-1.9145158184382902,-1.5707963267948966,-0.00920906850206658,0.6809649412995828,0.12773445219172982,0.3,0.6688649946387484,0.16074865877054376,0.3
34.900000000000226,-1.5309851221185067,-1.0633903251542336,1.4134919400423192,-1.9208979416829823,-1.5707963267948966,0.039811204676390204,0.6688649946387488,0.1607486587705437,0.2999999999999998,0.6541019461374026,0.19122776297395203,0.3
35.00000000000023,-1.484291066772845,-1.078012771945386,1.4362191733337415,-1.929002728183252,-1.5707963267948968,0.08650526002205164,0.6541019461374027,0.1912277629739521,0.29999999999999993,0.6369086178894293,0.2186910911213328,0.3
35.10000000000023,-1.4403710434935575,-1.0962616304328867,1.4643102553059388,-1.9388449516679487,-1.5707963267948963,0.13042528330133904,0.6369086178894292,0.2186910911213328,0.3,0.6175561589520959,0.24270553012200452,0.3
35.20000000000023,-1.399677086882522,-1.118420630093026,1.4980057139051142,-1.950381410606985,-1.5707963267948966,0.17111923991237468,0.6175561589520959,0.24270553012200471,0.30000000000000004,0.5963497691634425,0.26289235792739624,0.3
35.30000000000023,-1.362674538339617,-1.1447572500968373,1.5374487745012415,-1.9634878511993006,-1.5707963267948966,0.20812178845527968,0.5963497691634425,0.26289235792739607,0.29999999999999993,0.5736238859585192,0.27893321620399064,0.3
35.40000000000023,-1.3298557093816632,-1.1755102995329163,1.5826523261403755,-1.9779383534023556,-1.5707963267948966,0.24094061741323342,0.5736238859585193,0.27893321620399064,0.30000000000000004,0.5497369100912526,0.29057513103442145,0.3
35.500000000000234,-1.3017584512765588,-1.210883427227349,1.6334750706422234,-1.993387970209771,-1.5707963267948966,0.2690378755183377,0.5497369100912526,0.29057513103442145,0.3,0.525065553440457,0.2976345024672699,0.3
35.600000000000236,-1.2789900269881969,-1.2510442603219023,1.6896065245014065,-2.0093585909744007,-1.5707963267948966,0.29180629980669953,0.5250655534404567,0.29763450246726986,0.30000000000000016,0.4999988980384694,0.2999999999979761,0.3
35.70000000000024,-1.262256742075067,-1.2961275053265715,1.7505586848174124,-2.0252275062857374,-1.5707963267948963,0.3085395847198296,0.4999988980384694,0.2999999999979761,0.30000000000000004,0.499998898038469,0.2999999999979761,0.3
35.80000000000024,-1.2622567420750668,-1.2961275053265726,1.7505586848174137,-2.025227506285738,-1.5707963267948966,0.3085395847198299,0.499998898038469,0.2999999999979761,0.30000000000000004,0.47493226001507305,0.2976343183174008,0.3
35.90000000000024,-1.2523996790772978,-1.3462388397566827,1.8156609194529747,-2.040218406491188,-1.5707963267948966,0.3183966477175988,0.4749322600150728,0.2976343183174007,0.2999999999999998,0.4502609552259814,0.29057476563883644,0.3
36.00000000000024,-1.2504362511696387,-1.4014544861222566,1.8840542249991645,-2.053396065671804,-1.5707963267948966,0.32036007562525803,0.4502609552259816,0.29057476563883655,0.2999999999999998,0.4263740648856412,0.2789326753251965,0.3
36.10000000000024,-1.2576054475884382,-1.4618083563495088,1.954681528715468,-2.0636694991608557,-1.5707963267948966,0.3131908792064586,0.4263740648856412,0.2789326753251965,0.30000000000000004,0.4036482995240562,0.2628916500953747,0.3
36.200000000000244,-1.2754102034269386,-1.5272536077070609,2.026272391967107,-2.0698151110549428,-1.5707963267948966,0.2953861233679579,0.4036482995240561,0.26289165009537474,0.3,0.38244205803669273,0.24270466649968916,0.3
36.300000000000246,-1.3056407019669711,-1.597577342575831,2.0973238463597226,-2.0705428305787876,-1.5707963267948966,0.2651556248279252,0.38244205803669284,0.2427046664996893,0.2999999999999999,0.36308977551980115,0.21869008532856352,0.3
36.40000000000025,-1.3503433186110145,-1.672236224250711,2.1660851923568667,-2.0646452949010525,-1.5707963267948966,0.220453008183882,0.36308977551980104,0.21869008532856354,0.30000000000000016,0.34589664902916606,0.1912266308726817,0.3
36.50000000000025,-1.4116661799889918,-1.7500722760255591,2.230564468205993,-2.0512885189753303,-1.5707963267948966,0.15913014680590487,0.34589664902916606,0.19122663087268157,0.30000000000000004,0.3311338244402208,0.16074741821468555,0.3
36.60000000000025,-1.4914646658050956,-1.82888114104216,2.288586733749683,-2.030501919502419,-1.5707963267948966,0.07933166098980086,0.3311338244402208,0.16074741821468563,0.30000000000000004,0.3190341203156169,0.12773312274559076,0.3
36.70000000000025,-1.5905187526736575,-1.9048832292484175,2.3379401044678922,-2.0038532020143713,-1.5707963267948966,-0.019722425878761024,0.31903412031561684,0.1277331227455908,0.29999999999999993,0.3097883562174123,0.09270439962672904,0.3
36.80000000000025,-1.7073064777468228,-1.9723469560793694,2.3766211621460265,-1.9750705328615537,-1.5707963267948966,-0.13651015095192603,0.30978835621741235,0.0927043996267291,0.30000000000000004,0.3035423433685873,0.05621367274682978,0.3
36.900000000000254,-1.8366880780085884,-2.0238981105945397,2.4031124819416885,-1.9500106981420453,-1.5707963267948966,-0.26589175121369174,0.3035423433685873,0.05621367274682985,0.29999999999999993,0.30039458512295525,0.01883642266729255,0.3
37.000000000000256,-1.969576501323132,-2.0520938490621052,2.4165306696983997,-1.9352331474311906,-1.5707963267948966,-0.3987801745282352,0.3003945851229552,0.018836422667292574,0.2999999999999999,0.30039472350842933,-0.01883788905004137,0.3
37.10000000000026,-2.0948281697425686,-2.052092997999904,2.4165302758097265,-1.9352336046047194,-1.5707963267948966,-0.5240318429476717,0.30039472350842933,-0.01883788905004139,0.30000000000000004,0.30354275634258787,-0.056215116003846606,0.3
37.20000000000026,-2.2029265761164134,-2.0238956997514226,2.4031113028082336,-1.9500119298517078,-1.5707963267948968,-0.6321302493215165,0.30354275634258765,-0.05621511600384666,0.3000000000000001,0.3097890372670927,-0.09270579699698876,0.3
37.30000000000026,-2.2888470760304322,-1.972343341557117,2.3766192135622526,-1.9750721988000324,-1.5707963267948966,-0.7180507492355354,0.3097890372670927,-0.09270579699698887,0.3,0.31903505870041693,-0.12773445219172944,0.3
37.40000000000026,-2.3521779875550255,-1.9048788306183562,2.3379374286256884,-2.0038549248022286,-1.5707963267948966,-0.7813816607601288,0.3190350587004168,-0.12773445219172933,0.29999999999999993,0.3311350053612515,-0.1607486587705436,0.3
37.50000000000026,-2.3953372817948164,-1.8288763196675089,2.2885834010628288,-2.0305034081902162,-1.5707963267948968,-0.8245409549999196,0.3311350053612515,-0.16074865877054353,0.3000000000000001,0.3458980538625975,-0.19122776297395205,0.3
37.600000000000264,-2.421712375538252,-1.7500672875174814,2.230560567252535,-2.05128960652995,-1.5707963267948968,-0.8509160487433555,0.3458980538625976,-0.19122776297395214,0.29999999999999993,0.3630913821105707,-0.21869109112133284,0.3
37.700000000000266,-2.434564328286557,-1.672231225767788,2.1660808171170753,-2.064645918144184,-1.5707963267948968,-0.8637680014916606,0.36309138211057074,-0.21869109112133273,0.29999999999999993,0.3824438410479043,-0.2427055301220047,0.3
37.80000000000027,-2.4366105579164583,-1.597572420802928,2.0973190873707668,-2.070542993362735,-1.5707963267948966,-0.8658142311215616,0.38244384104790435,-0.24270553012200458,0.29999999999999993,0.4036502308365578,-0.26289235792739646,0.3
37.90000000000027,-2.4299695532319485,-1.5272488064476148,2.0262673326363516,-2.0698148529836335,-1.5707963267948968,-0.8591732264370521,0.4036502308365578,-0.2628923579273964,0.30000000000000004,0.4263761140414811,-0.2789332162039908,0.3
38.00000000000027,-2.4162432015806456,-1.461803696716558,1.9546762453224056,-2.0636688754007437,-1.5707963267948966,-0.8454468747857489,0.4263761140414812,-0.2789332162039908,0.2999999999999997,0.4502630899087479,-0.2905751310344216,0.3
38.10000000000027,-2.39662888171497,-1.4014499793696524,1.8840487885797383,-2.0533951360049825,-1.5707963267948966,-0.8258325549200735,0.4502630899087479,-0.2905751310344217,0.29999999999999993,0.47493444655954364,-0.2976345024672701,0.3
38.20000000000027,-2.372021413279724,-1.3462344947874207,1.8156553982788184,-2.040217230286294,-1.5707963267948966,-0.8012250864848273,0.47493444655954364,-0.29763450246727013,0.30000000000000004,0.5000011019615311,-0.2999999999979761,0.3
38.300000000000274,-2.3430949773081546,-1.2961233328079846,1.7505531467233597,-2.025226140710272,-1.5707963267948966,-0.7722986505132583,0.5000011019615312,-0.2999999999979761,0.2999999999999998,0.5250677399849272,-0.2976343183174007,0.3
38.400000000000276,-2.3103659812281685,-1.2510402747321498,1.689601038665178,-2.009357090727925,-1.5707963267948966,-0.7395696544332715,0.5250677399849268,-0.29763431831740095,0.2999999999999999,0.5497390447740188,-0.2905747656388364,0.3
38.50000000000028,-2.2742407203567003,-1.2108796476226762,1.6334697086132737,-1.993386387785494,-1.5707963267948966,-0.7034443935618038,0.5497390447740189,-0.29057476563883644,0.29999999999999993,0.573625935114359,-0.2789326753251964,0.3
38.60000000000028,-2.23505170712509,-1.1755067494744715,1.5826471620270839,-1.9779367393475087,-1.5707963267948968,-0.6642553803301935,0.573625935114359,-0.2789326753251963,0.2999999999999996,0.5963517004759441,-0.2628916500953745,0.3
38.70000000000028,-2.1930857435163587,-1.1447539569834404,1.5374438843132134,-1.9634862541246696,-1.5707963267948968,-0.6222894167214621,0.596351700475944,-0.2628916500953744,0.3000000000000001,0.6175579419633075,-0.24270466649968894,0.3
38.80000000000028,-2.148605927468752,-1.1184176240610069,1.4980011741353112,-1.950379876869201,-1.5707963267948968,-0.5778096006738553,0.6175579419633077,-0.24270466649968916,0.29999999999999977,0.6369102244801991,-0.21869008532856313,0.3
38.90000000000028,-2.1018690280950443,-1.0962589429602336,1.464306140924194,-1.9388435247588567,-1.5707963267948966,-0.5310727013001478,0.6369102244801991,-0.2186900853285631,0.29999999999999993,0.6541033509708342,-0.19122663087268127,0.3
39.000000000000284,-2.0531390805845624,-1.0780104342987014,1.4362155554309202,-1.9290014479271156,-1.5707963267948966,-0.4823427537896657,0.6541033509708343,-0.19122663087268132,0.3000000000000002,0.6688661755597795,-0.16074741821468502,0.3
39.100000000000286,-2.002697634781867,-1.0633883668177466,1.4134888833921544,-1.9208968433693046,-1.5707963267948966,-0.4319013079869706,0.6688661755597799,-0.1607474182146849,0.3,0.6809658796843833,-0.12773312274559007,0.3
39.20000000000029,-1.9508508312006518,-1.0521101588708732,1.3958287640852438,-1.9145149320092674,-1.5707963267948966,-0.3800545044057552,0.6809658796843834,-0.12773312274558998,0.29999999999999993,0.6902116437825878,-0.0927043996267285,0.3
39.30000000000029,-1.8979333668377345,-1.043914806993081,1.3829254011336762,-1.9098069209354915,-1.5707963267948966,-0.3271370400428379,0.6902116437825879,-0.09270439962672852,0.2999999999999999,0.6964576566314128,-0.05621367274682916,0.3
39.40000000000029,-1.8443094405497007,-1.0385837704497103,1.3745002152100374,-1.9067127715552237,-1.5707963267948966,-0.2735131137548039,0.6964576566314125,-0.0562136727468291,0.3,0.6996054148770448,-0.01883642266729192,0.3
39.50000000000029,-1.7903709130997474,-1.0359595910604982,1.3703438545351534,-1.9051805902695516,-1.5707963267948966,-0.21957458630485047,0.6996054148770448,-0.018836422667291925,0.3,0.6996052764915707,0.018837889050042265,0.3
39.60000000000029,-1.7365331425797577,-1.035959819519995,1.3703442166460202,-1.9051807239209217,-1.5707963267948966,-0.1657368157848607,0.6996052764915703,0.01883788905004218,0.2999999999999999,0.696457243657412,0.056215116003847286,0.3
39.700000000000294,-1.6832292079168854,-1.0385844524419954,1.3745012946187296,-1.9067131689716308,-1.5707963267948963,-0.11243288112198896,0.696457243657412,0.05621511600384751,0.29999999999999993,0.6902109627329072,0.09270579699698911,0.3
39.800000000000296,-1.63090345065245,-1.0439159324987684,1.3829271772628884,-1.909807571559017,-1.5707963267948966,-0.06010712385755326,0.6902109627329069,0.0927057969969893,0.30000000000000016,0.680964941299583,0.1277344521917299,0.3
39.9000000000003,-1.5800053952969633,-1.052111711658638,1.3958312033020315,-1.9145158184382902,-1.5707963267948966,-0.00920906850206658,0.6809649412995828,0.12773445219172982,0.3,0.6688649946387484,0.16074865877054376,0.3
40.0000000000003,-1.5309851221185067,-1.0633903251542336,1.4134919400423192,-1.9208979416829823,-1.5707963267948966,0.039811204676390204,0.6688649946387488,0.1607486587705437,0.2999999999999998,0.6541019461374026,0.19122776297395203,0.3
40.1000000000003,-1.484291066772845,-1.078012771945386,1.4362191733337415,-1.929002728183252,-1.5707963267948968,0.08650526002205164,0.6541019461374027,0.1912277629739521,0.29999999999999993,0.6369086178894293,0.2186910911213328,0.3
40.2000000000003,-1.4403710434935575,-1.0962616304328867,1.4643102553059388,-1.9388449516679487,-1.5707963267948963,0.13042528330133904,0.6369086178894292,0.2186910911213328,0.3,0.6175561589520959,0.24270553012200452,0.3
40.3000000000003,-1.399677086882522,-1.118420630093026,1.4980057139051142,-1.950381410606985,-1.5707963267948966,0.17111923991237468,0.6175561589520959,0.24270553012200471,0.30000000000000004,0.5963497691634425,0.26289235792739624,0.3
40.400000000000304,-1.362674538339617,-1.1447572500968373,1.5374487745012415,-1.9634878511993006,-1.5707963267948966,0.20812178845527968,0.5963497691634425,0.26289235792739607,0.29999999999999993,0.5736238859585192,0.27893321620399064,0.3
40.500000000000306,-1.3298557093816632,-1.1755102995329163,1.5826523261403755,-1.9779383534023556,-1.5707963267948966,0.24094061741323342,0.5736238859585193,0.27893321620399064,0.30000000000000004,0.5497369100912526,0.29057513103442145,0.3
40.60000000000031,-1.3017584512765588,-1.210883427227349,1.6334750706422234,-1.993387970209771,-1.5707963267948966,0.2690378755183377,0.5497369100912526,0.29057513103442145,0.3,0.525065553440457,0.2976345024672699,0.3
40.70000000000031,-1.2789900269881969,-1.2510442603219023,1.6896065245014065,-2.0093585909744007,-1.5707963267948966,0.29180629980669953,0.5250655534404567,0.29763450246726986,0.30000000000000016,0.4999988980384694,0.2999999999979761,0.3
40.80000000000031,-1.262256742075067,-1.2961275053265715,1.7505586848174124,-2.0252275062857374,-1.5707963267948963,0.3085395847198296,0.4999988980384694,0.2999999999979761,0.30000000000000004,0.499998898038469,0.2999999999979761,0.3
40.90000000000031,-1.2622567420750668,-1.2961275053265726,1.7505586848174137,-2.025227506285738,-1.5707963267948966,0.3085395847198299,0.499998898038469,0.2999999999979761,0.30000000000000004,0.47493226001507305,0.2976343183174008,0.3
41.00000000000031,-1.2523996790772978,-1.3462388397566827,1.8156609194529747,-2.040218406491188,-1.5707963267948966,0.3183966477175988,0.4749322600150728,0.2976343183174007,0.2999999999999998,0.4502609552259814,0.29057476563883644,0.3
41.100000000000314,-1.2504362511696387,-1.4014544861222566,1.8840542249991645,-2.053396065671804,-1.5707963267948966,0.32036007562525803,0.4502609552259816,0.29057476563883655,0.2999999999999998,0.4263740648856412,0.2789326753251965,0.3
41.200000000000315,-1.2576054475884382,-1.4618083563495088,1.954681528715468,-2.0636694991608557,-1.5707963267948966,0.3131908792064586,0.4263740648856412,0.2789326753251965,0.30000000000000004,0.4036482995240562,0.2628916500953747,0.3
41.30000000000032,-1.2754102034269386,-1.5272536077070609,2.026272391967107,-2.0698151110549428,-1.5707963267948966,0.2953861233679579,0.4036482995240561,0.26289165009537474,0.3,0.38244205803669273,0.24270466649968916,0.3
41.40000000000032,-1.3056407019669711,-1.597577342575831,2.0973238463597226,-2.0705428305787876,-1.5707963267948966,0.2651556248279252,0.38244205803669284,0.2427046664996893,0.2999999999999999,0.36308977551980115,0.21869008532856352,0.3
41.50000000000032,-1.3503433186110145,-1.672236224250711,2.1660851923568667,-2.0646452949010525,-1.5707963267948966,0.220453008183882,0.36308977551980104,0.21869008532856354,0.30000000000000016,0.34589664902916606,0.1912266308726817,0.3
41.60000000000032,-1.4116661799889918,-1.7500722760255591,2.230564468205993,-2.0512885189753303,-1.5707963267948966,0.15913014680590487,0.34589664902916606,0.19122663087268157,0.30000000000000004,0.3311338244402208,0.16074741821468555,0.3
41.70000000000032,-1.4914646658050956,-1.82888114104216,2.288586733749683,-2.030501919502419,-1.5707963267948966,0.07933166098980086,0.3311338244402208,0.16074741821468563,0.30000000000000004,0.3190341203156169,0.12773312274559076,0.3
41.800000000000324,-1.5905187526736575,-1.9048832292484175,2.3379401044678922,-2.0038532020143713,-1.5707963267948966,-0.019722425878761024,0.31903412031561684,0.1277331227455908,0.29999999999999993,0.3097883562174123,0.09270439962672904,0.3
41.900000000000325,-1.7073064777468228,-1.9723469560793694,2.3766211621460265,-1.9750705328615537,-1.5707963267948966,-0.13651015095192603,0.30978835621741235,0.0927043996267291,0.30000000000000004,0.3035423433685873,0.05621367274682978,0.3
42.00000000000033,-1.8366880780085884,-2.0238981105945397,2.4031124819416885,-1.9500106981420453,-1.5707963267948966,-0.26589175121369174,0.3035423433685873,0.05621367274682985,0.29999999999999993,0.30039458512295525,0.01883642266729255,0.3
42.10000000000033,-1.969576501323132,-2.0520938490621052,2.4165306696983997,-1.9352331474311906,-1.5707963267948966,-0.3987801745282352,0.3003945851229552,0.018836422667292574,0.2999999999999999,0.30039472350842933,-0.01883788905004137,0.3
42.20000000000033,-2.0948281697425686,-2.052092997999904,2.4165302758097265,-1.9352336046047194,-1.5707963267948966,-0.5240318429476717,0.30039472350842933,-0.01883788905004139,0.30000000000000004,0.30354275634258787,-0.056215116003846606,0.3
42.30000000000033,-2.2029265761164134,-2.0238956997514226,2.4031113028082336,-1.9500119298517078,-1.5707963267948968,-0.6321302493215165,0.30354275634258765,-0.05621511600384666,0.3000000000000001,0.3097890372670927,-0.09270579699698876,0.3
