takaya-hirano-hayashibeLabo/UR5e-IK-Control/main/collect_dataset/20241017/ellipse_with_endpoint/output/datasets.csv
time,joint0,joint1,joint2,joint3,joint4,joint5,endpos_x,endpos_y,endpos_z,target_x,target_y,target_z
0.01,-1.5393840734641018,-1.5393840734641018,1.6022159265358982,-1.591434063937835,-1.5557938911223044,0.03076210407397581,0.4957653403216206,0.15114529644726277,0.4590585412204392,0.49748569014882166,0.29997630402759273,0.3
0.02,-1.501684961621024,-1.501684961621024,1.6236283169987182,-1.6291331757809129,-1.5576623681240753,0.06838451760575023,0.5013137437945063,0.170338900945925,0.4331564760179641,0.49497287929784667,0.2999052383213678,0.3
0.03,-1.463985849777946,-1.463985849777946,1.6182141342271128,-1.6668322876239907,-1.5595898490385607,0.10608362944882774,0.5092641708146347,0.1904976166780977,0.41971949676927545,0.49246086228750674,0.2997868141014,0.3
0.04,-1.4262867379348683,-1.4262867379348683,1.6127650474132798,-1.7045313994670686,-1.5615417028652476,0.14378274129190524,0.5159270930496661,0.21142641022544922,0.4057649621595848,0.4899500357944081,0.2996210500682467,0.3
0.05,-1.3885876260917904,-1.397326133362808,1.6156849542054235,-1.7422305113101464,-1.563522508140297,0.18148185313498275,0.5177083241564119,0.23238415486964475,0.39212540411627,0.4874407963071604,0.29940797239797023,0.3
0.060000000000000005,-1.3508885142487126,-1.3818894657929492,1.631774808560506,-1.7799296231532242,-1.5655182769775116,0.21918096497806025,0.5127534241585845,0.25245949833345593,0.37951082831623,0.4849335400637667,0.2991476147380048,0.3
0.07,-1.3131894024056348,-1.3686492821392313,1.6500506033604823,-1.817628734996302,-1.5675316483406734,0.2568800768211378,0.5057465713040215,0.27215453179926086,0.36709089271042467,0.4824286629890529,0.298840018201843,0.3
0.08,-1.275490290562557,-1.3573177533873038,1.6702480470648722,-1.85532784683938,-1.5695593663615222,0.2945791886642153,0.49684337705649684,0.2913322039581591,0.35487694894972044,0.4799265606321465,0.29848523136254373,0.3
0.09,-1.2495286964037537,-1.3512759721307965,1.6958946406592363,-1.8930269586824577,-1.5710291181684006,0.32126993367108997,0.48831843681256315,0.3037119818745392,0.34315488636548963,0.47742762810401496,0.2980833102450618,0.3
0.09999999999999999,-1.2498734508583071,-1.354253276393941,1.730852907571093,-1.9307260705255356,-1.5709707559921364,0.32092475599803566,0.4836046361262547,0.3019480349070718,0.3322594174098341,0.47493226001507305,0.2976343183174008,0.3
0.10999999999999999,-1.2502871839301783,-1.3561099911406302,1.7647414706150515,-1.9684251823686134,-1.570912008687424,0.3205100748917521,0.47898200577464234,0.3001781566035323,0.3213864894713799,0.47244085041286926,0.297138326480591,0.3
0.11999999999999998,-1.2507763456549594,-1.356908631785093,1.7976372935916916,-2.0061242942116913,-1.5708538855908625,0.3200203514017379,0.4744274545240344,0.298391869148732,0.31055030294693703,0.46995379271986104,0.29659541305749315,0.3
0.12999999999999998,-1.2513328553112917,-1.3568789937364192,1.8290496625397938,-2.04295837943514,-1.5707968105988201,0.31946362973667697,0.46995918343614906,0.29660082693923406,0.3000223884252487,0.46747147967128905,0.29600566378043036,0.3
0.13999999999999999,-1.2509301373583688,-1.36226501179762,1.8358775022239673,-2.0444088172211945,-1.5707963267949032,0.31986618943653555,0.4674714796714056,0.2960056637805358,0.30000000000010124,0.4649943032531595,0.29536917177765026,0.3
0.15,-1.250603143883534,-1.3677094780491001,1.8426779346822517,-2.045764783428002,-1.5707963267949028,0.3201931829113695,0.46499430325326757,0.29536917177774946,0.3000000000000951,0.4625226546403452,0.2946860375586184,0.3
0.16,-1.250359553105508,-1.3732052286195418,1.8495074617647036,-2.0470985599400104,-1.5707963267949034,0.3204367736893964,0.46252265464045705,0.2946860375587219,0.3000000000000996,0.46005692413481436,0.293956368998147,0.3
0.17,-1.2502005862997374,-1.3787523043304888,1.8563650384974684,-2.0484090609618266,-1.5707963267949034,0.3205957404951672,0.4600569241349287,0.2939563689982545,0.30000000000010335,0.45759750110399744,0.2931802813193606,0.3
0.18000000000000002,-1.2501274892405982,-1.3843507408287874,1.8632495995043394,-2.0496951854703975,-1.570796326794904,0.320668837554307,0.4575975011041148,0.293180281319472,0.3000000000001072,0.45514477391930164,0.2923578970755001,0.3
0.19000000000000003,-1.2501415326515712,-1.3900005682280554,1.8701600588482001,-2.050955817414989,-1.5707963267949043,0.32065479414333437,0.4551447739194214,0.2923578970756153,0.30000000000011073,0.45269912989478217,0.29148934613057115,0.3
0.20000000000000004,-1.2502440126477996,-1.3957018107155055,1.8770953098661405,-2.0521898259454776,-1.5707963267949043,0.32055231414710633,0.45269912989490385,0.2914893461306898,0.30000000000011373,0.4502609552259814,0.29057476563883644,0.3
0.21000000000000005,-1.250436251169489,-1.4014544861220013,1.8840542249985037,-2.053396065671344,-1.5707963267949048,0.32036007562541713,0.4502609552261045,0.2905747656389581,0.30000000000011673,0.4478306349289438,0.2896143000231579,0.3
0.22000000000000006,-1.2507195964044715,-1.407258605453054,1.8910356556120689,-2.0545733769538552,-1.5707963267949052,0.3200767303904355,0.4478306349290683,0.28961430002328253,0.3000000000001195,0.4454085527794174,0.2886081009521902,0.3
0.23000000000000007,-1.2510954231980922,-1.4131141723783733,1.8980384318176151,-2.055720586234081,-1.5707963267949054,0.31970090359681486,0.4454085527795429,0.2886081009523175,0.300000000000122,0.44299509125225117,0.28755632731643094,0.3
0.24000000000000007,-1.2515651334484352,-1.4190211826774608,1.9050613622821915,-2.0568365063995695,-1.5707963267949057,0.3192311933464723,0.44299509125237724,0.28755632731656083,0.30000000000012417,0.44059063146099814,0.2864591452031297,0.3
0.25000000000000006,-1.2521301564847138,-1.4249796236386199,1.9121032340364472,-2.0579199371926657,-1.570796326794906,0.318666170310194,0.44059063146112437,0.286459145203262,0.3000000000001262,0.43819555309773267,0.285316727870061,0.3
0.26000000000000006,-1.2527919494264916,-1.430989473408631,1.9191628122774653,-2.0589696656636716,-1.570796326794906,0.31800437736841664,0.43819555309785924,0.28531672787019524,0.3000000000001281,0.4358102343730929,0.2841292557181654,0.3
0.2700000000000001,-1.2535519975211826,-1.4370507002902138,1.9262388401675679,-2.059984466672191,-1.570796326794906,0.31724432927372576,0.43581023437321964,0.28412925571830183,0.3000000000001299,0.43343505195655707,0.28289691626306096,0.3
0.2800000000000001,-1.2544118144570957,-1.4431632619842643,1.9333300386296723,-2.060963103440244,-1.5707963267949063,0.3163845123378135,0.4334350519566829,0.28289691626319896,0.30000000000013105,0.4310703809169626,0.28161990410543347,0.3
0.2900000000000001,-1.2553729426490297,-1.449327104773727,1.9404351061398024,-2.0619043281609115,-1.5707963267949066,0.31542338414588,0.43107038091708816,0.2816199041055732,0.30000000000013227,0.4287165946632788,0.28029842090030627,0.3
0.3000000000000001,-1.2564369534932314,-1.4555421626458271,1.9475527185174801,-2.062806882666489,-1.5707963267949068,0.31435937330167835,0.4287165946634037,0.2802984209004476,0.3000000000001333,0.4263740648856412,0.2789326753251965,0.3
0.3100000000000001,-1.2576054475882372,-1.461808356349241,1.9546815287147588,-2.0636694991603535,-1.570796326794907,0.3131908792066728,0.426374064885765,0.2789326753253392,0.3000000000001341,0.42404316149665705,0.2775228830471628,0.3
0.3200000000000001,-1.258880054917871,-1.4681255923826597,1.9618201666047748,-2.0644909010169505,-1.570796326794907,0.31191627187703963,0.42404316149678034,0.2775228830473068,0.30000000000013455,0.4217242525729922,0.2760692666887486,0.3
0.3300000000000001,-1.2602624349923728,-1.4744937619110579,1.968967238770773,-2.065269803654551,-1.5707963267949074,0.3105338918025383,0.42172425257311386,0.27606926668889353,0.30000000000013466,0.41941770429724723,0.27457205579282773,0.3
0.34000000000000014,-1.2617542769433412,-1.4809127396058226,1.9761213282966397,-2.0660049154856526,-1.5707963267949077,0.3090420498515703,0.41941770429736736,0.2745720557929737,0.300000000000135,0.4171238809001334,0.27303148678635697,0.3
0.35000000000000014,-1.2633572995678288,-1.4873823824048067,1.9832809945601062,-2.066694938950136,-1.5707963267949077,0.30743902722708266,0.41712388090025215,0.2730314867865039,0.30000000000013466,0.4148431446029559,0.2714478029430412,0.3
0.36000000000000015,-1.265073251316606,-1.4939025281881881,1.990444773029854,-2.067338571636502,-1.5707963267949079,0.30572307547830596,0.41484314460307287,0.2714478029431889,0.3000000000001345,0.41257585556041515,0.26982125434491805,0.3
0.37000000000000016,-1.2669039102212358,-1.5004729943659236,1.997611175067891,-2.0679345074968047,-1.5707963267949079,0.30389241657367644,0.4125758555605306,0.26982125434506643,0.3000000000001342,0.41032237180373426,0.2681520978428665,0.3
0.38000000000000017,-1.2688510837542226,-1.5070935763724542,2.0047786877386615,-2.0684814381610446,-1.5707963267949079,0.30194524304069,0.41032237180384734,0.26815209784301536,0.3000000000001333,0.4080830491841216,0.26644059701604794,0.3
0.3900000000000002,-1.2709166086160903,-1.5137640460641963,2.0119457736264725,-2.068978054357114,-1.5707963267949085,0.2998797181788225,0.40808304918423244,0.2664405970161973,0.30000000000013266,0.4058582413165779,0.2646870221302831,0.3
0.4000000000000002,-1.2731023504428303,-1.5204841500152704,2.019110870662964,-2.0694230474425326,-1.5707963267949085,0.29769397635208295,0.40585824131668685,0.2646870221304329,0.30000000000013144,0.4036482995240561,0.2628916500953747,0.3
0.4100000000000002,-1.2754102034266908,-1.5272536077068006,2.0262723919664483,-2.069815111054488,-1.570796326794909,0.29538612336822306,0.40364829952416337,0.262891650095526,0.3000000000001264,0.4014535727819839,0.26105476442137937,0.3
0.4200000000000002,-1.2778420898428526,-1.5340721096050978,2.03342872569509,-2.0701529428848353,-1.5707963267949092,0.2929542369520616,0.40145357278208893,0.261054764421533,0.3000000000001188,0.3992744076631558,0.25917665517383914,0.3
0.4300000000000002,-1.2803999594739914,-1.540939315123889,2.0405782349160484,-2.070435246587006,-1.5707963267949094,0.29039636732092344,0.3992744076632592,0.2591766551739958,0.3000000000001108,0.39711114828300587,0.25725761892797594,0.3
0.4400000000000002,-1.2830857889242602,-1.5478548504658145,2.047719257492839,-2.070660733821874,-1.57079632679491,0.28771053787065576,0.39711114828310773,0.2572576189281359,0.3000000000001015,0.3949641362452674,0.255297958721859,0.3
0.45000000000000023,-1.2859015808136804,-1.5548183063383574,2.05485010599329,-2.0708281264497863,-1.57079632679491,0.2848947459812361,0.3949641362453681,0.25529795872202277,0.30000000000009175,0.3928337105880301,0.25329798400855214,0.3
0.46000000000000024,-1.2888493628433726,-1.5618292355394041,2.061969067620675,-2.070936158876128,-1.570796326794911,0.28194696395154517,0.3928337105881302,0.2532979840087204,0.3000000000000808,0.3907202077302021,0.2512580106072469,0.3
0.47000000000000025,-1.2919311867214964,-1.5688871504076607,2.0690744041706877,-2.070983580557888,-1.5707963267949117,0.278865140073422,0.39072020773030136,0.25125801060742003,0.30000000000006877,0.388623961418385,0.24917836065339144,0.3
0.48000000000000026,-1.295149126939181,-1.5759915201332861,2.076164352017154,-2.070969158678733,-1.5707963267949123,0.2756471998557389,0.3886239614184842,0.24917836065357057,0.30000000000005567,0.3865453026741719,0.24705936254782165,0.3
0.49000000000000027,-1.2985052793851222,-1.5831417679241964,2.083237122129464,-2.0708916810001377,-1.5707963267949128,0.27229104740979887,0.3865453026742713,0.24705936254800742,0.3000000000000417,0.3844845597418752,0.24490135090490256,0.3
0.5000000000000002,-1.3020017597869173,-1.5903372680236982,2.090290900124906,-2.070749958896083,-1.5707963267949137,0.268794567008005,0.3844845597419751,0.24490135090509593,0.3000000000000264,0.3824420580366927,0.24270466649968914,0.3
0.5100000000000002,-1.3056407019665783,-1.5975773425753568,2.097323846359231,-2.0705428305787548,-1.5707963267949145,0.26515562482834537,0.3824420580367942,0.24270466649989103,0.30000000000000976,0.38041812009332104,0.24046965621411362,0.3
0.5200000000000002,-1.3094242558970401,-1.6048612583312776,2.1043340960589143,-2.070269164522523,-1.5707963267949157,0.2613720708978852,0.38041812009342435,0.24046965621432534,0.29999999999999194,0.37841306551502385,0.2381966729822092,0.3
0.5300000000000002,-1.3133545855458548,-1.6121882232003821,2.111319759498752,-2.0699278630932616,-1.5707963267949165,0.2574417412490724,0.37841306551513,0.23819667298243183,0.2999999999999723,0.3764272109231622,0.23588607573437745,0.3
0.5400000000000003,-1.3174338664916325,-1.6195573826336882,2.118278922228556,-2.069517866389766,-1.570796326794918,0.2533624603032963,0.3764272109232719,0.2358860757346125,0.29999999999995147,0.37446086990719707,0.2335382293407091,0.3
0.5500000000000003,-1.32166428329819,-1.6269678158441345,2.1252096453528604,-2.069038156303631,-1.5707963267949194,0.24913204349674092,0.37446086990731126,0.23353822934095816,0.2999999999999287,0.3725143529751694,0.23115350455336686,0.3
0.5600000000000003,-1.326048026630757,-1.6344185318591364,2.1321099658676737,-2.0684877608034493,-1.570796326794921,0.24474830016417629,0.37251435297528906,0.23115350455363168,0.29999999999990407,0.3705879675046674,0.22873227794803916,0.3
0.5700000000000003,-1.330587290098051,-1.6419084654047538,2.13897789705842,-2.0678657584485864,-1.5707963267949225,0.24020903669688484,0.3705879675047938,0.22873227794832143,0.2999999999998781,0.36868201769428827,0.22627493186447475,0.3
0.5800000000000003,-1.3352842668034581,-1.6494364726212147,2.1458114289632833,-2.067171283136993,-1.5707963267949252,0.2355120599914812,0.3686820176944252,0.22627493186478245,0.2999999999998603,0.3667968045156016,0.22378185434610676,0.3
0.5900000000000003,-1.3401411455881878,-1.6570013266105001,2.152608528906452,-2.066403529090881,-1.570796326794928,0.2306551812067554,0.3667968045157503,0.22378185434644246,0.29999999999984134,0.36493262566562235,0.221253439078776,0.3
0.6000000000000003,-1.3451601069486383,-1.6646017128177462,2.1593671421053227,-2.065561756082511,-1.570796326794931,0.2256362198463087,0.3649326256657842,0.22125343907914236,0.2999999999998206,0.3630897755198011,0.21869008532856346,0.3
0.6100000000000003,-1.3503433186101317,-1.6722362242494986,2.166085192356404,-2.0646452949018452,-1.570796326794934,0.22045300818481972,0.36308977551997734,0.218690085328963,0.29999999999979776,0.361268545085539,0.2160921978787416,0.3
0.6200000000000003,-1.355692930738736,-1.6799033565331951,2.1727605828041816,-2.063653553065932,-1.5707963267949376,0.21510339605621998,0.3612685450857313,0.21609219787917744,0.29999999999977384,0.35946922195623393,0.21346018696585448,0.3
0.6300000000000003,-1.361211070772832,-1.6876015028237943,2.1793911967973956,-2.062586020768553,-1.5707963267949414,0.2095852560221295,0.35946922195644426,0.21346018696632973,0.2999999999997477,0.35769209026586646,0.21079446821493644,0.3
0.6400000000000003,-1.3668998378560615,-1.6953289485651883,2.1859748988370296,-2.0614422770667997,-1.5707963267949456,0.20389648893890572,0.3576920902660964,0.2107944682154547,0.2999999999997194,0.3559374306441316,0.20809546257388029,0.3
0.6500000000000004,-1.372761296853436,-1.7030838661158836,2.1925095356202537,-2.0602219962993353,-1.5707963267949498,0.19803502994153707,0.355937430644383,0.20809546257444483,0.29999999999968924,0.3542055201721243,0.20536359624696457,0.3
0.6600000000000004,-1.378797471932708,-1.710864309250536,2.198992937184395,-2.0589249547288317,-1.570796326794955,0.1919988548622714,0.3542055201723997,0.2053635962475798,0.2999999999996568,0.3524966323385851,0.20259930062755116,0.3
0.6700000000000004,-1.3850103396936404,-1.7186682075511506,2.205422918154772,-2.057551037398602,-1.57079632679496,0.1857859871013462,0.3524966323388865,0.2025993006282208,0.29999999999962235,0.3508110369967129,0.19980301222996305,0.3
0.6800000000000004,-1.3914018218285478,-1.7264933607042048,2.2117972791000073,-2.056100245190792,-1.5707963267949663,0.1793945049664461,0.35081103699704325,0.19980301223069177,0.2999999999995858,0.3491490003215522,0.19697517262055378,0.3
0.6900000000000004,-1.397973777298532,-1.7343374327226289,2.21811380799807,-2.054572702070439,-1.5707963267949723,0.17282254949647022,0.3491490003219143,0.196975172621346,0.2999999999995467,0.34751078476796105,0.19411622834797915,0.3
0.7000000000000004,-1.4047279940111173,-1.7421979461143895,2.2243702818159234,-2.0529686624965415,-1.5707963267949794,0.1660683327838934,0.34751078476835756,0.1941162283488399,0.29999999999950533,0.34589664902916606,0.1912266308726816,0.3
0.7100000000000004,-1.4116661799865176,-1.7500722760223473,2.2305644682050807,-2.0512885189777497,-1.5707963267949927,0.15913014680851112,0.3458966490296211,0.19122663087367664,0.2999999999994559,0.34430684799591216,0.18830683649559987,0.3
0.7200000000000004,-1.4187899540025402,-1.7579576443640268,2.236694127315323,-2.049532809746322,-1.5707963267950111,0.15200637279251397,0.3443068479964455,0.18830683649678157,0.29999999999939736,0.34274163271621183,0.18535730628611335,0.3
0.7300000000000004,-1.4261008357089777,-1.7658511140019004,2.242757013727184,-2.04770222652032,-1.5707963267950318,0.1446954910861039,0.34274163271683245,0.18535730628750158,0.2999999999993315,0.3412012503557026,0.18237850600923428,0.3
0.7400000000000004,-1.4336002352065953,-1.7737495829796666,2.248750878504022,-2.0457976223194048,-1.5707963267950549,0.13719609158851695,0.3412012503564215,0.18237850601085065,0.2999999999992594,0.33968594415861564,0.17937090605205755,0.3
0.7500000000000004,-1.4412894420889282,-1.781649778863589,2.2546734713635264,-2.043820019295,-1.5707963267950802,0.1295068847062174,0.33968594415944453,0.1793709060539252,0.29999999999917915,0.3381959534093655,0.17633498134948172,0.3
0.7600000000000005,-1.4491696139484345,-1.7895482532313385,2.260522542967236,-2.0417706165309752,-1.570796326795108,0.12162671284674796,0.33819595341031694,0.1763349813516258,0.2999999999990904,0.33673151339476404,0.17327121130921083,0.3
0.7700000000000005,-1.4572417643533355,-1.7974413763551496,2.26629584732597,-2.039650797765914,-1.5707963267951388,0.11355456244188707,0.3367315133958525,0.17327121131165832,0.29999999999899263,0.3352928553668659,0.17018007973605065,0.3
0.7800000000000005,-1.4655067503063994,-1.8053253321301308,2.2719911443178797,-2.0374621389828618,-1.570796326795173,0.10528957648886661,0.3352928553681077,0.1701800797388306,0.29999999999888605,0.3338802065064511,0.16706207475551005,0.3
0.7900000000000005,-1.4739652592025436,-1.8131961133026666,2.2776062023146966,-2.035206415807163,-1.57079632679521,0.09683106759276938,0.3338802065078638,0.16706207475865342,0.29999999999876914,0.3324937898871507,0.16391768873672055,0.3
0.8000000000000005,-1.4826177953083928,-1.8210495170579815,2.283138800910446,-2.0328856106476194,-1.5707963267952512,0.08817853148697162,0.33249378988875317,0.16391768874025986,0.2999999999986419,0.33113382444022077,0.16074741821468547,0.3
0.8100000000000005,-1.4914646657938546,-1.828881141029968,2.288586733745595,-2.0305019195108054,-1.5707963267952956,0.0793316610015652,0.3311338244420343,0.16074741821865565,0.2999999999985038,0.3298005249199705,0.15755176381187097,0.3
0.8200000000000005,-1.5005059663533968,-1.8366863798003406,2.2939478114181555,-2.028057758413019,-1.5707963267953444,0.07029036044208332,0.3298005249220179,0.15755176381630812,0.29999999999835464,0.3284941018698503,0.15433123015915268,0.3
0.8300000000000005,-1.5097415664629548,-1.8444604219578566,2.299219864471785,-2.02555576930916,-1.5707963267953975,0.061054760332589886,0.32849410187215694,0.15433123016409514,0.29999999999819355,0.3272147615892042,0.15108632581612783,0.3
0.8400000000000005,-1.5191710943273893,-1.8521982477918666,2.304400746449396,-2.0229988254527913,-1.570796326795455,0.05162523246822485,0.3272147615917972,0.15108632582161502,0.29999999999802107,0.3259627061006932,0.14781756319080838,0.3
0.8500000000000005,-1.5287939215829383,-1.8598946276975008,2.309488336999203,-2.020390036096996,-1.5707963267955174,0.04200240521274988,0.3259627061036013,0.14781756319688127,0.29999999999783616,0.3247381331183933,0.14452545845870557,0.3
0.8600000000000005,-1.5386091478290735,-1.8675441213721717,2.314480545018517,-2.0177327504416844,-1.5707963267955927,0.0321871789667041,0.3247381331216978,0.1445254584654874,0.2999999999975866,0.323541236016574,0.14121053148131982,0.3
0.8700000000000006,-1.5486155850759216,-1.8751410778865738,2.3193753118192166,-2.015030560728046,-1.5707963267956857,0.022180741719965175,0.32354123602038687,0.1412105314889783,0.29999999999724664,0.3223722037991625,0.13787330572404874,0.3
0.8800000000000006,-1.5588117422030634,-1.8826796367128056,2.324170614296978,-2.0122873043796465,-1.5707963267957887,0.011984584592942825,0.3223722038035486,0.13787330573266815,0.2999999999968722,0.3212312210698979,0.13451430817352586,0.3
0.8900000000000006,-1.5691958095367637,-1.8901537297927495,2.328864468084796,-2.009507065087598,-1.5707963267959022,0.0016005172593721692,0.32123122107492913,0.13451430818319585,0.29999999999646015,0.3201184680031798,0.131134069254403,0.3
0.9000000000000006,-1.5797656436670577,-1.8975570847330856,2.3334549306705274,-2.006694172733078,-1.5707963267960268,-0.008969316870780415,0.32011846800893456,0.13113406926521773,0.2999999999960093,0.31903412031561684,0.1277331227455905,0.3
0.9100000000000006,-1.5905187526347522,-1.9048832292081705,2.3379401044562393,-2.0038532020437976,-1.570796326796163,-0.019722425838321702,0.31903412032218126,0.12773312275764873,0.29999999999551796,0.3179783492382791,0.12431200569596715,0.3
0.9200000000000006,-1.6014522816313614,-1.9121254966516508,2.342318139736392,-2.00098896988057,-1.5707963267963119,-0.03065595483476577,0.31797834924574586,0.12431200570937129,0.2999999999949838,0.31695132148965854,0.12087125833957398,0.3
0.9300000000000006,-1.6125629993658033,-1.919277033313695,2.3465872375708723,-1.9981065310531145,-1.570796326796474,-0.04176667256902928,0.3169513214981283,0.12087125835442968,0.2999999999944053,0.3159531992493424,0.11741142401030488,0.3
0.9400000000000006,-1.6238472852621357,-1.9263308067559266,2.350745652528286,-1.9952111725684132,-1.5707963267966498,-0.05305095846517032,0.3159531992589233,0.11741142402671997,0.29999999999378185,0.31498414013240295,0.11393304905610808,0.3
0.9500000000000006,-1.6353011176620897,-1.9332796158497862,2.354791695274515,-1.9923084062209073,-1.57079632679684,-0.0645047908649195,0.3149841401432096,0.11393304907419187,0.2999999999931119,0.31404429716450843,0.11043668275271154,0.3
0.9600000000000006,-1.6469200632143988,-1.9401161023362434,2.3587237349815022,-1.98940395944157,-1.5707963267970444,-0.07612373641700998,0.31404429717666277,0.11043668277257308,0.29999999999239546,0.31313381875775864,0.1069228772168857,0.3
0.9700000000000006,-1.6586992676395613,-1.946832763995388,2.3625402015315777,-1.9865037643326426,-1.5707963267972642,-0.08790294084194086,0.3131338187713887,0.10692287723863264,0.299999999991632,0.31225284868724845,0.10339218731925806,0.3
0.9800000000000006,-1.6706334480633673,-1.9534219694633534,2.3662395874933164,-1.9836139448265657,-1.5707963267974987,-0.09983712126550137,0.3122528487024871,0.10339218734299489,0.2999999999908228,0.3114015260683646,0.0998451705966924,0.3
0.9900000000000007,-1.6827168871149163,-1.9598759747213708,2.369820449846127,-1.980740801921516,-1.5707963267977483,-0.11192056031679169,0.3114015260853506,0.09984517062251887,0.2999999999899687,0.31057998533481734,0.09628238716424764,0.3
1.0000000000000007,-1.6949434289845826,-1.966186941267411,2.3732814114323606,-1.9778907969618742,-1.5707963267980123,-0.12414710218618648,0.31057998535369097,0.09628238719225632,0.2999999999890714,0.3097883562174122,0.09270439962672872,0.3
1.0100000000000007,-1.7073064776340898,-1.9723469559648938,2.3766211621178486,-1.9750705329500515,-1.5707963267982905,-0.1365101508354104,0.30978835623831597,0.09270439965700282,0.2999999999881338,0.30902676372356375,0.08911177298984534,0.3
1.0200000000000007,-1.7197989973442203,-1.9783480525455304,2.3798384596443607,-1.9722867338961052,-1.570796326798582,-0.14900267054524666,0.3090267637466395,0.08911177302245687,0.2999999999871594,0.3082953281175552,0.08550507457099032,0.3
1.0300000000000007,-1.7324135157754186,-1.984182234724435,2.3829321301605777,-1.9695462222336009,-1.5707963267988865,-0.1616171889761406,0.3082953281429427,0.08550507460599693,0.29999999998615223,0.30759416490154806,0.08188487390965438,0.3
1.0400000000000007,-1.7451421297023755,-1.9898415008655497,2.3859010684217132,-1.9668558943538104,-1.5707963267992011,-0.17434580290278526,0.30759416492938096,0.08188487394709804,0.29999999998511817,0.30692338479734205,0.07825174267748845,0.3
1.0500000000000007,-1.7579765135036414,-1.9953178700535967,2.3887442376367347,-1.9642226943820016,-1.5707963268013385,-0.18718018670174685,0.306923384839338,0.07825174273307806,0.29999999997833854,0.3062830937288918,0.07460625458803075,0.3
1.0600000000000007,-1.7709079308217366,-2.000603409756804,2.3914606690347973,-1.9616535860782938,-1.5707963268038776,-0.2001116040171316,0.3062830937881059,0.07460625466486114,0.29999999997032917,0.3056733928055793,0.07094898530611055,0.3
1.0700000000000007,-1.7839272489410336,-2.0056902644161756,2.394049461017919,-1.9591555234034548,-1.5707963268063867,-0.21313092213378382,0.3056733928823497,0.07094898540351027,0.2999999999624562,0.3050943783062483,0.0672805123569437,0.3
1.0800000000000007,-1.797024956422626,-2.010570685278586,2.396509778028036,-1.9567354195525255,-1.5707963268088292,-0.22622862961283413,0.30509437840064807,0.06728051247391555,0.2999999999548387,0.3045461416640004,0.06360141503493531,0.3
1.0900000000000007,-1.8101911838569633,-2.015237061135578,2.398840849099074,-1.9544001147678651,-1.5707963268111647,-0.23939485704477104,0.304546141775808,0.06360141517015391,0.2999999999476015,0.3040287694517568,0.059912274312201856,0.3
1.1000000000000008,-1.8234157277186318,-2.0196819497669565,2.4010419661116624,-1.9521563431502755,-1.5707963268133505,-0.25261940090422164,0.3040287695804181,0.059912274464005336,0.29999999994087395,0.30354234336858726,0.05621367274682945,0.3
1.1100000000000008,-1.8366880772873275,-2.023898109887587,2.4031124817782255,-1.950010698697292,-1.5707963268153426,-0.26589175047092367,0.30354234351318704,0.05621367291322175,0.29999999993478943,0.30308694022680926,0.052506194390880695,0.3
1.1200000000000008,-1.8499974445428928,-2.0278785333638703,2.405051807388097,-1.9479696008318241,-1.5707963268170968,-0.2792011177247606,0.3030869403860481,0.052506194569548505,0.29999999992947884,0.3026626319398581,0.04879042469816656,0.3
1.1300000000000008,-1.8633327968978401,-2.031616477449465,2.4068594103472307,-1.9460392597061442,-1.5707963268185678,-0.2925364700782855,0.3026626321120346,0.04879042488649774,0.2999999999250721,0.3022694855109309,0.04506695043179597,0.3
1.1400000000000008,-1.8766828925855463,-2.0351054967753743,2.4085348115516085,-1.9442256415852093,-1.570796326819713,-0.3058865657649147,0.3022694856939327,0.04506695062690807,0.29999999992169357,0.3019075630224064,0.04133635957151954,0.3
1.1500000000000008,-1.8900363184776992,-2.038339474818327,2.4100775826374656,-1.9425344346285054,-1.5707963268204894,-0.31923999165637335,0.30190756321370726,0.04133635977029409,0.2999999999194606,0.3015769216260411,0.03759924122088049,0.3
1.1600000000000008,-1.9033815300610806,-2.041312654563351,2.411487343154753,-1.9409710154009374,-1.570796326820861,-0.3325852032394757,0.30157692182271334,0.03759924142001272,0.29999999991847814,0.3012776135339442,0.033856185514188494,0.3
1.1700000000000008,-1.9167068932630988,-2.0440196680725347,2.4127637577128453,-1.9395404164497743,-1.570796326820792,-0.34591056644166057,0.3012776137326752,0.033856185710232876,0.2999999999188401,0.30100968601033345,0.030107783523330392,0.3
1.1800000000000008,-1.9300007277778537,-2.046455564671732,2.413906533149057,-1.9382472952864647,-1.570796326820256,-0.35920440095705064,0.3010096862074625,0.030107783712766182,0.29999999992062143,0.3007731813640705,0.026354627164433517,0.3
1.1900000000000008,-1.94325135151229,-2.048615837471774,2.41491541577129,-1.9370959051080696,-1.5707963268192304,-0.37245502469261055,0.30077318155562516,0.026354627343719426,0.299999999923882,0.3005681369419807,0.022597309104394787,0.3
1.2000000000000008,-1.9564471257444664,-2.050496447949196,2.4157901887256163,-1.9360900675841186,-1.5707963268177,-0.3856507989264092,0.3005681371237327,0.022597309270037506,0.29999999992865933,0.3003945851229552,0.018836422667292217,0.3
1.2100000000000009,-1.9695765005659003,-2.0520938483254345,2.416530669538193,-1.935233148019329,-1.5707963268156584,-0.3987801737499693,0.3003945852904804,0.01883642281591006,0.2999999999349706,0.30025255331283823,0.015072561740691744,0.3
1.2200000000000009,-1.9826280601663515,-2.053405001501116,2.417136707878282,-1.9345280331823378,-1.5707963268131062,-0.41183173335304896,0.3002525534615855,0.015072561869077945,0.29999999994281024,0.300142063940099,0.011306320681865668,0.3
1.2300000000000009,-1.9955905675140115,-2.0544273983245067,2.4176081835854606,-1.9339771120644613,-1.5707963268100549,-0.4247942407038284,0.3001420640654749,0.011306320787057926,0.2999999999521469,0.3000631344522904,0.007538294223936903,0.3
1.2400000000000009,-2.0084530079868457,-2.0551590719996797,2.4179450049995137,-1.933582259801421,-1.5707963268065226,-0.4376566811802556,0.30006313454973277,0.007538294303266094,0.2999999999629281,0.3000157773132934,0.0037690773819634977,0.3
1.2500000000000009,-2.0212046314895495,-2.0555986094390497,2.418147107619034,-1.933344824979876,-1.5707963268034024,-0.4504083046861242,0.3000157773856041,0.0037690774389595185,0.2999999999724473,0.30000000000134924,-7.34641020984012e-07,0.3
1.260000000000001,-2.033834992676133,-2.0557451594622296,2.4182144531225496,-1.933265620460121,-1.5707963268032492,-0.4630386658728625,0.30000000007306066,-7.345859504431784e-07,0.29999999997294613,0.30001580500787844,-0.003770546547997199,0.3
1.270000000000001,-2.0463339891807264,-2.0555984380256027,2.418147028833203,-1.9333449176072903,-1.5707963268030574,-0.4755376623776475,0.3000158050786116,-0.0037705464950759477,0.2999999999735619,0.3000631898370873,-0.0075397630419638565,0.3
1.280000000000001,-2.058691896630065,-2.0551587295839444,2.41794484745367,-1.9335824446692844,-1.5707963268028284,-0.48789556982721105,0.3000631899064746,-0.007539762991386589,0.29999999997428767,0.3001421470063618,-0.01130778891994255,0.3
1.290000000000001,-2.070899401125738,-2.054426885530666,2.417607947288223,-1.933977388556967,-1.5707963268025658,-0.5001030743231402,0.3001421470740543,-0.011307788871872818,0.2999999999751153,0.3002526640474499,-0.015074029166966667,0.3
1.300000000000001,-2.082947628392839,-2.053404319221556,2.4171363928344474,-1.9345284004121361,-1.5707963268022727,-0.512151301590526,0.30025266411312135,-0.015074029121534781,0.29999999997603455,0.30039472350842933,-0.018837889050041638,0.3
1.310000000000001,-2.0948281694851634,-2.0520929977463713,2.4165302757562266,-1.9352336048089198,-1.5707963268019531,-0.5240318426831602,0.3003947235717819,-0.0188378890073442,0.2999999999770348,0.3005683029564646,-0.022598774212059993,0.3
1.320000000000001,-2.106533102879156,-2.0504954305440575,2.415789716218597,-1.9360906124734123,-1.5707963268016107,-0.5357367760774837,0.3005683030172335,-0.022598774172160406,0.29999999997810545,0.3007733749813486,-0.026356090765656835,0.3
1.330000000000001,-2.11805501284261,-2.0486146549930773,2.4149148645580794,-1.9370965363636723,-1.5707963268012501,-0.5472586860412867,0.3007733750393036,-0.026356090728585718,0.2999999999792333,0.30100990719983134,-0.030109245386992344,0.3
1.340000000000001,-2.1293870040181364,-2.0464542191414368,2.4139059032556203,-1.9382480109126428,-1.5707963268008756,-0.5585906772171749,0.3010099072547805,-0.030109245352749503,0.2999999999804075,0.3012778622607336,-0.033857645409443735,0.3
1.350000000000001,-2.1405227122144814,-2.0440181617709974,2.412763049173732,-1.9395412142009774,-1.5707963268004914,-0.5697263854138922,0.3012778623125248,-0.03385764537799965,0.2999999999816141,0.301577197850845,-0.037600698917194704,0.3
1.360000000000001,-2.1514563114497087,-2.0413109900170485,2.4114865560146974,-1.9409718927956703,-1.5707963268001015,-0.5806599846494981,0.30157719789936516,-0.03760069888849365,0.2999999999828412,0.30190786670160585,-0.04133781483870565,0.3
1.370000000000001,-2.1621825173379117,-2.03833765478638,2.4100767169530743,-1.9425353889644934,-1.5707963267997103,-0.5913861905380815,0.3019078667467815,-0.04133781481266873,0.29999999998407806,0.3022698165965713,-0.045068403040050276,0.3
1.380000000000001,-2.17269658695475,-2.0351035242351356,2.408533867393134,-1.9442266699555752,-1.5707963267993217,-0.6019002601552994,0.30226981663836694,-0.04506840301657792,0.29999999998531185,0.30266299037965727,-0.048791874418105376,0.3
1.390000000000001,-2.1829943153558373,-2.031614355581194,2.406858387800358,-1.9460403590165205,-1.5707963267989389,-0.6121979885567623,0.30266299041807365,-0.04879187439708184,0.29999999998653354,0.30308732596416543,-0.052507640993576514,0.3
1.400000000000001,-2.1930720289553363,-2.0278762655347418,2.405050706555761,-1.947970767818159,-1.5707963267985652,-0.6222757021566292,0.3030873259992366,-0.05250764097487201,0.29999999998773175,0.303542756342588,-0.056215116003846995,0.3
1.410000000000001,-2.2029265759997427,-2.023895699635116,2.4031113027823903,-1.950011929944203,-1.5707963267982032,-0.6321302492013943,0.30354275637437883,-0.05621511598732185,0.29999999998889937,0.3040292095971886,-0.059913713995634055,0.3
1.420000000000001,-2.212555314393509,-2.019679400782041,2.4010407090950623,-1.9521576351097454,-1.5707963267978557,-0.6417589875955068,0.3040292096257911,-0.05991371398114175,0.2999999999900278,0.3045466089113594,-0.06360285091743946,0.3
1.430000000000001,-2.2219560971489107,-2.0152343772452803,2.398839514226881,-1.9544014637781282,-1.570796326797524,-0.6511597703512411,0.30454660893688823,-0.06360285090482916,0.29999999999111127,0.3050948725817506,-0.06728194421177729,0.3
1.440000000000001,-2.231127255742563,-2.0105678704288397,2.3965083654894337,-1.9567368218569337,-1.57079632679721,-0.6603309289452097,0.3050948726043407,-0.06728194420089731,0.2999999999921432,0.3056739140311731,-0.07095041290716718,0.3
1.450000000000001,-2.2400675816655244,-2.0056873226545178,2.39404797102756,-1.9591569751692035,-1.5707963267969152,-0.6692712548684712,0.3056739140509744,-0.0709504128978665,0.2999999999931201,0.3062836418222695,-0.07460767770987561,0.3
1.460000000000001,-2.2487763064534185,-2.000600345215264,2.3914591018341222,-1.9616550834148518,-1.5707963267966396,-0.6779799796566469,0.3062836418394443,-0.0746076777020068,0.2999999999940389,0.3069239596719534,-0.07825316109539401,0.3
1.470000000000001,-2.2572530804779323,-1.9953146869319314,2.3887425934951527,-1.9642242333590578,-1.570796326796384,-0.6864567536814249,0.30692395968667313,-0.07825316108881404,0.29999999999489646,0.30759476646661366,-0.08188628739963605,0.3
1.480000000000001,-2.2654979507720077,-1.989838203428052,2.3858993476409665,-1.966857471008605,-1.570796326796149,-0.6947016239757454,0.3075947664790542,-0.08188628739420849,0.2999999999956926,0.308295956278081,-0.08550648290984171,0.3
1.490000000000001,-2.2735113381485883,-1.9841788273167085,2.382930333084171,-1.9695478325630176,-1.5707963267959335,-0.7027150113525527,0.30829595628842027,-0.08550648290543722,0.29999999999642607,0.30902741838035586,-0.08911317595517343,0.3
1.500000000000001,-2.281294013858342,-1.9783445394728174,2.379836586631023,-1.972288373953614,-1.5707963267957152,-0.7104976870625377,0.3090274183885305,-0.08911317595175096,0.2999999999972117,0.3097890372670928,-0.09270579699698901,0.3
1.5100000000000011,-2.2888470760098865,-1.9723433415365683,2.37661921355698,-1.9750721988156819,-1.5707963267955152,-0.7180507492142966,0.3097890372732646,-0.09270579699443404,0.2999999999979452,0.31058069266984073,-0.09628377871877913,0.3
1.5200000000000011,-2.2961719259680695,-1.9661832297838804,2.3732793877444607,-1.977892484755728,-1.5707963267953389,-0.7253755991726707,0.3105806926742396,-0.09628377871696417,0.2999999999985936,0.3114022595770343,-0.09984655611575254,0.3
1.5300000000000011,-2.3032702449121345,-1.959872170461501,2.369818351482993,-1.9807425078165328,-1.570796326795185,-0.7324739181169049,0.31140225957987566,-0.09984655611456343,0.2999999999991624,0.31225360825373516,-0.10339356658405738,0.3
1.5400000000000011,-2.3101439707238414,-1.9534180766724405,2.3662374149380225,-1.9836156650605294,-1.570796326795051,-0.7393476439287613,0.3122536082552188,-0.10339356658339255,0.29999999999965665,0.31313460426211787,-0.1069242500096222,0.3
1.5500000000000012,-2.3167952753529835,-1.9468287868740033,2.3625379552982753,-1.9865054952191392,-1.570796326794936,-0.7459989485580325,0.3131346042624286,-0.10692425000939251,0.30000000000008237,0.31404510848269995,-0.1104380488566053,0.3
1.5600000000000012,-2.323226542786935,-1.940112045029961,2.358721415615064,-1.9894056973799024,-1.5707963267948384,-0.7524302159920971,0.3140451084820073,-0.11043804885673202,0.3000000000004439,0.3149849771363102,-0.11393440825543548,0.3
1.5700000000000012,-2.3294403477314387,-1.9332754824398153,2.3547893033500187,-1.9923101477049443,-1.5707963267947556,-0.758644020936698,0.3149849771347673,-0.11393440825585079,0.30000000000074745,0.31595406180679275,-0.11741277609043266,0.3
1.5800000000000012,-2.33543943509001,-1.9263266012496552,2.3507431886500414,-1.9952129141950956,-1.570796326794719,-0.7646431082953125,0.31595406180486185,-0.11741277609095653,0.300000000000907,0.31695220946444425,-0.12087260308699296,0.3
1.5900000000000012,-2.341226700317565,-1.919272759638858,2.3465847023721746,-1.9981082695280066,-1.570796326794702,-0.7704303735228887,0.3169522094623254,-0.12087260308755175,0.3000000000009996,0.3179792624901786,-0.12431334289832618,0.3
1.6000000000000012,-2.3468051706936346,-1.9121211586492373,2.3423155338785038,-2.0009907020239415,-1.5707963267946907,-0.7760088438989731,0.3179792624879295,-0.12431334289890181,0.3000000000010672,0.31903505870041704,-0.12773445219172982,0.3
1.6100000000000012,-2.352177987561576,-1.9048788306261484,2.3379374286272356,-2.003854924795752,-1.5707963267946836,-0.7813816607669248,0.31903505869808696,-0.1277344521923078,0.30000000000111293,0.3201194313726988,-0.13113539073438749,0.3
1.6200000000000012,-2.357348389557565,-1.8975526292213614,2.3334521855841794,-2.006695883157476,-1.570796326794681,-0.7865520627629194,0.32011943137032906,-0.13113539073495725,0.30000000000113985,0.3212322092720087,-0.1345156214786788,0.3
1.6300000000000012,-2.3623196968417473,-1.8901492208989186,2.3288616544793683,-2.0095087603751045,-1.5707963267946805,-0.7915233700471037,0.3212322092696332,-0.1345156214792318,0.3000000000011508,0.3223732166778164,-0.1378746106469838,0.3
1.6400000000000012,-2.3670952963344214,-1.8826750778786518,2.3241677329339567,-2.0122889818499594,-1.5707963267946834,-0.7962989695397772,0.3223732166754631,-0.13787461064751405,0.3000000000011485,0.3235422734118256,-0.1412118278159746,0.3
1.6500000000000012,-2.3716786279502813,-1.8751364724452912,2.3193723634819814,-2.015032217831347,-1.5707963267946876,-0.8008823011556339,0.3235422734095172,-0.14121182781647773,0.30000000000113486,0.32473919486642605,-0.1445267460003738,0.3
1.6600000000000013,-2.3760731718156234,-1.8675394725462462,2.314477530510965,-2.0177343847593794,-1.5707963267946938,-0.8052768450209704,0.32473919486418046,-0.14452674600084744,0.30000000000111193,0.3259637920338448,-0.14781884173617235,0.3
1.6700000000000013,-2.380282436446613,-1.859889938597577,2.3094852571444044,-2.020391645341493,-1.5707963267947012,-0.8094861096519531,0.32596379203167497,-0.1478188417366145,0.30000000000108146,0.3272158715359931,-0.15108759516329043,0.3
1.6800000000000013,-2.38430994786101,-1.852193521415354,2.3043976020880788,-2.0230004074673977,-1.5707963267947094,-0.8135136210663428,0.32721587153390963,-0.15108759516370063,0.3000000000010452,0.32849523565500294,-0.15433249010766908,0.3
1.6900000000000013,-2.3881592395911806,-1.8444556611884273,2.2992166564608763,-2.02555732206713,-1.5707963267947183,-0.8173629127965042,0.32849523565301275,-0.154332490108048,0.3000000000010045,0.3298016823644493,-0.15755301416278086,0.3
1.7000000000000013,-2.3918338435625968,-1.836681587408386,2.2939445406293926,-2.0280592800156962,-1.5707963267947271,-0.8210375167679104,0.32980168236255686,-0.1575530141631288,0.30000000000096033,0.33113500536125173,-0.16074865877054392,0.3
1.7100000000000013,-2.395337281799331,-1.8288763196731919,2.2885834010640993,-2.0305034081856057,-1.5707963267947367,-0.8245409550046353,0.3311350053594597,-0.16074865877086195,0.30000000000091387,0.3324949940982527,-0.1639189193016295,0.3
1.7200000000000013,-2.3986730589160774,-1.8210446692823956,2.2831354072333068,-2.0328870647456196,-1.570796326794746,-0.8278767321213721,0.3324949940965618,-0.16391891930191915,0.30000000000086596,0.33388143381746527,-0.16706329513514884,0.3
1.7300000000000013,-2.4018446553550254,-1.8131912415439615,2.2776027485495827,-2.0352078338003405,-1.5707963267947551,-0.8310483285603092,0.3338814338158748,-0.16706329513541177,0.3000000000008175,0.33529410558398554,-0.1701812897377073,0.3
1.7400000000000013,-2.404855521325249,-1.8053204387153627,2.2719876313816827,-2.0374635194610486,-1.5707963267947642,-0.8340591945305236,0.3352941055824938,-0.170181289737945,0.30000000000076854,0.33673278632056536,-0.1732724107418121,0.3
1.7500000000000013,-2.407709071402171,-1.7974364635047302,2.266292276143483,-2.039652139433492,-1.570796326794773,-0.8369127446074351,0.3367327863191696,-0.17327241074202634,0.30000000000072036,0.3381972488428388,-0.1763361700236232,0.3
1.7600000000000013,-2.4104086797449575,-1.789543323061261,2.2605189144698796,-2.0417719182033682,-1.5707963267947815,-0.8396123529502122,0.3381972488415355,-0.17633617002381588,0.3000000000006727,0.33968726189519693,-0.1793720837800339,0.3
1.7700000000000014,-2.412957675890421,-1.781644833387879,2.254669786488113,-2.0438212798949933,-1.5707963267947895,-0.842161349095666,0.33968726189398246,-0.17937208378020675,0.3000000000006261,0.3412025901873059,-0.18237967260506846,0.3
1.7800000000000014,-2.4153593410829655,-1.7737446241130164,2.2487471381915793,-2.045798840873332,-1.570796326794797,-0.8445630142882016,0.3412025901861761,-0.1823796726052229,0.30000000000058114,0.3427429944312625,-0.1853584615655865,0.3
1.7900000000000014,-2.41761690510136,-1.7658461435624502,2.2427532189218256,-2.0477034021541543,-1.5707963267948044,-0.8468205783065869,0.34274299443021317,-0.18535846156572436,0.30000000000053795,0.3443082313793794,-0.18830798027627993,0.3
1.8000000000000014,-2.419733543544553,-1.7579526640762786,2.2366902789631835,-2.0495339416816925,-1.570796326794811,-0.8489372167497715,0.344308231378406,-0.18830798027640266,0.30000000000049637,0.34589805386259764,-0.19122776297395236,0.3
1.8100000000000014,-2.4217123755402903,-1.7500672875201724,2.230560567253297,-2.051289606527921,-1.5707963267948177,-0.8509160487455015,0.34589805386169564,-0.19122776297406105,0.30000000000045646,0.34751221082951744,-0.19411734859106855,0.3
1.8200000000000014,-2.4235564618419976,-1.7421929509441911,2.2243663292117386,-2.0529697050623525,-1.5707963267948237,-0.8527601350472016,0.3475122108286827,-0.19411734859116486,0.3000000000004188,0.34915044738604173,-0.1969762808285626,0.3
1.8300000000000014,-2.425268803281103,-1.7343324323464284,2.218109804687915,-2.0545736991363,-1.5707963267948295,-0.8544724764862999,0.3491504473852694,-0.1969762808286474,0.30000000000038285,0.35081250483562737,-0.19980410822789238,0.3
1.8400000000000014,-2.4268523395437738,-1.7264883565026403,2.211793226028541,-2.056101196320722,-1.5707963267948346,-0.8560560127489635,0.35081250483491344,-0.1998041082279671,0.300000000000349,0.35249812072013575,-0.2026003842423302,0.3
1.8500000000000014,-2.4283099482428296,-1.7186632008268026,2.205418816264204,-2.05755194223223,-1.5707963267948395,-0.8575136214480136,0.3524981207194761,-0.2026003842423954,0.3000000000003169,0.3542070288612784,-0.20536466730747804,0.3
1.8600000000000014,-2.4296444442573755,-1.7108593012311053,2.1989887874137697,-2.0589258129775,-1.570796326794844,-0.8588481174625536,0.35420702886066885,-0.2053646673075349,0.30000000000028687,0.3559389594026496,-0.20809652091099518,0.3
1.8700000000000014,-2.4308585793144544,-1.7030788579573533,2.1925053389047933,-2.0602228077422815,-1.5707963267948482,-0.8600622525196264,0.35593895940208653,-0.20809652091104436,0.3000000000002587,0.3576936388523396,-0.21079551366152918,0.3
1.8800000000000014,-2.431955041788759,-1.6953239413549615,2.1859706561075343,-2.0614430415474208,-1.570796326794852,-0.8611587149939263,0.35769363885181993,-0.2107955136615716,0.30000000000023225,0.3594707901261227,-0.21346121935683687,0.3
1.8900000000000015,-2.4329364566980827,-1.6875964975837876,2.1793869089797018,-2.0625867381907677,-1.5707963267948557,-0.8621401299032452,0.35947079012564287,-0.21346121935687312,0.30000000000020793,0.36127013259121105,-0.2160932170510872,0.3
1.9000000000000015,-2.4338053858738227,-1.679898354222881,2.1727562508186686,-2.0636542233906474,-1.5707963267948586,-0.8630090590789807,0.3612701325907682,-0.21609321705111784,0.30000000000018506,0.3630913821105708,-0.218691091121333,0.3
1.9100000000000015,-2.434564328287381,-1.6722312257688976,2.166080817117562,-2.0646459181435293,-1.570796326794862,-0.8637680014925347,0.36309138211016195,-0.21869109112135876,0.30000000000016414,0.36493425108779043,-0.22125443133314332,0.3
1.9200000000000015,-2.4352157205147775,-1.664596719010341,2.159362724521365,-2.065562332305893,-1.5707963267948648,-0.864419393719928,0.3649342510874128,-0.22125443133316428,0.30000000000014415,0.3667984485124952,-0.22378283290538337,0.3
1.9300000000000015,-2.4357619373232104,-1.6569963382660926,2.1526040698789743,-2.0664040584077554,-1.570796326794867,-0.8649656105283571,0.3667984485121462,-0.22378283290540052,0.30000000000012633,0.36868368000630114,-0.22627589657413472,0.3
1.9400000000000015,-2.436205292364582,-1.6494314904786975,2.145806929386979,-2.0671717657031587,-1.5707963267948697,-0.8654089655697255,0.3686836800059785,-0.22627589657414815,0.3000000000001096,0.3705896478693012,-0.22873322865574366,0.3
1.9500000000000015,-2.4365480389623064,-1.6419034901548046,2.1389733578208285,-2.0678661944609056,-1.5707963267948717,-0.8657517121674467,0.3705896478690028,-0.22873322865575388,0.3000000000000943,0.372516051127075,-0.23115444110898806,0.3
1.9600000000000015,-2.436792370978843,-1.6344135641468334,2.132105387849012,-2.0684881504970636,-1.5707963267948741,-0.8659960441839805,0.37251605112679875,-0.23115444110899483,0.30000000000007976,0.37446258557821677,-0.23353915159635422,0.3
1.9700000000000015,-2.436940423752528,-1.6269628562714777,2.125205029425795,-2.069038499949206,-1.5707963267948757,-0.8661440969576631,0.3744625855779603,-0.23353915159635857,0.30000000000006577,0.3764289438423716,-0.23588698354441143,0.3
1.9800000000000015,-2.4369942750932863,-1.619552431762045,2.1182742692581327,-2.069518164290983,-1.5707963267948766,-0.8661979482984195,0.376428943842128,-0.2358869835444128,0.30000000000004434,0.37841481540877475,-0.2381975662032784,0.3
1.9900000000000015,-2.4369559463277413,-1.61218328155284,2.1113150703422545,-2.069928115584316,-1.570796326794878,-0.8661596195328726,0.378414815408542,-0.23819756620327676,0.30000000000002425,0.38041988668528504,-0.24047053470516797,0.3
2.0000000000000013,-2.4368274033852195,-1.6048563263949032,2.1043293715658327,-2.0702693719658365,-1.5707963267948788,-0.8660310765903495,0.3804198866850622,-0.24047053470516352,0.30000000000000576,0.3824438410479044,-0.24270553012200485,0.3
2.010000000000001,-2.4366105579168282,-1.5975724208033788,2.097319087371239,-2.0705429933627726,-1.57079632679488,-0.8658142311219574,0.38244384104769014,-0.2427055301219973,0.2999999999999891,0.38448635889077654,-0.2449021995221036,0.3
2.020000000000001,-2.4363072684406584,-1.5903323568375958,2.090286107475866,-2.0707500774331877,-1.5707963267948803,-0.865510941645786,0.3844863588905693,-0.2449021995220933,0.2999999999999734,0.3865471176766564,-0.24706019602590146,0.3
2.0300000000000007,-2.435919341506816,-1.5831368677157025,2.0832322966454573,-2.0708917557246775,-1.5707963267948812,-0.8651230147119425,0.3865471176764554,-0.24706019602588822,0.29999999999995886,0.3886257919878426,-0.24917917886073415,0.3
2.0400000000000005,-2.435448532876661,-1.575986631266309,2.0761594945165402,-2.0709691900451586,-1.570796326794882,-0.864652206081786,0.3886257919876468,-0.2491791788607183,0.2999999999999456,0.39072205357756473,-0.25125881341464806,0.3
2.0500000000000003,-2.4348965487111935,-1.5688822732201173,2.069069515464183,-2.070983569038997,-1.5707963267948823,-0.864100221916318,0.39072205357737316,-0.25125881341462886,0.2999999999999332,0.3928355714218172,-0.25329877128923933,0.3
2.06,-2.4342650467641107,-1.561824370344976,2.0619641485114557,-2.0709361049614152,-1.5707963267948828,-0.8634687199692347,0.39283557142162895,-0.2532987712892173,0.2999999999999223,0.39496601177163143,-0.2552987303515114,0.3
2.07,-2.4335556375755294,-1.5548134534281648,2.0548451572771174,-2.070828030643891,-1.5707963267948832,-0.8627593107806522,0.39496601177144625,-0.25529873035148665,0.2999999999999118,0.3971130382057797,-0.2572583747847442,0.3
2.0799999999999996,-2.4327698856628426,-1.5478500101100148,2.0477142799581967,-2.0706605966431235,-1.5707963267948837,-0.8619735588679647,0.3971130382055965,-0.25725837478471636,0.2999999999999022,0.3992763116838987,-0.2591773951383649,0.3
2.0899999999999994,-2.431909310705596,-1.5409344875731976,2.040573229344303,-2.0704350685660504,-1.570796326794884,-0.8611129839107172,0.3992763116837171,-0.25917739513833415,0.2999999999998936,0.4014554906000289,-0.2610554883768135,0.3
2.099999999999999,-2.4309753887216434,-1.5340672950922365,2.0334236928606613,-2.070152724563373,-1.5707963267948843,-0.8601790619267641,0.40145549059984875,-0.26105548837677994,0.29999999999988575,0.4036502308365575,-0.2628923579273962,0.3
2.109999999999999,-2.4299695532321937,-1.5272488064478775,2.026267332636998,-2.0698148529840714,-1.5707963267948848,-0.8591732264373138,0.4036502308363779,-0.26289235792735965,0.29999999999987814,0.40586018581855904,-0.26468771372711736,0.3
2.1199999999999988,-2.428893196413675,-1.5204793622110901,2.0191057855995878,-2.0694227501834512,-1.5707963267948848,-0.8580968696187946,0.40586018581837996,-0.26468771372707806,0.29999999999987137,0.4080850065685231,-0.2664412722684835,0.3
2.1299999999999986,-2.4277476702346283,-1.513759271901508,2.011940663583916,-2.0689777184773632,-1.5707963267948852,-0.8569513434397474,0.40808500656834407,-0.26644127226844133,0.29999999999986515,0.41032434176146243,-0.2681527566442734,0.3
2.1399999999999983,-2.4265342875761005,-1.5070888160251241,2.0047735534655353,-2.068481064235368,-1.5707963267948855,-0.8557379607812192,0.4103243417612829,-0.26815275664422883,0.29999999999986243,0.4125778377803908,-0.2698218965912637,0.3
2.149999999999998,-2.425254323334235,-1.500468247996059,1.9976060173069041,-2.067934096105803,-1.5707963267948852,-0.8544579965393535,0.4125778377802102,-0.2698218965912168,0.2999999999998618,0.41484513877216356,-0.2714484285329076,0.3
2.159999999999998,-2.423909015503985,-1.4938977959471944,1.9904395925180456,-2.0673381233658095,-1.5707963267948855,-0.8531126887091033,0.41484513877198215,-0.27144842853285855,0.29999999999986077,0.41712588670367057,-0.27303209562095615,0.3
2.1699999999999977,-2.4224995662430464,-1.4873776644344021,1.9832757920290878,-2.066694454389644,-1.5707963267948852,-0.8517032394481644,0.4171258867034884,-0.273032095620905,0.2999999999998606,0.4194197214183743,-0.2745726477760177,0.3
2.1799999999999975,-2.4210271429152876,-1.4809080360389857,1.9761161044728393,-2.0660043952288127,-1.570796326794886,-0.8502308161204056,0.4194197214181917,-0.2745726477759647,0.29999999999986054,0.4217262806931824,-0.27606984172704835,0.3
2.1899999999999973,-2.419492879113101,-1.474489072872931,1.9689619943756869,-2.0652692482977155,-1.5707963267948857,-0.8486965523182185,0.42172628069299933,-0.27606984172699345,0.29999999999986043,0.4240452002956467,-0.2775234410497671,0.3
2.199999999999997,-2.417897875658242,-1.4681209179914025,1.961814902355222,-2.0644903111587793,-1.5707963267948857,-0.8471015488633595,0.42404520029546333,-0.27752344104971,0.2999999999998607,0.4263761140414803,-0.2789332162039903,0.3
2.209999999999997,-2.4162432015808486,-1.4618036967168302,1.9546762453231346,-2.063668875401264,-1.5707963267948861,-0.8454468747859659,0.42637611404129694,-0.2789332162039319,0.29999999999986104,0.4287186538523819,-0.2802989445698785,0.3
2.2199999999999966,-2.4145298950764222,-1.4555375178788241,1.9475474166920193,-2.0628062256081545,-1.5707963267948861,-0.843733568281539,0.4287186538521989,-0.28029894456981874,0.2999999999998615,0.4310724498141598,-0.2816204104830908,0.3
2.2299999999999964,-2.4127589644406746,-1.4493224749739932,1.9404297865848352,-2.0619036384058016,-1.5707963267948863,-0.841962637645791,0.43107244981397724,-0.2816204104830295,0.2999999999998625,0.4334371302351455,-0.2828974052688403,0.3
2.239999999999996,-2.410931388982212,-1.4431586472496374,1.9333247020458877,-2.06096238159121,-1.5707963267948868,-0.8401350621873279,0.4334371302349637,-0.28289740526877816,0.2999999999998634,0.4358123217048884,-0.2841297272748471,0.3
2.249999999999996,-2.409048119913102,-1.4370461007151483,1.9262334872522704,-2.0599837133320813,-1.5707963267948868,-0.8382517931182175,0.4358123217047075,-0.28412972727478397,0.2999999999998648,0.43819764915312126,-0.2853171819031809,0.3
2.259999999999996,-2.407110081217453,-1.430984889084799,1.919157443724834,-2.0589688814349936,-1.5707963267948868,-0.8363137544225684,0.4381976491529418,-0.28531718190311706,0.29999999999986615,0.4405927359089884,-0.28645958164099056,0.3
2.2699999999999956,-2.405118170498171,-1.4249750546554785,1.9120978505377955,-2.0579191226772755,-1.5707963267948872,-0.8343218437032857,0.44059273590881015,-0.286459581640926,0.2999999999998676,0.44299720376052637,-0.28755674609011417,0.3
2.2799999999999954,-2.4030732598021194,-1.419016629122787,1.9050559645262195,-2.05683566219839,-1.5707963267948875,-0.8322769330072338,0.44299720376035007,-0.2875567460900492,0.2999999999998698,0.4454106730143879,-0.2886085019955667,0.3
2.289999999999995,-2.4009761964239584,-1.413109634338764,1.8980330204906664,-2.0557197129468587,-1.5707963267948877,-0.8301798696290725,0.44541067301421344,-0.2886085019955013,0.2999999999998718,0.4478327625558001,-0.2896146832728983,0.3
2.299999999999995,-2.3988278036889574,-1.4072540830143971,1.8910302313983742,-2.054572475178933,-1.570796326794888,-0.8280314768940709,0.44783276255562815,-0.289614683272833,0.2999999999998741,0.4502630899087464,-0.29057513103442106,0.3
2.3099999999999947,-2.3966288817151273,-1.4014499793699224,1.8840487885804358,-2.053395136005468,-1.570796326794888,-0.8258325549202412,0.45026308990857733,-0.29057513103435567,0.29999999999987675,0.45270127129636484,-0.29148969361429977,0.3
2.3199999999999945,-2.394380208155033,-1.3956973197357818,1.877089861924452,-2.052188868983624,-1.5707963267948886,-0.8235838813601464,0.45270127129619847,-0.2914896936142348,0.29999999999987964,0.45514692170154974,-0.2923582265925011,0.3
2.3299999999999943,-2.3920825389176663,-1.389996093107005,1.8701546000622638,-2.050954833750211,-1.5707963267948886,-0.8212862121227789,0.4551469217013868,-0.2923582265924365,0.29999999999988264,0.45759965492775134,-0.2931805928175993,0.3
2.339999999999994,-2.3897366088707934,-1.3843462816536352,1.86324413055238,-2.049694175693696,-1.570796326794889,-0.8189402820759061,0.4575996549275925,-0.2931805928175357,0.29999999999988625,0.46005908365996023,-0.2939566624284344,0.3
2.349999999999994,-2.38734313252419,-1.3787478611897095,1.856359560056797,-2.0484080256620367,-1.5707963267948892,-0.8165468057293019,0.46005908365980525,-0.2939566624283717,0.2999999999998897,0.46252481952586905,-0.29468631287461833,0.3
2.3599999999999937,-2.384902804694189,-1.373200801603181,1.8495019745119399,-2.0470974997037072,-1.5707963267948895,-0.8141064778993008,0.46252481952571883,-0.2946863128745569,0.2999999999998934,0.46499647315720083,-0.29536942893588725,0.3
2.3699999999999934,-2.382416301149992,-1.3677050672490676,1.8426724392935383,-2.0457636988394166,-1.57079632679489,-0.8116199743551032,0.4649964731570554,-0.2953694289358273,0.29999999999989735,0.4674736542511947,-0.2960059027402961,0.3
2.3799999999999932,-2.379884279242175,-1.362260617308001,1.8358719993752548,-2.044407708862198,-1.5707963267948901,-0.8090879524472858,0.4674736542510547,-0.2960059027402377,0.2999999999999019,0.46995597163223984,-0.29659563378125303,0.3
2.389999999999993,-2.3773073785138457,-1.3568674061122288,1.8291016794809525,-2.043030600163666,-1.5707963267948903,-0.8065110517189562,0.4699559716321057,-0.2965956337811972,0.2999999999999064,0.4724430333136456,-0.29713852893339016,0.3
2.399999999999993,-2.374686221294899,-1.3515253834410645,1.8223624842305401,-2.041633427584416,-1.5707963267948908,-0.8038898945000086,0.47244303331351795,-0.2971385289333364,0.2999999999999116,0.47493444655954165,-0.29763450246726963,0.3
2.4099999999999926,-2.3720214132798207,-1.3462344947876264,1.8156553982793289,-2.0402172302866397,-1.5707963267948912,-0.8012250864849303,0.4749344465594209,-0.2976345024672185,0.29999999999991683,0.477429817946895,-0.298083476062921,0.3
2.4199999999999924,-2.3693135440894886,-1.3409946815986804,1.8089813864509328,-2.038783031647187,-1.5707963267948917,-0.7985172172945975,0.47742981794678113,-0.2980834760628725,0.29999999999992216,0.4799287534276364,-0.2984853788222087,0.3
2.429999999999992,-2.366563187817409,-1.3358058814892466,1.802341393863704,-2.0373318391693895,-1.570796326794892,-0.7957668610225173,0.4799287534275308,-0.29848537882216364,0.29999999999992844,0.48243085839088495,-0.2988401472800281,0.3
2.439999999999992,-2.3637709035608463,-1.3306680284336194,1.7957363460508284,-2.0358646444121384,-1.5707963267948926,-0.792974576765954,0.48243085839078775,-0.2988401472799865,0.29999999999993454,0.4849357377252614,-0.2991477254143271,0.3
2.4499999999999917,-2.3609372359372616,-1.3255810529342957,1.7891671490740992,-2.0343824229347294,-1.570796326794893,-0.7901409091423691,0.48493573772517373,-0.29914772541428925,0.299999999999941,0.4874429958812816,-0.29940806465495273,0.3
2.4599999999999915,-2.3580627155865033,-1.3205448821703007,1.7826346896315644,-2.032886134256186,-1.570796326794893,-0.7872663887916105,0.48744299588120354,-0.29940806465491876,0.29999999999994786,0.4899522369338175,-0.29962112389132095,0.3
2.4699999999999913,-2.3551478596591675,-1.315559440126271,1.7761398351591469,-2.031376721827795,-1.5707963267948934,-0.784351532864274,0.4899522369337502,-0.2996211238912916,0.2999999999999551,0.4924630646446189,-0.2997868694789085,0.3
2.479999999999991,-2.3521931722915452,-1.3106246477036378,1.7696834339264476,-2.029855113017725,-1.5707963267948943,-0.7813968454966514,0.49246306464456274,-0.2997868694788837,0.2999999999999627,0.49497508252488387,-0.29990527524456567,0.3
2.489999999999991,-2.3491991450675633,-1.3057404228151397,1.7632663151268981,-2.0283222191066694,-1.5707963267948948,-0.7784028182726684,0.4949750825248392,-0.29990527524454647,0.29999999999997073,0.4974878938978689,-0.2999763224906494,0.3
2.4999999999999907,-2.3461662574681195,-1.300906680463892,1.7568892889625507,-2.026778935293569,-1.5707963267948948,-0.7753699306732248,0.4974878938978272,-0.2999763224906312,0.2999999999999732,0.5000011019615287,-0.2999999999979761,0.3
2.5099999999999905,-2.343094977308187,-1.296123332808063,1.7505531467235458,-2.0252261407103935,-1.5707963267948948,-0.7722986505132922,0.5000011019614863,-0.2999999999979577,0.2999999999999725,0.5025143098511758,-0.2999763040275928,0.3
2.5199999999999902,-2.3399857611620964,-1.2913902892123725,1.7442586608628323,-2.0236646984453706,-1.5707963267948946,-0.7691894343672011,0.5025143098511327,-0.2999763040275739,0.2999999999999722,0.5050271207021508,-0.2999052383213679,0.3
2.52999999999999,-2.3368390547773505,-1.2867074562873317,1.7380065850661917,-2.022095455573771,-1.5707963267948946,-0.7660427279824555,0.5050271207021068,-0.29990523832134847,0.29999999999997207,0.5075391377124907,-0.2997868141014002,0.3
2.53999999999999,-2.3336552934773303,-1.2820747379172417,1.7317976543179001,-2.0205192431955696,-1.5707963267948948,-0.7628589666824358,0.5075391377124455,-0.2997868141013802,0.29999999999997107,0.5100499642055893,-0.2996210500682469,0.3
2.5499999999999896,-2.330434902553246,-1.2774920352778754,1.7256325849623473,-2.0189368764793834,-1.5707963267948952,-0.7596385757583509,0.5100499642055434,-0.2996210500682268,0.299999999999971,0.5125592036928369,-0.29940797239797046,0.3
2.5599999999999894,-2.327178297645679,-1.27295924684474,1.7195120747619663,-2.017349154712138,-1.5707963267948948,-0.7563819708507846,0.5125592036927902,-0.2994079723979499,0.2999999999999702,0.5150664599362307,-0.2991476147380051,0.3
2.569999999999989,-2.323885885116051,-1.2684762683927657,1.7134368029517628,-2.0157568613539087,-1.5707963267948948,-0.7530895583211562,0.5150664599361827,-0.29914761473798435,0.29999999999996985,0.5175713370109444,-0.29884001820184336,0.3
2.579999999999989,-2.320558062408325,-1.2640429929882233,1.707407430290827,-2.014160764097516,-1.5707963267948948,-0.7497617356134301,0.5175713370108953,-0.29884001820182204,0.29999999999996946,0.5200734393678507,-0.2984852313625442,0.3
2.5899999999999888,-2.317195218401274,-1.2596593109736445,1.7014245991111574,-2.0125616149324257,-1.5707963267948946,-0.7463988916063788,0.5200734393678011,-0.2984852313625225,0.2999999999999693,0.5225723718959822,-0.2980833102450623,0.3
2.5999999999999885,-2.313797733751599,-1.255325109946489,1.695488933364194,-2.0109601502126178,-1.5707963267948948,-0.7430014069567045,0.5225723718959315,-0.29808331024504003,0.2999999999999686,0.5250677399849242,-0.29763431831740134,0.3
2.6099999999999883,-2.3103659812282036,-1.251040274732249,1.6896010386654083,-2.0093570907280727,-1.5707963267948946,-0.7395696544333087,0.525067739984872,-0.29763431831737874,0.29999999999996846,0.5275591495871278,-0.29713832648059163,0.3
2.619999999999988,-2.3069003260378946,-1.2468046873526706,1.683761502337357,-2.0077531417795997,-1.5707963267948946,-0.7361039992430002,0.5275591495870751,-0.29713832648056865,0.29999999999996785,0.530046207280136,-0.2965954130574938,0.3
2.629999999999988,-2.3034011261427993,-1.2426182269897346,1.6779708934515776,-2.0061489932567564,-1.5707963267948946,-0.7326047993479043,0.5300462072800819,-0.2965954130574703,0.29999999999996735,0.532528520328708,-0.29600566378043114,0.3
2.6399999999999877,-2.2998687325697436,-1.2384807699460072,1.672229762869728,-2.004545319718635,-1.5707963267948948,-0.7290724057748491,0.5325285203286528,-0.29600566378040705,0.2999999999999668,0.5350056967468375,-0.2953691717776511,0.3
2.6499999999999875,-2.2963034897118635,-1.2343921896019507,1.6665386432843716,-2.002942780477335,-1.5707963267948946,-0.7255071629169688,0.5350056967467813,-0.29536917177762667,0.29999999999996646,0.5374773453596516,-0.2946860375586193,0.3
2.6599999999999873,-2.292705735622681,-1.2303523563707577,1.660898049259819,-2.001342019683976,-1.5707963267948946,-0.7219094088277864,0.5374773453595943,-0.29468603755859457,0.299999999999966,0.5399430758651824,-0.293956368998148,0.3
2.669999999999987,-2.2890758023028894,-1.2263611376512407,1.6553084772734186,-1.999743666417093,-1.5707963267948946,-0.7182794755079949,0.539943075865124,-0.293956368998123,0.29999999999996557,0.5424024988959993,-0.2931802813193616,0.3
2.679999999999987,-2.2854140159800735,-1.2224183977793042,1.649770405757733,-1.998148334773344,-1.5707963267948943,-0.7146176891851783,0.5424024988959399,-0.2931802813193362,0.29999999999996513,0.5448552260806951,-0.2923578970755012,0.3
2.6899999999999866,-2.28172069738158,-1.2185239979784737,1.6442842951439882,-1.9965566239604302,-1.5707963267948946,-0.7109243705866852,0.5448552260806344,-0.29235789707547527,0.29999999999996463,0.5473008701052144,-0.2914893461305723,0.3
2.6999999999999864,-2.2779961620007545,-1.2146777963099746,1.6388505879072246,-1.9949691183921658,-1.5707963267948943,-0.7071998352058599,0.5473008701051525,-0.29148934613054595,0.2999999999999641,0.5497390447740153,-0.2905747656388377,0.3
2.709999999999986,-2.2742407203567403,-1.2108796476227994,1.6334697086135552,-1.9933863877856721,-1.5707963267948943,-0.7034443935618453,0.5497390447739522,-0.2905747656388113,0.29999999999996374,0.5521693650710529,-0.2896143000231593,0.3
2.719999999999986,-2.2704546782480355,-1.2071294035042,1.6281420639699469,-1.9918089872606637,-1.5707963267948941,-0.6996583514531407,0.5521693650709891,-0.2896143000231324,0.2999999999999632,0.5545914472205791,-0.2886081009521917,0.3
2.7299999999999858,-2.2666383370000007,-1.2034269122310248,1.622868042876925,-1.9902374574408173,-1.5707963267948946,-0.695842010205106,0.5545914472205135,-0.2886081009521643,0.29999999999996263,0.5570049087477453,-0.2875563273164325,0.3
2.7399999999999856,-2.2627919937064775,-1.1997720187222778,1.6176480164846,-1.9886723245572393,-1.5707963267948943,-0.6919956669115829,0.5570049087476785,-0.2875563273164048,0.29999999999996224,0.5594093685389984,-0.2864591452031313,0.3
2.7499999999999853,-2.2589159414657116,-1.1961645644933159,1.612482338252448,-1.9871141005540496,-1.5707963267948943,-0.6881196146708166,0.5594093685389304,-0.2864591452031033,0.29999999999996163,0.5618044469022638,-0.28531672787006274,0.3
2.759999999999985,-2.2550104696107227,-1.1926043876120027,1.607371344013195,-1.98556328319611,-1.5707963267948946,-0.6842141428158277,0.5618044469021942,-0.28531672787003437,0.2999999999999611,0.5641897656269035,-0.2841292557181673,0.3
2.769999999999985,-2.2510758639342887,-1.1890913226571993,1.6023153520412268,-1.9840203561789453,-1.5707963267948941,-0.6802795371393944,0.5641897656268332,-0.2841292557181384,0.29999999999996046,0.5665649480434394,-0.2828969162630629,0.3
2.7799999999999847,-2.24711240690869,-1.1856252006799042,1.597314663125892,-1.9824857892409062,-1.570796326794894,-0.6763160801137952,0.5665649480433679,-0.28289691626303387,0.29999999999995985,0.5689296190830337,-0.28161990410543547,0.3
2.7899999999999845,-2.2431203779003512,-1.1822058491673644,1.5923695606500725,-1.9809600382776265,-1.5707963267948943,-0.6723240511054565,0.5689296190829614,-0.2816199041054063,0.2999999999999597,0.5712834053367174,-0.28029842090030843,0.3
2.7999999999999843,-2.2391000533795253,-1.1788330920104582,1.587480310674397,-1.979443545458858,-1.5707963267948943,-0.6683037265846307,0.5712834053366431,-0.2802984209002787,0.299999999999959,0.573625935114355,-0.2789326753251988,0.3
2.809999999999984,-2.2350517071251343,-1.1755067494746199,1.5826471620274212,-1.97793673934772,-1.5707963267948941,-0.6642553803302395,0.5736259351142794,-0.27893267532516886,0.2999999999999584,0.5759568385033392,-0.2775228830471651,0.3
2.819999999999984,-2.2309756104249034,-1.1722266381746094,1.5778703464021708,-1.9764400350224807,-1.5707963267948941,-0.6601792836300087,0.5759568385032627,-0.2775228830471348,0.2999999999999578,0.5782757474270042,-0.276069266688751,0.3
2.8299999999999836,-2.226872032270897,-1.1689925710533395,1.573150078459324,-1.974953834200904,-1.5707963267948943,-0.6560757054760017,0.5782757474269259,-0.27606926668872056,0.2999999999999574,0.5805822957027489,-0.2745720557928303,0.3
2.8399999999999834,-2.22274123955056,-1.165804357365036,1.5684865559373906,-1.9734785253672742,-1.5707963267948941,-0.6519449127556652,0.5805822957026695,-0.2745720557927994,0.299999999999957,0.5828761190998628,-0.2730314867863596,0.3
2.849999999999983,-2.2185834972333884,-1.162661802662945,1.5638799597701827,-1.972014483902158,-1.5707963267948941,-0.6477871704384939,0.5828761190997822,-0.2730314867863285,0.2999999999999563,0.5851568553970402,-0.27144780294304394,0.3
2.859999999999983,-2.214399068553305,-1.1595647087917968,1.5593304542118724,-1.970562072214996,-1.5707963267948941,-0.6436027417584104,0.5851568553969584,-0.2714478029430128,0.29999999999995564,0.587424144439581,-0.2698212543449209,0.3
2.869999999999983,-2.210188215186848,-1.1565128738852328,1.5548381869699022,-1.9691216398795903,-1.5707963267948941,-0.6393918883919535,0.5874241444394976,-0.2698212543448892,0.2999999999999556,0.5896776281962618,-0.2681520978428695,0.3
2.8799999999999826,-2.2059511974272574,-1.1535060923683769,1.5504032893460364,-1.9676935237725808,-1.570796326794894,-0.635154870632363,0.5896776281961773,-0.2681520978428376,0.2999999999999551,0.5919169508158745,-0.266440597016051,0.3
2.8899999999999824,-2.201688274354537,-1.150544154965719,1.5460258763857688,-1.9662780482149713,-1.5707963267948943,-0.6308919475596424,0.5919169508157889,-0.2664405970160191,0.2999999999999544,0.5941417586834181,-0.2646870221302863,0.3
2.899999999999982,-2.1973997040015774,-1.1476268487144872,1.5417060470363508,-1.9648755251167853,-1.5707963267948943,-0.6266033772066832,0.5941417586833313,-0.26468702213025386,0.2999999999999541,0.5963517004759398,-0.262891650095378,0.3
2.909999999999982,-2.1930857435164075,-1.1447539569836163,1.5374438843136102,-1.9634862541249163,-1.570796326794894,-0.6222894167215127,0.5963517004758513,-0.2628916500953459,0.2999999999999535,0.5985464272180121,-0.26105476442138276,0.3
2.9199999999999817,-2.188746649320641,-1.1419252594984812,1.5332394554777946,-1.9621105227742361,-1.5707963267948941,-0.6179503225257459,0.5985464272179223,-0.2610547644213502,0.29999999999995314,0.6007255923368402,-0.25917665517384275,0.3
2.9299999999999815,-2.1843826772641948,-1.1391405323714892,1.529092812218585,-1.9607486066420186,-1.570796326794894,-0.6135863504693001,0.600725592336749,-0.2591766551738101,0.2999999999999527,0.6028888517169901,-0.2572576189279795,0.3
2.9399999999999813,-2.1799940827763193,-1.136399548138636,1.525003990849449,-1.9594007695057358,-1.5707963267948941,-0.6091977559814249,0.602888851716898,-0.2572576189279468,0.29999999999995197,0.6050358637547285,-0.25529795872186284,0.3
2.949999999999981,-2.1755811210130145,-1.1337020758021263,1.5209730125114664,-1.9580672635042635,-1.5707963267948941,-0.6047847942181201,0.6050358637546347,-0.2552979587218301,0.29999999999995164,0.6071662894119658,-0.253297984008556,0.3
2.959999999999981,-2.171144047000867,-1.1310478808791125,1.5169998833867298,-1.9567483293025407,-1.570796326794894,-0.6003477202059724,0.6071662894118705,-0.253297984008523,0.2999999999999515,0.6092797922697938,-0.25125801060725084,0.3
2.9699999999999807,-2.166683115777375,-1.1284367254566399,1.5130845949214382,-1.955444196259722,-1.5707963267948937,-0.5958867889824805,0.6092797922696973,-0.2512580106072179,0.2999999999999507,0.6113760385816108,-0.24917836065339566,0.3
2.9799999999999804,-2.1621985825277847,-1.125868368252825,1.5092271240587276,-1.9541550826008265,-1.5707963267948937,-0.5914022557328903,0.6113760385815132,-0.2491783606533625,0.2999999999999502,0.6134546973258239,-0.24705936254782593,0.3
2.9899999999999802,-2.157690702718494,-1.123342564684311,1.5054274334813134,-1.952881195591927,-1.5707963267948937,-0.5868943759235995,0.613454697325725,-0.24705936254779287,0.29999999999995003,0.6155154402581207,-0.244901350904907,0.3
2.99999999999998,-2.153159732227055,-1.1208590669400202,1.5016854718639563,-1.9516227317188606,-1.570796326794894,-0.58236340543216,0.6155154402580205,-0.2449013509048741,0.2999999999999495,0.6175579419633033,-0.24270466649969358,0.3
3.00999999999998,-2.148605927468804,-1.118417624061209,1.4980011741357637,-1.9503798768694796,-1.5707963267948937,-0.5778096006739096,0.6175579419632022,-0.24270466649966022,0.29999999999994914,0.6195818799066748,-0.24046965621411828,0.3
3.0199999999999796,-2.1440295455201683,-1.1160179820278269,1.4943744617523276,-1.9491528065194257,-1.570796326794894,-0.5732332187252737,0.6195818799065724,-0.24046965621408528,0.29999999999994853,0.621586934484972,-0.23819667298221395,0.3
3.0299999999999794,-2.139430844238648,-1.1136598838511451,1.4908052429776184,-1.9479416859213985,-1.570796326794894,-0.5686345174437533,0.6215869344848683,-0.23819667298218078,0.2999999999999485,0.6235727890768337,-0.23588607573438233,0.3
3.039999999999979,-2.134810082379531,-1.1113430696726403,1.4872934131756315,-1.9467466702979164,-1.570796326794894,-0.5640137555846371,0.6235727890767288,-0.23588607573434908,0.2999999999999476,0.6255391300927988,-0.23353822934071405,0.3
3.049999999999979,-2.130167519709342,-1.1090672768690764,1.483838855111647,-1.9455679050374963,-1.5707963267948934,-0.5593711929144476,0.6255391300926929,-0.23353822934068091,0.2999999999999475,0.6274856470248265,-0.23115350455337202,0.3
3.0599999999999787,-2.12550341711605,-1.1068322401637345,1.4804414392630536,-1.9444055258942452,-1.570796326794894,-0.5547070903211552,0.6274856470247192,-0.23115350455333927,0.29999999999994703,0.6294120324953284,-0.22873227794804446,0.3
3.0699999999999785,-2.120818036716058,-1.1046376917437055,1.477101024139546,-1.9432596591907665,-1.5707963267948937,-0.5500217099211633,0.6294120324952203,-0.22873227794801168,0.2999999999999466,0.6313179823057076,-0.22627493186448014,0.3
3.0799999999999783,-2.116111641957991,-1.1024833613831888,1.4738174566126119,-1.9421304220243494,-1.570796326794894,-0.5453153151630965,0.6313179823055981,-0.22627493186444744,0.2999999999999461,0.6332031954843942,-0.2237818543461124,0.3
3.089999999999978,-2.1113844977232867,-1.1003689765726659,1.4705905722540813,-1.9410179224763424,-1.5707963267948934,-0.5405881709283922,0.6332031954842842,-0.22378185434607986,0.29999999999994614,0.6350673743343735,-0.22125343907878167,0.3
3.099999999999978,-2.1066368704236096,-1.0982942626538776,1.4674201956835884,-1.9399222598246375,-1.570796326794894,-0.5358405436287152,0.6350673743342626,-0.22125343907874948,0.29999999999994575,0.6369102244801947,-0.21869008532856926,0.3
3.1099999999999777,-2.1018690280951002,-1.0962589429604588,1.464306140924696,-1.938843524759164,-1.5707963267948934,-0.5310727013002058,0.6369102244800825,-0.21869008532853726,0.2999999999999455,0.6387314549144569,-0.2160921978787475,0.3
3.1199999999999775,-2.097081240489459,-1.094262738964104,1.4612482117694678,-1.9377817996002906,-1.5707963267948934,-0.5262849136945645,0.6387314549143436,-0.21609219787871567,0.2999999999999451,0.6405307780437619,-0.21346018696586055,0.3
3.1299999999999772,-2.092273779161885,-1.0923053704261423,1.458246202151241,-1.936737158520026,-1.5707963267948937,-0.5214774523669903,0.640530778043648,-0.21346018696582905,0.2999999999999448,0.6423079097341294,-0.21079446821494272,0.3
3.139999999999977,-2.087446917555862,-1.0903865555543366,1.4552998965252908,-1.9357096677658818,-1.5707963267948934,-0.5166505907609675,0.6423079097340142,-0.21079446821491135,0.2999999999999445,0.6440625693558644,-0.20809546257388659,0.3
3.149999999999977,-2.082600931084812,-1.0885060111647675,1.4524090702571324,-1.9346993858872923,-1.5707963267948934,-0.5118046042899178,0.6440625693557482,-0.20809546257385528,0.29999999999994437,0.6457944798278716,-0.20536359624697095,0.3
3.1599999999999766,-2.0777360972106083,-1.0866634528486139,1.4495734900181083,-1.933706363964422,-1.5707963267948934,-0.5069397704157138,0.6457944798277545,-0.20536359624694017,0.2999999999999442,0.6475033676614108,-0.2025993006275578,0.3
3.1699999999999764,-2.0728526955189546,-1.0848585951436553,1.4467929141879596,-1.9327306458392324,-1.5707963267948934,-0.50205636872406,0.6475033676612933,-0.20259930062752746,0.29999999999994414,0.6491889630032831,-0.1998030122299698,0.3
3.179999999999976,-2.067951007791639,-1.083091151710294,1.4440670932640118,-1.931772268348646,-1.5707963267948934,-0.49715468099674487,0.6491889630031649,-0.1998030122299398,0.29999999999994376,0.6508509996784438,-0.1969751726205606,0.3
3.189999999999976,-2.0630313180756596,-1.0813608355118993,1.4413957702766218,-1.9308312615596508,-1.5707963267948934,-0.4922349912807655,0.6508509996783247,-0.19697517262053071,0.2999999999999432,0.652489215232035,-0.19411622834798634,0.3
3.1999999999999758,-2.0580939127492237,-1.0796673589992647,1.4387786812104908,-1.9299076490061542,-1.5707963267948934,-0.48729758595432926,0.6524892152319149,-0.19411622834795697,0.29999999999994353,0.6541033509708299,-0.19122663087268885,0.3
3.2099999999999755,-2.053139080584621,-1.0780104342989445,1.4362155554314597,-1.9290014479274442,-1.5707963267948934,-0.4823427537897267,0.6541033509707094,-0.19122663087265984,0.2999999999999432,0.655693152004084,-0.18830683649560717,0.3
3.2199999999999753,-2.048167112807984,-1.0763897734052608,1.4337061161183604,-1.9281126695080284,-1.5707963267948932,-0.47737078601308947,0.655693152003963,-0.1883068364955788,0.299999999999943,0.6572583672837843,-0.18535730628612074,0.3
3.229999999999975,-2.0431783031559174,-1.0748050883757378,1.431250080699516,-1.9272413191187068,-1.5707963267948934,-0.47238197636102325,0.6572583672836627,-0.18535730628609232,0.29999999999994287,0.6587987496442935,-0.18237850600924188,0.3
3.239999999999975,-2.03817294792902,-1.073256091529708,1.4288471612934215,-1.9263873965586424,-1.5707963267948934,-0.4673766211341253,0.6587987496441717,-0.1823785060092145,0.29999999999994276,0.6603140558413806,-0.1793709060520652,0.3
3.2499999999999747,-2.0331513460422777,-1.071742495649868,1.4264970651531956,-1.9255508962982566,-1.5707963267948932,-0.4623550192473832,0.6603140558412579,-0.179370906052038,0.299999999999943,0.6618040465906307,-0.17633498134948966,0.3
3.2599999999999745,-2.0281137990723606,-1.070264014186506,1.4241994951143018,-1.9247318077227242,-1.5707963267948934,-0.4573174722774663,0.6618040465905077,-0.17633498134946285,0.2999999999999423,0.6632684866052321,-0.17327121130921905,0.3
3.2699999999999743,-2.023060611301795,-1.0688203614641558,1.4219541500450945,-1.9239301153758677,-1.5707963267948934,-0.45226428450690087,0.6632684866051088,-0.17327121130919274,0.29999999999994276,0.6647071446331303,-0.1701800797360589,0.3
3.279999999999974,-2.0179920897600385,-1.0674112528904036,1.4197607252997084,-1.9231457992042333,-1.5707963267948934,-0.44719576296514413,0.6647071446330063,-0.17018007973603325,0.29999999999994253,0.6661197934935452,-0.16706207475551835,0.3
3.289999999999974,-2.012908544261452,-1.0660364051665827,1.417618913172777,-1.9223788348011235,-1.5707963267948937,-0.44211221746655704,0.6661197934934209,-0.1670620747554933,0.2999999999999424,0.6675062101128456,-0.1639176887367289,0.3
3.2999999999999736,-2.007810287440177,-1.0646955365000832,1.415528403355527,-1.9216291936503729,-1.5707963267948934,-0.43701396064528225,0.6675062101127213,-0.1639176887367047,0.2999999999999424,0.6688661755597756,-0.16074741821469402,0.3
3.3099999999999734,-2.0026976347819274,-1.0633883668179993,1.4134888833927133,-1.920896843369643,-1.5707963267948932,-0.4319013079870331,0.6688661755596501,-0.16074741821466965,0.2999999999999427,0.670199475080026,-0.15755176381187963,0.3
3.319999999999973,-1.997570904652698,-1.0621146179818213,1.411500039139886,-1.9201817479529935,-1.5707963267948934,-0.4267745778578034,0.6701994750799004,-0.157551763811856,0.29999999999994237,0.6715058981301462,-0.15433123015916156,0.3
3.329999999999973,-1.9924304183244081,-1.0608740140029294,1.4095615552205294,-1.9194838680125288,-1.5707963267948932,-0.42163409152951337,0.6715058981300207,-0.15433123015913872,0.2999999999999423,0.6727852384107923,-0.1510863258161368,0.3
3.3399999999999728,-1.9872764999974821,-1.0596662812585496,1.407673115482479,-1.918803161018859,-1.5707963267948934,-0.41648017320258757,0.672785238410667,-0.15108632581611453,0.29999999999994287,0.6740372938993033,-0.1478175631908176,0.3
3.3499999999999726,-1.9821094768203904,-1.0584911487079351,1.4058344034531762,-1.91813958154017,-1.5707963267948932,-0.41131315002549573,0.6740372938991777,-0.14781756319079578,0.2999999999999425,0.6752618668816033,-0.1445254584587148,0.3
3.3599999999999723,-1.9769296789061508,-1.0573483481084591,1.404045102793188,-1.9174930814796578,-1.5707963267948934,-0.40613335211125634,0.6752618668814776,-0.14452545845869355,0.29999999999994287,0.6764587639834228,-0.14121053148132912,0.3
3.369999999999972,-1.9717374393458231,-1.056237614231339,1.4023048977475034,-1.9168636103110936,-1.5707963267948934,-0.40094111255092846,0.6764587639832976,-0.14121053148130883,0.299999999999943,0.6776277962008341,-0.13787330572405837,0.3
3.379999999999972,-1.9665330942190018,-1.0551586850767205,1.4006134735940945,-1.9162511153123027,-1.5707963267948934,-0.39573676742410724,0.6776277962007088,-0.1378733057240387,0.29999999999994276,0.6787687789300989,-0.1345143081735355,0.3
3.3899999999999717,-1.9613169826013308,-1.0541113020878037,1.3989705170891842,-1.915655541796309,-1.5707963267948934,-0.39052065580643586,0.6787687789299731,-0.13451430817351634,0.2999999999999433,0.679881531996817,-0.1311340692544129,0.3
3.3999999999999715,-1.956089446569067,-1.053095210363756,1.397375716908761,-1.9150768333399337,-1.5707963267948934,-0.3852931197741724,0.6798815319966918,-0.1311340692543944,0.2999999999999434,0.68096587968438,-0.12773312274560042,0.3
3.4099999999999713,-1.950850831200712,-1.0521101588711241,1.3958287640857996,-1.914514932009604,-1.5707963267948937,-0.3800545044058173,0.6809658796842548,-0.1277331227455828,0.2999999999999436,0.6820216507617178,-0.12431200569597738,0.3
3.419999999999971,-1.9456014845757377,-1.0511559006534437,1.3943293524426783,-1.9139697785841632,-1.5707963267948937,-0.3748051577808432,0.6820216507615926,-0.12431200569596002,0.2999999999999441,0.6830486785103385,-0.12087125833958419,0.3
3.429999999999971,-1.9403417577704372,-1.050232193038787,1.3928771790183019,-1.9134413127744432,-1.5707963267948934,-0.36954543097554243,0.683048678510214,-0.12087125833956767,0.29999999999994414,0.6840468007506547,-0.1174114240103151,0.3
3.4399999999999706,-1.9350720048509344,-1.0493387978449775,1.3914719444894443,-1.9129294734393947,-1.5707963267948932,-0.3642756780560397,0.6840468007505308,-0.11741142401029914,0.2999999999999442,0.6850158598675942,-0.1139330490561186,0.3
3.4499999999999704,-1.9297925828633804,-1.0484754815821735,1.3901133535857877,-1.9124341987985423,-1.5707963267948932,-0.3589962560684858,0.6850158598674705,-0.11393304905610348,0.2999999999999448,0.6859557028354888,-0.1104366827527221,0.3
3.45999999999997,-1.9245038518213733,-1.0476420156525743,1.388801115498213,-1.9119554266405663,-1.5707963267948937,-0.3537075250264785,0.6859557028353653,-0.11043668275270757,0.2999999999999447,0.6868661812422386,-0.10692287721689657,0.3
3.46999999999997,-1.9192061746906497,-1.0468381765469812,1.3875349442798415,-1.9114930945277882,-1.5707963267948937,-0.3484098478957549,0.6868661812421161,-0.10692287721688298,0.2999999999999455,0.6877471513127489,-0.10339218731926891,0.3
3.47999999999997,-1.9138999173710722,-1.0460637460379436,1.386314559239383,-1.911047139996367,-1.5707963267948937,-0.34310359057617756,0.6877471513126266,-0.10339218731925581,0.2999999999999456,0.6885984739316329,-0.09984517059670356,0.3
3.4899999999999696,-1.908585448675977,-1.045318511369238,1.385139685326295,-1.9106175007519843,-1.5707963267948937,-0.3377891218810822,0.6885984739315109,-0.09984517059669115,0.2999999999999461,0.6894200146651801,-0.09628238716425876,0.3
3.4999999999999694,-1.9032631403089055,-1.0446022654414386,1.3840100535073632,-1.9102041148608513,-1.5707963267948934,-0.33246681351401075,0.689420014665059,-0.09628238716424709,0.29999999999994614,0.6902116437825854,-0.0927043996267399,0.3
3.509999999999969,-1.8979333668377933,-1.0439148069933237,1.3829254011342118,-1.909806920935815,-1.5707963267948934,-0.3271370400428985,0.690211643782465,-0.0927043996267289,0.29999999999994664,0.690973236276434,-0.08911177298985651,0.3
3.519999999999969,-1.8925965056666483,-1.0432559407788835,1.3818854723013514,-1.9094258583173949,-1.5707963267948937,-0.32180017887175333,0.690973236276314,-0.08911177298984627,0.2999999999999471,0.6917046718824424,-0.08550507457100179,0.3
3.5299999999999687,-1.8872529370047835,-1.0426254777396962,1.3808900181943333,-1.9090608672495637,-1.5707963267948937,-0.3164566102098887,0.6917046718823238,-0.08550507457099214,0.2999999999999472,0.6924058350984498,-0.08188487390966606,0.3
3.5399999999999685,-1.8819030438336612,-1.0420232351724528,1.3799387974276243,-1.9087118890500978,-1.5707963267948937,-0.31110671703876625,0.692405835098332,-0.08188487390965732,0.29999999999994786,0.6930766152026558,-0.0782517426775002,0.3
3.5499999999999683,-1.8765472118714026,-1.0414490368913933,1.3790315763717853,-1.9083788662753178,-1.5707963267948937,-0.30575088507650755,0.6930766152025389,-0.07825174267749188,0.29999999999994803,0.6937169062711062,-0.07460625458804278,0.3
3.559999999999968,-1.8711858295350363,-1.0409027133854685,1.3781681294696126,-1.9080617428790698,-1.5707963267948937,-0.30038950274014153,0.69371690627099,-0.07460625458803517,0.29999999999994886,0.6943266071944187,-0.07094898530612255,0.3
3.569999999999968,-1.8658192879005375,-1.0403841019699913,1.377348239540837,-1.9077604643657708,-1.570796326794894,-0.2950229611056425,0.6943266071943035,-0.07094898530611571,0.2999999999999491,0.6949056216937498,-0.06728051235695574,0.3
3.5799999999999677,-1.860447980660742,-1.0398930469326169,1.3765716980750773,-1.9074749779373859,-1.570796326794894,-0.289651653865847,0.6949056216936356,-0.06728051235694947,0.2999999999999495,0.6954538583359978,-0.06360141503494733,0.3
3.5899999999999674,-1.8550723040811903,-1.039429399673422,1.3758383055126666,-1.9072052326341695,-1.5707963267948937,-0.2842759772862954,0.6954538583358847,-0.06360141503494177,0.2999999999999501,0.6959712305482415,-0.059912274312214166,0.3
3.5999999999999672,-1.8496926569539895,-1.0389930188389376,1.3751478715130647,-1.906951179469052,-1.5707963267948937,-0.27889633015909454,0.6959712305481293,-0.05991227431220915,0.2999999999999507,0.6964576566314111,-0.05621367274684198,0.3
3.609999999999967,-1.844309440549757,-1.038583770449932,1.3745002152105281,-1.90671277155552,-1.5707963267948937,-0.27351311375486204,0.6964576566313005,-0.056213672746837626,0.2999999999999511,0.6969130597731892,-0.05250619439089325,0.3
3.619999999999967,-1.8389230585677354,-1.0382015280228076,1.3738951654567644,-1.9064899642288806,-1.570796326794894,-0.26812673177284047,0.6969130597730794,-0.05250619439088933,0.29999999999995175,0.6973373680601405,-0.04879042469817935,0.3
3.6299999999999666,-1.8335339170841518,-1.0378461726844237,1.3733325610502718,-1.906282715160772,-1.570796326794894,-0.26273759028925686,0.6973373680600321,-0.04879042469817594,0.2999999999999524,0.6977305144890678,-0.045066950431808785,0.3
3.6399999999999664,-1.8281424244989095,-1.0375175932802287,1.3728122509521352,-1.9060909844668295,-1.570796326794894,-0.25734609770401456,0.6977305144889612,-0.04506695043180616,0.29999999999995275,0.6980924369775924,-0.04133635957153238,0.3
3.649999999999966,-1.8227489914806971,-1.0372156864755413,1.3723340944880014,-1.9059147348073833,-1.5707963267948941,-0.25195266468580213,0.6980924369774867,-0.041336359571530416,0.29999999999995336,0.6984230783739578,-0.03759924122089335,0.3
3.659999999999966,-1.8173540309106029,-1.0369403568498525,1.37189796153602,-1.9057539314810896,-1.5707963267948941,-0.24655770411570788,0.6984230783738531,-0.03759924122089217,0.29999999999995414,0.6987223864660548,-0.033856185514201574,0.3
3.6699999999999657,-1.811957957824325,-1.0366915169840416,1.371503732700546,-1.9056085425114266,-1.5707963267948941,-0.24116163102943006,0.6987223864659519,-0.03385618551420081,0.29999999999995486,0.6989903139896656,-0.03010778352334375,0.3
3.6799999999999655,-1.8065611893530718,-1.0364690875403837,1.3711512994713986,-1.9054785387259368,-1.5707963267948943,-0.23576486255817694,0.698990313989564,-0.03010778352334339,0.2999999999999554,0.6992268186359287,-0.026354627164446823,0.3
3.6899999999999653,-1.8011641446632447,-1.0362729973352416,1.3708405643684825,-1.9053638938281623,-1.5707963267948943,-0.23036781786834942,0.6992268186358284,-0.02635462716444713,0.2999999999999562,0.6994318630580186,-0.022597309104408107,0.3
3.699999999999965,-1.7957672448950015,-1.0361031834043635,1.370571441071644,-1.905264584462202,-1.5707963267948941,-0.22497091810010642,0.6994318630579199,-0.022597309104408814,0.29999999999995713,0.6996054148770442,-0.018836422667305747,0.3
3.709999999999965,-1.7903709130998,-1.0359595910606934,1.3703438545355835,-1.9051805902698111,-1.5707963267948941,-0.21957458630490492,0.6996054148769475,-0.018836422667307045,0.29999999999995774,0.6997474466871613,-0.015072561740705221,0.3
3.7199999999999647,-1.7849755741770168,-1.0358421739446213,1.3701577410897081,-1.9051118939400071,-1.5707963267948943,-0.21417924738212155,0.6997474466870658,-0.01507256174070706,0.2999999999999581,0.6998579360599007,-0.011306320681879152,0.3
3.7299999999999645,-1.7795816548097523,-1.0357508940666127,1.3700130485228148,-1.9050584812511224,-1.5707963267948943,-0.20878532801485714,0.6998579360598073,-0.011306320681881398,0.2999999999999592,0.6999368655477094,-0.007538294223950658,0.3
3.7399999999999642,-1.7741895833999168,-1.0356857218421653,1.369909736152518,-1.9050203411052724,-1.5707963267948943,-0.2033932566050215,0.6999368655476174,-0.007538294223953476,0.2999999999999596,0.6999842226867066,-0.003769077381977522,0.3
3.749999999999964,-1.768799790002705,-1.0356466361190357,1.3698477748793032,-1.9049974655551865,-1.5707963267948946,-0.1980034632078096,0.699984222686616,-0.003769077381980604,0.29999999999996035,0.6999999999986508,7.346410070250759e-07,0.3
3.759999999999964,-1.7634127062605685,-1.035633624196717,1.369827147225204,-1.9049898498234057,-1.5707963267948946,-0.1926163794656733,0.6999999999985628,7.346410034747564e-07,0.29999999999996135,0.6999841949921217,0.0037705465479832413,0.3
3.7699999999999636,-1.758028765336791,-1.0356466818381416,1.3698478473570244,-1.9049974923138009,-1.5707963267948946,-0.1872324385418959,0.699984194992035,0.0037705465479792436,0.29999999999996185,0.699936810162913,0.007539763041949702,0.3
3.7799999999999634,-1.7526484018487711,-1.0356858132735711,1.3699098810940649,-1.9050203946154112,-1.5707963267948943,-0.18185207505387596,0.6999368101628279,0.007539763041945619,0.29999999999996285,0.6998578529936386,0.0113077889199284,0.3
3.789999999999963,-1.7472720518011282,-1.035751031196708,1.3700132659004023,-1.9050585614986117,-1.5707963267948948,-0.17647572500623257,0.6998578529935555,0.011307788919923352,0.2999999999999637,0.6997473359525506,0.015074029166952593,0.3
3.799999999999963,-1.7419001525187368,-1.0358423567529973,1.3701580308616645,-1.9051120009035842,-1.5707963267948946,-0.17110382572384134,0.699747335952469,0.015074029166947537,0.29999999999996424,0.6996052764915712,0.018837889050027375,0.3
3.8099999999999627,-1.7365331425798056,-1.0359598195201538,1.3703442166463713,-1.9051807239211338,-1.5707963267948946,-0.16573681578491012,0.6996052764914917,0.018837889050022018,0.29999999999996496,0.6994316970435361,0.022598774212045408,0.3
3.8199999999999625,-1.7311714617491016,-1.0361034574809311,1.3705718754518634,-1.9052647447658488,-1.570796326794895,-0.1603751349542062,0.6994316970434591,0.02259877421203967,0.2999999999999662,0.6992266250186523,0.026356090765642333,0.3
3.8299999999999623,-1.7258155509114437,-1.0362733169881746,1.370841070934898,-1.9053640807416388,-1.5707963267948948,-0.1550192241165482,0.699226625018577,0.026356090765636338,0.299999999999967,0.6989900928001695,0.030109245386977863,0.3
3.839999999999962,-1.7204658520055707,-1.036469452722195,1.3711518781269636,-1.9054787521996834,-1.5707963267948948,-0.14966952521067506,0.6989900928000962,0.030109245386971566,0.2999999999999677,0.6987221377392675,0.03385764540942907,0.3
3.849999999999962,-1.7151228079584941,-1.0366919276405104,1.3715043833344207,-1.9056087824888246,-1.570796326794895,-0.14432648116359867,0.6987221377391963,0.03385764540942277,0.2999999999999686,0.6984228021491562,0.03760069891718013,0.3
3.8599999999999617,-1.7097868626204529,-1.0369408129200557,1.3718986840236127,-1.9057541978984711,-1.570796326794895,-0.13899053582555715,0.6984228021490866,0.03760069891717351,0.2999999999999694,0.6980921332983956,0.04133781483869102,0.3
3.8699999999999615,-1.704458460700578,-1.0372161878918729,1.3723348886909978,-1.9059150275940384,-1.570796326794895,-0.13366213390568207,0.6980921332983282,0.04133781483868412,0.2999999999999703,0.6977301834034302,0.04506840304003549,0.3
3.8799999999999613,-1.6991380477033804,-1.0375181399684286,1.3728131167185378,-1.906091303545022,-1.570796326794895,-0.12834172090848497,0.6977301834033646,0.04506840304002874,0.29999999999997107,0.6973370096203444,0.04879187441809042,0.3
3.889999999999961,-1.6938260698661727,-1.0378467645636074,1.3733334982144398,-1.9062830604457452,-1.5707963267948952,-0.12302974307127704,0.6973370096202811,0.048791874418083324,0.29999999999997223,0.6969126740358363,0.05250764099356166,0.3
3.899999999999961,-1.6885229740975327,-1.0382021650055018,1.3738961738394648,-1.906490335628875,-1.5707963267948952,-0.11772664730263722,0.6969126740357753,0.05250764099355452,0.29999999999997284,0.6964572436574139,0.056215116003832104,0.3
3.9099999999999606,-1.6832292079169273,-1.0385844524421124,1.3745012946189892,-1.9067131689717882,-1.570796326794895,-0.11243288112203156,0.6964572436573551,0.05621511600382484,0.2999999999999742,0.6959707904028134,0.05991371399561901,0.3
3.9199999999999604,-1.6779452193955935,-1.0389937457400633,1.3751490217410252,-1.9069516027958726,-1.5707963267948954,-0.10714889260069818,0.6959707904027564,0.05991371399561178,0.2999999999999749,0.6954533910886428,0.06360285091742446,0.3
3.92999999999996,-1.6726714570987933,-1.0394301713764798,1.3758395263404344,-1.9072056817588652,-1.5707963267948954,-0.10187513030389753,0.6954533910885881,0.06360285091741714,0.2999999999999755,0.6949051274182517,0.06728194421176238,0.3
3.93999999999996,-1.6674083700295497,-1.0398938633241663,1.3765729892695961,-1.9074754527403397,-1.5707963267948952,-0.09661204323465412,0.694905127418199,0.0672819442117552,0.2999999999999768,0.6943260859688294,0.070950412907152,0.3
3.9499999999999598,-1.6621564075739665,-1.040384962930213,1.3773496008557549,-1.907760964720451,-1.5707963267948952,-0.09136008077907047,0.6943260859687791,0.07095041290714454,0.2999999999999775,0.693716358177733,0.07460767770986029,0.3
3.9599999999999596,-1.6569160194482355,-1.0409036187882132,1.378169560645351,-1.9080622686520465,-1.5707963267948957,-0.08611969265333945,0.693716358177685,0.074607677709853,0.2999999999999781,0.6930760403280493,0.07825316109537882,0.3
3.9699999999999593,-1.6516876556474425,-1.0414499866042382,1.3790330771356165,-1.908379417326287,-1.5707963267948954,-0.0808913288525469,0.6930760403280036,0.07825316109537174,0.2999999999999795,0.6924052335333892,0.08188628739962096,0.3
3.979999999999959,-1.6464717663962665,-1.0420242290567523,1.3799403674937496,-1.9087124652319054,-1.5707963267948957,-0.0756754396013705,0.6924052335333456,0.0818862873996139,0.29999999999998084,0.691704043721922,0.08550648290982674,0.3
3.989999999999959,-1.6412688021016733,-1.0426265156506476,1.3808916572639738,-1.909061468408233,-1.5707963267948957,-0.07047247530677749,0.6917040437218804,0.08550648290981984,0.29999999999998106,0.6909725816196474,0.0891131759551582,0.3
3.9999999999999587,-1.6360792133077098,-1.043257022565584,1.3818871800628285,-1.9094264842921513,-1.5707963267948957,-0.06528288651281389,0.6909725816196078,0.08911317595515146,0.2999999999999821,0.6902109627329105,0.09270579699697391,0.3
4.009999999999959,-1.6309034506524853,-1.04391593249884,1.3829271772630498,-1.9098075715591156,-1.5707963267948957,-0.06010712385758901,0.6902109627328735,0.09270579699696711,0.29999999999998334,0.6894193073301628,0.09628377871876383,0.3
4.019999999999959,-1.625741964827446,-1.0446034345028725,1.3840118976663833,-1.9102047899584167,-1.5707963267948957,-0.0549456380325501,0.6894193073301277,0.0962837787187573,0.2999999999999844,0.6885977404229693,0.09984655611573734,0.3
4.0299999999999585,-1.6205952065390294,-1.0453197238177963,1.385141597165718,-1.9106182001428262,-1.570796326794896,-0.04979887974413347,0.6885977404229364,0.09984655611573118,0.2999999999999851,0.6877463917462685,0.10339356658404221,0.3
4.039999999999958,-1.6154636264727928,-1.046065001699016,1.38631653839694,-1.9110478634928283,-1.570796326794896,-0.04466729967789676,0.6877463917462376,0.10339356658403616,0.29999999999998606,0.686865395737886,0.10692425000960717,0.3
4.049999999999958,-1.6103476752601058,-1.0468394752402121,1.387536990380881,-1.911493841935573,-1.570796326794896,-0.03955134846520967,0.6868653957378573,0.10692425000960143,0.2999999999999874,0.685954891517304,0.11043804885659016,0.3
4.059999999999958,-1.6052478034474942,-1.047643357191944,1.3888032281558182,-1.9119561977587778,-1.570796326794896,-0.034451476652597825,0.6859548915172776,0.11043804885658454,0.29999999999998794,0.685015022863694,0.11393440825542046,0.3
4.069999999999958,-1.60016446146872,-1.0484768657760846,1.3901155324009054,-1.9124349934197238,-1.570796326794896,-0.02936813467382358,0.6850150228636699,0.11393440825541502,0.29999999999998916,0.6840459381932116,0.11741277609041742,0.3
4.079999999999957,-1.5950980996196866,-1.0493402244963381,1.3914741890510056,-1.9129302913495696,-1.5707963267948961,-0.02430177282479047,0.6840459381931887,0.11741277609041254,0.2999999999999898,0.6830477905355602,0.12087260308697788,0.3
4.089999999999957,-1.5900491680362403,-1.0502336619450952,1.392879488903348,-1.9134421537531547,-1.5707963267948961,-0.01925284124134407,0.6830477905355404,0.12087260308697335,0.29999999999999083,0.6820207375098261,0.12431334289831099,0.3
4.099999999999957,-1.5850181166749582,-1.0511574116068858,1.3943317272165061,-1.9139706424045217,-1.5707963267948963,-0.014221789880061564,0.6820207375098081,0.12431334289830674,0.2999999999999916,0.6809649412995877,0.1277344521917147,0.3
4.109999999999957,-1.5800053952969915,-1.0521117116586667,1.3958312033020974,-1.9145158184383317,-1.5707963267948961,-0.009209068502095031,0.6809649412995716,0.12773445219171076,0.29999999999999294,0.679880568627306,0.13113539073437258,0.3
4.119999999999957,-1.5750114534550452,-1.05309680476724,1.3973782201097518,-1.915077742137412,-1.5707963267948961,-0.0042151266601486255,0.6798805686272918,0.1311353907343691,0.2999999999999936,0.6787677907279964,0.13451562147866364,0.3
4.129999999999956,-1.5700367404835631,-1.054112937884046,1.3989730838057752,-1.915656472716629,-1.5707963267948966,0.000759586311333647,0.6787677907279843,0.1345156214786606,0.29999999999999444,0.6776267833221887,0.13787461064696885,0.3
4.139999999999956,-1.5650817054921877,-1.055160362037621,1.4006161033460387,-1.9162520681033166,-1.5707963267948963,0.005714621302708627,0.6776267833221788,0.1378746106469662,0.2999999999999952,0.6764577265881797,0.14121182781595953,0.3
4.149999999999956,-1.5601467973625682,-1.0562393321239807,1.402307590043549,-1.9168645847144672,-1.5707963267948963,0.01064952943232845,0.6764577265881714,0.14121182781595737,0.2999999999999963,0.6752608051335794,0.1445267460003588,0.3
4.159999999999956,-1.555232464748576,-1.0573501066952182,1.404047857131248,-1.917494077230928,-1.5707963267948966,0.015563862046320594,0.6752608051335729,0.14452674600035703,0.29999999999999694,0.6740362079661609,0.14781884173615728,0.3
4.1699999999999555,-1.550339156079998,-1.0584929477465939,1.4058372193204942,-1.918140598368798,-1.5707963267948966,0.020457170714898436,0.6740362079661564,0.14781884173615625,0.299999999999998,0.6727841284640128,0.15108759516327544,0.3
4.179999999999955,-1.5454673195697652,-1.059668120502409,1.4076759923558047,-1.918804198648293,-1.5707963267948966,0.0253290072251315,0.6727841284640107,0.15108759516327472,0.2999999999999992,0.671504764345003,0.15433249010765432,0.3
4.189999999999955,-1.540617403224775,-1.0608758932009266,1.4095644925662953,-1.9194849261602658,-1.5707963267948966,0.03017892357012166,0.6715047643450024,0.15433249010765412,0.29999999999999966,0.6701983176355568,0.15755301416276601,0.3
